%
(GETRIEBE_PLATTE_0_4MM)
(T1  D=4. CR=0. - ZMIN=-6.5 - SCHAFTFRSER)
N10 G90 G94 G17 G91.1
N15 G21
N20 G53 G0 Z0.
(2D-TASCHE2)
N25 T1 M6
N30 S5000 M3
N35 G54
N40 G64
N45 G43 Z17. H1
N50 G0 X61.295 Y157.567
N55 G0 Z5.2
N60 G1 Z1.7 F333.33
N65 Z0.2 F200.
N70 G19 G3 Y157.967 Z-0.2 J0.4 K0.
N75 G1 Y158.007
N80 Y165.423
N85 G17 G3 X61.095 Y165.623 I-0.2 J0.
N90 G1 X58.905 Y165.624
N95 G3 X58.705 Y165.424 I0. J-0.2
N100 G1 Y158.008
N105 Y155.588
N110 Y146.824
N115 G3 X59.024 Y146.505 I0.319 J0.
N120 G1 X60.976
N125 G3 X61.295 Y146.824 I0. J0.319
N130 G1 Y155.587
N135 X61.302 Y155.639
N140 X61.322 Y155.688
N145 X61.355 Y155.73
N150 X63.535 Y157.867
N155 X63.568 Y157.908
N160 X63.588 Y157.957
N165 X63.595 Y158.01
N170 Y166.928
N175 G3 X63.395 Y167.128 I-0.2 J0.
N180 G1 X56.605 Y167.124
N185 G3 X56.405 Y166.924 I0. J-0.2
N190 G1 Y158.005
N195 Y155.585
N200 Y144.524
N205 G3 X56.724 Y144.205 I0.319 J0.
N210 G1 X63.276
N215 G3 X63.595 Y144.524 I0. J0.319
N220 G1 Y155.59
N225 X63.6 Y155.635
N230 X63.616 Y155.678
N235 X63.641 Y155.717
N240 X63.674 Y155.749
N245 X65.816 Y157.385
N250 X65.849 Y157.417
N255 X65.874 Y157.455
N260 X65.89 Y157.499
N265 X65.895 Y157.544
N270 Y174.376
N275 G3 X65.576 Y174.695 I-0.319 J0.
N280 G1 X54.424
N285 G3 X54.105 Y174.376 I0. J-0.319
N290 G1 Y157.534
N295 Y156.07
N300 Y142.224
N305 G3 X54.424 Y141.905 I0.319 J0.
N310 G1 X65.576
N315 G3 X65.895 Y142.224 I0. J0.319
N320 G1 Y156.061
N325 G3 X65.563 Y156.211 I-0.2 J0.
N330 G1 X51.873 Y144.176
N335 X51.844 Y144.145
N340 X51.823 Y144.108
N345 X51.809 Y144.068
N350 X51.805 Y144.026
N355 Y139.924
N360 G3 X52.124 Y139.605 I0.319 J0.
N365 G1 X67.876
N370 G3 X68.195 Y139.924 I0. J0.319
N375 G1 Y144.023
N380 Y147.067
N385 Y176.676
N390 G3 X67.876 Y176.995 I-0.319 J0.
N395 G1 X52.124
N400 G3 X51.805 Y176.676 I0. J-0.319
N405 G1 Y147.07
N410 X51.8 Y147.024
N415 X51.784 Y146.98
N420 X51.758 Y146.941
N425 X49.552 Y144.328
N430 X49.526 Y144.289
N435 X49.51 Y144.245
N440 X49.505 Y144.199
N445 Y137.624
N450 G3 X49.824 Y137.305 I0.319 J0.
N455 G1 X70.176
N460 G3 X70.495 Y137.624 I0. J0.319
N465 G1 Y144.201
N470 Y146.894
N475 Y177.69
N480 X70.487 Y177.745
N485 X70.465 Y177.796
N490 X70.429 Y177.838
N495 X70.383 Y177.87
N500 X67.512 Y179.275
N505 X67.469 Y179.29
N510 X67.424 Y179.295
N515 X52.573
N520 X52.528 Y179.29
N525 X52.485 Y179.275
N530 X49.618 Y177.887
N535 X49.572 Y177.856
N540 X49.536 Y177.813
N545 X49.513 Y177.762
N550 X49.505 Y177.707
N555 Y146.892
N560 G2 X48.355 Y145.167 I-1.869 J0.
N565 G3 X47.205 Y143.442 I0.719 J-1.725
N570 G1 Y135.324
N575 G3 X47.524 Y135.005 I0.319 J0.
N580 G1 X72.476
N585 G3 X72.795 Y135.324 I0. J0.319
N590 G1 Y181.276
N595 G3 X72.476 Y181.595 I-0.319 J0.
N600 G1 X47.524
N605 G3 X47.205 Y181.276 I0. J-0.319
N610 G1 Y143.442
N615 G2 X46.055 Y141.717 I-1.869 J0.
N620 G3 X44.905 Y139.992 I0.719 J-1.725
N625 G1 Y133.024
N630 G3 X45.224 Y132.705 I0.319 J0.
N635 G1 X74.776
N640 G3 X75.095 Y133.024 I0. J0.319
N645 G1 Y183.576
N650 G3 X74.776 Y183.895 I-0.319 J0.
N655 G1 X45.224
N660 G3 X44.905 Y183.576 I0. J-0.319
N665 G1 Y139.992
N670 G2 X43.755 Y138.267 I-1.869 J0.
N675 G3 X42.605 Y136.542 I0.719 J-1.725
N680 G1 Y130.724
N685 G3 X42.924 Y130.405 I0.319 J0.
N690 G1 X77.076
N695 G3 X77.395 Y130.724 I0. J0.319
N700 G1 Y185.876
N705 G3 X77.076 Y186.195 I-0.319 J0.
N710 G1 X42.924
N715 G3 X42.605 Y185.876 I0. J-0.319
N720 G1 Y136.542
N725 G2 X41.455 Y134.817 I-1.869 J0.
N730 G3 X40.305 Y133.092 I0.719 J-1.725
N735 G1 Y128.424
N740 G3 X40.624 Y128.105 I0.319 J0.
N745 G1 X79.376
N750 G3 X79.695 Y128.424 I0. J0.319
N755 G1 Y188.176
N760 G3 X79.376 Y188.495 I-0.319 J0.
N765 G1 X40.624
N770 G3 X40.305 Y188.176 I0. J-0.319
N775 G1 Y133.092
N780 G2 X39.153 Y131.363 I-1.873 J0.
N785 G3 X38. Y129.634 I0.72 J-1.729
N790 G1 Y127.8
N795 G3 X40. Y125.8 I2. J0.
N800 G1 X80.
N805 G3 X82. Y127.8 I0. J2.
N810 G1 Y188.8
N815 G3 X80. Y190.8 I-2. J0.
N820 G1 X40.
N825 G3 X38. Y188.8 I0. J-2.
N830 G1 Y129.634
N835 G3 X41.466 Y128.558 Z-0.248 I1.9 J0. F333.33
N840 G1 X60.961 Y156.931 Z-0.589
N845 G3 X61.295 Y158.007 Z-0.6 I-1.566 J1.076
N850 G1 Y165.423 F200.
N855 G3 X61.095 Y165.623 I-0.2 J0.
N860 G1 X58.905 Y165.624
N865 G3 X58.705 Y165.424 I0. J-0.2
N870 G1 Y158.008
N875 Y155.588
N880 Y146.824
N885 G3 X59.024 Y146.505 I0.319 J0.
N890 G1 X60.976
N895 G3 X61.295 Y146.824 I0. J0.319
N900 G1 Y155.587
N905 X61.302 Y155.639
N910 X61.322 Y155.688
N915 X61.355 Y155.73
N920 X63.535 Y157.867
N925 X63.568 Y157.908
N930 X63.588 Y157.957
N935 X63.595 Y158.01
N940 Y166.928
N945 G3 X63.395 Y167.128 I-0.2 J0.
N950 G1 X56.605 Y167.124
N955 G3 X56.405 Y166.924 I0. J-0.2
N960 G1 Y158.005
N965 Y155.585
N970 Y144.524
N975 G3 X56.724 Y144.205 I0.319 J0.
N980 G1 X63.276
N985 G3 X63.595 Y144.524 I0. J0.319
N990 G1 Y155.59
N995 X63.6 Y155.635
N1000 X63.616 Y155.678
N1005 X63.641 Y155.717
N1010 X63.674 Y155.749
N1015 X65.816 Y157.385
N1020 X65.849 Y157.417
N1025 X65.874 Y157.455
N1030 X65.89 Y157.499
N1035 X65.895 Y157.544
N1040 Y174.376
N1045 G3 X65.576 Y174.695 I-0.319 J0.
N1050 G1 X54.424
N1055 G3 X54.105 Y174.376 I0. J-0.319
N1060 G1 Y157.534
N1065 Y156.07
N1070 Y142.224
N1075 G3 X54.424 Y141.905 I0.319 J0.
N1080 G1 X65.576
N1085 G3 X65.895 Y142.224 I0. J0.319
N1090 G1 Y156.061
N1095 G3 X65.563 Y156.211 I-0.2 J0.
N1100 G1 X51.873 Y144.176
N1105 X51.844 Y144.145
N1110 X51.823 Y144.108
N1115 X51.809 Y144.068
N1120 X51.805 Y144.026
N1125 Y139.924
N1130 G3 X52.124 Y139.605 I0.319 J0.
N1135 G1 X67.876
N1140 G3 X68.195 Y139.924 I0. J0.319
N1145 G1 Y144.023
N1150 Y147.067
N1155 Y176.676
N1160 G3 X67.876 Y176.995 I-0.319 J0.
N1165 G1 X52.124
N1170 G3 X51.805 Y176.676 I0. J-0.319
N1175 G1 Y147.07
N1180 X51.8 Y147.024
N1185 X51.784 Y146.98
N1190 X51.758 Y146.941
N1195 X49.552 Y144.328
N1200 X49.526 Y144.289
N1205 X49.51 Y144.245
N1210 X49.505 Y144.199
N1215 Y137.624
N1220 G3 X49.824 Y137.305 I0.319 J0.
N1225 G1 X70.176
N1230 G3 X70.495 Y137.624 I0. J0.319
N1235 G1 Y144.201
N1240 Y146.894
N1245 Y177.69
N1250 X70.487 Y177.745
N1255 X70.465 Y177.796
N1260 X70.429 Y177.838
N1265 X70.383 Y177.87
N1270 X67.512 Y179.275
N1275 X67.469 Y179.29
N1280 X67.424 Y179.295
N1285 X52.573
N1290 X52.528 Y179.29
N1295 X52.485 Y179.275
N1300 X49.618 Y177.887
N1305 X49.572 Y177.856
N1310 X49.536 Y177.813
N1315 X49.513 Y177.762
N1320 X49.505 Y177.707
N1325 Y146.892
N1330 G2 X48.355 Y145.167 I-1.869 J0.
N1335 G3 X47.205 Y143.442 I0.719 J-1.725
N1340 G1 Y135.324
N1345 G3 X47.524 Y135.005 I0.319 J0.
N1350 G1 X72.476
N1355 G3 X72.795 Y135.324 I0. J0.319
N1360 G1 Y181.276
N1365 G3 X72.476 Y181.595 I-0.319 J0.
N1370 G1 X47.524
N1375 G3 X47.205 Y181.276 I0. J-0.319
N1380 G1 Y143.442
N1385 G2 X46.055 Y141.717 I-1.869 J0.
N1390 G3 X44.905 Y139.992 I0.719 J-1.725
N1395 G1 Y133.024
N1400 G3 X45.224 Y132.705 I0.319 J0.
N1405 G1 X74.776
N1410 G3 X75.095 Y133.024 I0. J0.319
N1415 G1 Y183.576
N1420 G3 X74.776 Y183.895 I-0.319 J0.
N1425 G1 X45.224
N1430 G3 X44.905 Y183.576 I0. J-0.319
N1435 G1 Y139.992
N1440 G2 X43.755 Y138.267 I-1.869 J0.
N1445 G3 X42.605 Y136.542 I0.719 J-1.725
N1450 G1 Y130.724
N1455 G3 X42.924 Y130.405 I0.319 J0.
N1460 G1 X77.076
N1465 G3 X77.395 Y130.724 I0. J0.319
N1470 G1 Y185.876
N1475 G3 X77.076 Y186.195 I-0.319 J0.
N1480 G1 X42.924
N1485 G3 X42.605 Y185.876 I0. J-0.319
N1490 G1 Y136.542
N1495 G2 X41.455 Y134.817 I-1.869 J0.
N1500 G3 X40.305 Y133.092 I0.719 J-1.725
N1505 G1 Y128.424
N1510 G3 X40.624 Y128.105 I0.319 J0.
N1515 G1 X79.376
N1520 G3 X79.695 Y128.424 I0. J0.319
N1525 G1 Y188.176
N1530 G3 X79.376 Y188.495 I-0.319 J0.
N1535 G1 X40.624
N1540 G3 X40.305 Y188.176 I0. J-0.319
N1545 G1 Y133.092
N1550 G2 X39.153 Y131.363 I-1.873 J0.
N1555 G3 X38. Y129.634 I0.72 J-1.729
N1560 G1 Y127.8
N1565 G3 X40. Y125.8 I2. J0.
N1570 G1 X80.
N1575 G3 X82. Y127.8 I0. J2.
N1580 G1 Y188.8
N1585 G3 X80. Y190.8 I-2. J0.
N1590 G1 X40.
N1595 G3 X38. Y188.8 I0. J-2.
N1600 G1 Y129.634
N1605 G3 X41.466 Y128.558 Z-0.648 I1.9 J0. F333.33
N1610 G1 X60.961 Y156.931 Z-0.989
N1615 G3 X61.295 Y158.007 Z-1. I-1.566 J1.076
N1620 G1 Y165.423 F200.
N1625 G3 X61.095 Y165.623 I-0.2 J0.
N1630 G1 X58.905 Y165.624
N1635 G3 X58.705 Y165.424 I0. J-0.2
N1640 G1 Y158.008
N1645 Y155.588
N1650 Y146.824
N1655 G3 X59.024 Y146.505 I0.319 J0.
N1660 G1 X60.976
N1665 G3 X61.295 Y146.824 I0. J0.319
N1670 G1 Y155.587
N1675 X61.302 Y155.639
N1680 X61.322 Y155.688
N1685 X61.355 Y155.73
N1690 X63.535 Y157.867
N1695 X63.568 Y157.908
N1700 X63.588 Y157.957
N1705 X63.595 Y158.01
N1710 Y166.928
N1715 G3 X63.395 Y167.128 I-0.2 J0.
N1720 G1 X56.605 Y167.124
N1725 G3 X56.405 Y166.924 I0. J-0.2
N1730 G1 Y158.005
N1735 Y155.585
N1740 Y144.524
N1745 G3 X56.724 Y144.205 I0.319 J0.
N1750 G1 X63.276
N1755 G3 X63.595 Y144.524 I0. J0.319
N1760 G1 Y155.59
N1765 X63.6 Y155.635
N1770 X63.616 Y155.678
N1775 X63.641 Y155.717
N1780 X63.674 Y155.749
N1785 X65.816 Y157.385
N1790 X65.849 Y157.417
N1795 X65.874 Y157.455
N1800 X65.89 Y157.499
N1805 X65.895 Y157.544
N1810 Y174.376
N1815 G3 X65.576 Y174.695 I-0.319 J0.
N1820 G1 X54.424
N1825 G3 X54.105 Y174.376 I0. J-0.319
N1830 G1 Y157.534
N1835 Y156.07
N1840 Y142.224
N1845 G3 X54.424 Y141.905 I0.319 J0.
N1850 G1 X65.576
N1855 G3 X65.895 Y142.224 I0. J0.319
N1860 G1 Y156.061
N1865 G3 X65.563 Y156.211 I-0.2 J0.
N1870 G1 X51.873 Y144.176
N1875 X51.844 Y144.145
N1880 X51.823 Y144.108
N1885 X51.809 Y144.068
N1890 X51.805 Y144.026
N1895 Y139.924
N1900 G3 X52.124 Y139.605 I0.319 J0.
N1905 G1 X67.876
N1910 G3 X68.195 Y139.924 I0. J0.319
N1915 G1 Y144.023
N1920 Y147.067
N1925 Y176.676
N1930 G3 X67.876 Y176.995 I-0.319 J0.
N1935 G1 X52.124
N1940 G3 X51.805 Y176.676 I0. J-0.319
N1945 G1 Y147.07
N1950 X51.8 Y147.024
N1955 X51.784 Y146.98
N1960 X51.758 Y146.941
N1965 X49.552 Y144.328
N1970 X49.526 Y144.289
N1975 X49.51 Y144.245
N1980 X49.505 Y144.199
N1985 Y137.624
N1990 G3 X49.824 Y137.305 I0.319 J0.
N1995 G1 X70.176
N2000 G3 X70.495 Y137.624 I0. J0.319
N2005 G1 Y144.201
N2010 Y146.894
N2015 Y177.69
N2020 X70.487 Y177.745
N2025 X70.465 Y177.796
N2030 X70.429 Y177.838
N2035 X70.383 Y177.87
N2040 X67.512 Y179.275
N2045 X67.469 Y179.29
N2050 X67.424 Y179.295
N2055 X52.573
N2060 X52.528 Y179.29
N2065 X52.485 Y179.275
N2070 X49.618 Y177.887
N2075 X49.572 Y177.856
N2080 X49.536 Y177.813
N2085 X49.513 Y177.762
N2090 X49.505 Y177.707
N2095 Y146.892
N2100 G2 X48.355 Y145.167 I-1.869 J0.
N2105 G3 X47.205 Y143.442 I0.719 J-1.725
N2110 G1 Y135.324
N2115 G3 X47.524 Y135.005 I0.319 J0.
N2120 G1 X72.476
N2125 G3 X72.795 Y135.324 I0. J0.319
N2130 G1 Y181.276
N2135 G3 X72.476 Y181.595 I-0.319 J0.
N2140 G1 X47.524
N2145 G3 X47.205 Y181.276 I0. J-0.319
N2150 G1 Y143.442
N2155 G2 X46.055 Y141.717 I-1.869 J0.
N2160 G3 X44.905 Y139.992 I0.719 J-1.725
N2165 G1 Y133.024
N2170 G3 X45.224 Y132.705 I0.319 J0.
N2175 G1 X74.776
N2180 G3 X75.095 Y133.024 I0. J0.319
N2185 G1 Y183.576
N2190 G3 X74.776 Y183.895 I-0.319 J0.
N2195 G1 X45.224
N2200 G3 X44.905 Y183.576 I0. J-0.319
N2205 G1 Y139.992
N2210 G2 X43.755 Y138.267 I-1.869 J0.
N2215 G3 X42.605 Y136.542 I0.719 J-1.725
N2220 G1 Y130.724
N2225 G3 X42.924 Y130.405 I0.319 J0.
N2230 G1 X77.076
N2235 G3 X77.395 Y130.724 I0. J0.319
N2240 G1 Y185.876
N2245 G3 X77.076 Y186.195 I-0.319 J0.
N2250 G1 X42.924
N2255 G3 X42.605 Y185.876 I0. J-0.319
N2260 G1 Y136.542
N2265 G2 X41.455 Y134.817 I-1.869 J0.
N2270 G3 X40.305 Y133.092 I0.719 J-1.725
N2275 G1 Y128.424
N2280 G3 X40.624 Y128.105 I0.319 J0.
N2285 G1 X79.376
N2290 G3 X79.695 Y128.424 I0. J0.319
N2295 G1 Y188.176
N2300 G3 X79.376 Y188.495 I-0.319 J0.
N2305 G1 X40.624
N2310 G3 X40.305 Y188.176 I0. J-0.319
N2315 G1 Y133.092
N2320 G2 X39.153 Y131.363 I-1.873 J0.
N2325 G3 X38. Y129.634 I0.72 J-1.729
N2330 G1 Y127.8
N2335 G3 X40. Y125.8 I2. J0.
N2340 G1 X80.
N2345 G3 X82. Y127.8 I0. J2.
N2350 G1 Y188.8
N2355 G3 X80. Y190.8 I-2. J0.
N2360 G1 X40.
N2365 G3 X38. Y188.8 I0. J-2.
N2370 G1 Y129.634
N2375 X38.007 Y129.558 Z-0.985
N2380 X38.029 Y129.485 Z-0.97
N2385 X38.058 Y129.427 Z-0.926
N2390 X38.096 Y129.375 Z-0.883
N2395 X38.126 Y129.343 Z-0.818
N2400 X38.159 Y129.315 Z-0.753
N2405 X38.184 Y129.298 Z-0.6
N2410 G0 Z17.
N2415 X71.024 Y145.487
N2420 Z5.2
N2425 G1 Z3.1 F333.33
N2430 Y145.503 Z2.987
N2435 X71.025 Y145.55 Z2.883
N2440 X71.023 Y145.635 Z2.789
N2445 X71.014 Y145.744 Z2.726
N2450 X70.996 Y145.867 Z2.7
N2455 G3 X67.504 Y145.233 Z2.45 I-1.746 J-0.317
N2460 X70.996 Y145.867 Z2.2 I1.746 J0.317
N2465 X67.504 Y145.233 Z1.95 I-1.746 J-0.317
N2470 X70.996 Y145.867 Z1.7 I1.746 J0.317
N2475 X67.504 Y145.233 Z1.45 I-1.746 J-0.317
N2480 X70.996 Y145.867 Z1.2 I1.746 J0.317
N2485 X67.504 Y145.233 Z0.95 I-1.746 J-0.317
N2490 X70.996 Y145.867 Z0.7 I1.746 J0.317
N2495 X67.504 Y145.233 Z0.45 I-1.746 J-0.317
N2500 X70.996 Y145.867 Z0.2 I1.746 J0.317
N2505 X67.504 Y145.233 Z-0.05 I-1.746 J-0.317
N2510 X71.025 Y145.55 Z-0.286 I1.746 J0.317
N2515 X67.475 I-1.775 J0. F200.
N2520 X71.025 I1.775 J0.
N2525 X67.475 Z-0.536 I-1.775 J0. F333.33
N2530 X70.996 Y145.233 Z-0.771 I1.775 J0.
N2535 X67.504 Y145.867 I-1.746 J0.317 F200.
N2540 X70.996 Y145.233 I1.746 J-0.317
N2545 X67.504 Y145.867 Z-1.021 I-1.746 J0.317 F333.33
N2550 X70.912 Y144.926 Z-1.257 I1.746 J-0.317
N2555 X67.588 Y146.174 I-1.662 J0.624 F200.
N2560 X70.912 Y144.926 I1.662 J-0.624
N2565 X67.588 Y146.174 Z-1.507 I-1.662 J0.624 F333.33
N2570 X70.774 Y144.64 Z-1.743 I1.662 J-0.624
N2575 X67.726 Y146.46 I-1.524 J0.91 F200.
N2580 X70.774 Y144.64 I1.524 J-0.91
N2585 X67.726 Y146.46 Z-1.993 I-1.524 J0.91 F333.33
N2590 X70.587 Y144.382 Z-2.229 I1.524 J-0.91
N2595 X67.913 Y146.718 I-1.337 J1.168 F200.
N2600 X70.587 Y144.382 I1.337 J-1.168
N2605 X67.913 Y146.718 Z-2.479 I-1.337 J1.168 F333.33
N2610 X70.357 Y144.162 Z-2.714 I1.337 J-1.168
N2615 X68.143 Y146.938 I-1.107 J1.388 F200.
N2620 X70.357 Y144.162 I1.107 J-1.388
N2625 X68.143 Y146.938 Z-2.964 I-1.107 J1.388 F333.33
N2630 X70.091 Y143.987 Z-3.2 I1.107 J-1.388
N2635 X68.409 Y147.113 I-0.841 J1.563 F200.
N2640 X70.091 Y143.987 I0.841 J-1.563
N2645 G1 X70.155 Y144.029 Z-3.185
N2650 X70.209 Y144.083 Z-3.17
N2655 X70.246 Y144.136 Z-3.126
N2660 X70.274 Y144.195 Z-3.083
N2665 X70.288 Y144.236 Z-3.018
N2670 X70.297 Y144.278 Z-2.953
N2675 X70.3 Y144.308 Z-2.8
N2680 G0 Z17.
N2685 X52.524 Y145.487
N2690 Z5.2
N2695 G1 Z3.1 F333.33
N2700 Y145.503 Z2.987
N2705 X52.525 Y145.55 Z2.883
N2710 X52.523 Y145.635 Z2.789
N2715 X52.514 Y145.744 Z2.726
N2720 X52.496 Y145.867 Z2.7
N2725 G3 X49.004 Y145.233 Z2.45 I-1.746 J-0.317
N2730 X52.496 Y145.867 Z2.2 I1.746 J0.317
N2735 X49.004 Y145.233 Z1.95 I-1.746 J-0.317
N2740 X52.496 Y145.867 Z1.7 I1.746 J0.317
N2745 X49.004 Y145.233 Z1.45 I-1.746 J-0.317
N2750 X52.496 Y145.867 Z1.2 I1.746 J0.317
N2755 X49.004 Y145.233 Z0.95 I-1.746 J-0.317
N2760 X52.496 Y145.867 Z0.7 I1.746 J0.317
N2765 X49.004 Y145.233 Z0.45 I-1.746 J-0.317
N2770 X52.496 Y145.867 Z0.2 I1.746 J0.317
N2775 X49.004 Y145.233 Z-0.05 I-1.746 J-0.317
N2780 X52.525 Y145.55 Z-0.286 I1.746 J0.317
N2785 X48.975 I-1.775 J0. F200.
N2790 X52.525 I1.775 J0.
N2795 X48.975 Z-0.536 I-1.775 J0. F333.33
N2800 X52.496 Y145.233 Z-0.771 I1.775 J0.
N2805 X49.004 Y145.867 I-1.746 J0.317 F200.
N2810 X52.496 Y145.233 I1.746 J-0.317
N2815 X49.004 Y145.867 Z-1.021 I-1.746 J0.317 F333.33
N2820 X52.412 Y144.926 Z-1.257 I1.746 J-0.317
N2825 X49.088 Y146.174 I-1.662 J0.624 F200.
N2830 X52.412 Y144.926 I1.662 J-0.624
N2835 X49.088 Y146.174 Z-1.507 I-1.662 J0.624 F333.33
N2840 X52.274 Y144.64 Z-1.743 I1.662 J-0.624
N2845 X49.226 Y146.46 I-1.524 J0.91 F200.
N2850 X52.274 Y144.64 I1.524 J-0.91
N2855 X49.226 Y146.46 Z-1.993 I-1.524 J0.91 F333.33
N2860 X52.087 Y144.382 Z-2.229 I1.524 J-0.91
N2865 X49.413 Y146.718 I-1.337 J1.168 F200.
N2870 X52.087 Y144.382 I1.337 J-1.168
N2875 X49.413 Y146.718 Z-2.479 I-1.337 J1.168 F333.33
N2880 X51.857 Y144.162 Z-2.714 I1.337 J-1.168
N2885 X49.643 Y146.938 I-1.107 J1.388 F200.
N2890 X51.857 Y144.162 I1.107 J-1.388
N2895 X49.643 Y146.938 Z-2.964 I-1.107 J1.388 F333.33
N2900 X51.591 Y143.987 Z-3.2 I1.107 J-1.388
N2905 X49.909 Y147.113 I-0.841 J1.563 F200.
N2910 X51.591 Y143.987 I0.841 J-1.563
N2915 G1 X51.655 Y144.029 Z-3.185
N2920 X51.709 Y144.083 Z-3.17
N2925 X51.746 Y144.136 Z-3.126
N2930 X51.774 Y144.195 Z-3.083
N2935 X51.788 Y144.236 Z-3.018
N2940 X51.797 Y144.278 Z-2.953
N2945 X51.8 Y144.308 Z-2.8
N2950 G0 Z17.
N2955 X55.173 Y157.886
N2960 Z5.2
N2965 G1 Z3.099 F333.33
N2970 X55.152 Y157.889 Z2.972
N2975 X55.093 Y157.896 Z2.858
N2980 X55. Y157.9 Z2.769
N2985 X54.906 Y157.896 Z2.721
N2990 X54.804 Y157.882 Z2.7
N2995 G3 X55.196 Y155.718 Z2.45 I0.196 J-1.082
N3000 X54.804 Y157.882 Z2.2 I-0.196 J1.082
N3005 X55.196 Y155.718 Z1.95 I0.196 J-1.082
N3010 X54.804 Y157.882 Z1.7 I-0.196 J1.082
N3015 X55.196 Y155.718 Z1.45 I0.196 J-1.082
N3020 X54.804 Y157.882 Z1.2 I-0.196 J1.082
N3025 X55.196 Y155.718 Z0.95 I0.196 J-1.082
N3030 X54.804 Y157.882 Z0.7 I-0.196 J1.082
N3035 X55.196 Y155.718 Z0.45 I0.196 J-1.082
N3040 X54.804 Y157.882 Z0.2 I-0.196 J1.082
N3045 X55.196 Y155.718 Z-0.05 I0.196 J-1.082
N3050 X55. Y157.9 Z-0.286 I-0.196 J1.082
N3055 Y155.7 I0. J-1.1 F200.
N3060 G1 X65.
N3065 G3 Y157.9 I0. J1.1
N3070 G1 X55.
N3075 G3 Y155.7 Z-0.35 I0. J-1.1 F333.33
N3080 G1 X65. Z-0.536
N3085 G3 Y157.9 Z-0.6 I0. J1.1
N3090 G1 X55.769 Z-0.771
N3095 X55. F200.
N3100 G3 Y155.7 I0. J-1.1
N3105 G1 X65.
N3110 G3 Y157.9 I0. J1.1
N3115 G1 X55.769
N3120 X55. Z-0.786 F333.33
N3125 G3 Y155.7 Z-0.85 I0. J-1.1
N3130 G1 X65. Z-1.036
N3135 G3 Y157.9 Z-1.1 I0. J1.1
N3140 G1 X56.538 Z-1.257
N3145 X55. F200.
N3150 G3 Y155.7 I0. J-1.1
N3155 G1 X65.
N3160 G3 Y157.9 I0. J1.1
N3165 G1 X56.538
N3170 X55. Z-1.286 F333.33
N3175 G3 Y155.7 Z-1.35 I0. J-1.1
N3180 G1 X65. Z-1.536
N3185 G3 Y157.9 Z-1.6 I0. J1.1
N3190 G1 X57.307 Z-1.743
N3195 X55. F200.
N3200 G3 Y155.7 I0. J-1.1
N3205 G1 X65.
N3210 G3 Y157.9 I0. J1.1
N3215 G1 X57.307
N3220 X55. Z-1.786 F333.33
N3225 G3 Y155.7 Z-1.85 I0. J-1.1
N3230 G1 X65. Z-2.036
N3235 G3 Y157.9 Z-2.1 I0. J1.1
N3240 G1 X58.076 Z-2.229
N3245 X55. F200.
N3250 G3 Y155.7 I0. J-1.1
N3255 G1 X65.
N3260 G3 Y157.9 I0. J1.1
N3265 G1 X58.076
N3270 X55. Z-2.286 F333.33
N3275 G3 Y155.7 Z-2.35 I0. J-1.1
N3280 G1 X65. Z-2.536
N3285 G3 Y157.9 Z-2.6 I0. J1.1
N3290 G1 X58.845 Z-2.714
N3295 X55. F200.
N3300 G3 Y155.7 I0. J-1.1
N3305 G1 X65.
N3310 G3 Y157.9 I0. J1.1
N3315 G1 X58.845
N3320 X55. Z-2.786 F333.33
N3325 G3 Y155.7 Z-2.85 I0. J-1.1
N3330 G1 X65. Z-3.036
N3335 G3 Y157.9 Z-3.1 I0. J1.1
N3340 G1 X59.613 Z-3.2
N3345 X55. F200.
N3350 G3 Y155.7 I0. J-1.1
N3355 G1 X65.
N3360 G3 Y157.9 I0. J1.1
N3365 G1 X59.613
N3370 X59.537 Y157.893 Z-3.185
N3375 X59.464 Y157.871 Z-3.17
N3380 X59.406 Y157.842 Z-3.126
N3385 X59.354 Y157.804 Z-3.083
N3390 X59.322 Y157.774 Z-3.018
N3395 X59.294 Y157.741 Z-2.953
N3400 X59.277 Y157.716 Z-2.8
N3405 G0 Z17.
N3410 X62.325 Y169.958
N3415 Z5.2
N3420 G1 Z3.1 F333.33
N3425 Y169.969 Z3.008
N3430 Y170. Z2.921
N3435 X62.323 Y170.084 Z2.808
N3440 X62.314 Y170.203 Z2.731
N3445 X62.294 Y170.339 Z2.7
N3450 G3 X58.556 Y169.661 Z2.45 I-1.869 J-0.339
N3455 X62.294 Y170.339 Z2.2 I1.869 J0.339
N3460 X58.556 Y169.661 Z1.95 I-1.869 J-0.339
N3465 X62.294 Y170.339 Z1.7 I1.869 J0.339
N3470 X58.556 Y169.661 Z1.45 I-1.869 J-0.339
N3475 X62.294 Y170.339 Z1.2 I1.869 J0.339
N3480 X58.556 Y169.661 Z0.95 I-1.869 J-0.339
N3485 X62.294 Y170.339 Z0.7 I1.869 J0.339
N3490 X58.556 Y169.661 Z0.45 I-1.869 J-0.339
N3495 X62.294 Y170.339 Z0.2 I1.869 J0.339
N3500 X58.556 Y169.661 Z-0.05 I-1.869 J-0.339
N3505 X62.325 Y170. Z-0.286 I1.869 J0.339
N3510 X57.675 I-2.325 J0. F200.
N3515 X62.325 I2.325 J0.
N3520 G2 X63.172 Y171.497 I1.747 J0.
N3525 G3 X63.408 Y173.2 I-0.569 J0.947
N3530 X56.592 Y166.8 I-3.408 J-3.2
N3535 X63.408 Y173.2 I3.408 J3.2
N3540 X60.569 Y173.123 Z-0.406 I-1.385 J-1.301 F333.33
N3545 G1 X58.971 Y171.223 Z-0.499
N3550 G3 X61.879 Y168.777 Z-0.722 I1.454 J-1.223
N3555 X62.325 Y170. Z-0.771 I-1.454 J1.223
N3560 X57.675 I-2.325 J0. F200.
N3565 X62.325 I2.325 J0.
N3570 G2 X63.172 Y171.497 I1.747 J0.
N3575 G3 X63.408 Y173.2 I-0.569 J0.947
N3580 X56.592 Y166.8 I-3.408 J-3.2
N3585 X63.408 Y173.2 I3.408 J3.2
N3590 X60.569 Y173.123 Z-0.891 I-1.385 J-1.301 F333.33
N3595 G1 X58.971 Y171.223 Z-0.984
N3600 G3 X61.879 Y168.777 Z-1.207 I1.454 J-1.223
N3605 X62.325 Y170. Z-1.257 I-1.454 J1.223
N3610 X57.675 I-2.325 J0. F200.
N3615 X62.325 I2.325 J0.
N3620 G2 X63.172 Y171.497 I1.747 J0.
N3625 G3 X63.408 Y173.2 I-0.569 J0.947
N3630 X56.592 Y166.8 I-3.408 J-3.2
N3635 X63.408 Y173.2 I3.408 J3.2
N3640 X60.569 Y173.123 Z-1.377 I-1.385 J-1.301 F333.33
N3645 G1 X58.971 Y171.223 Z-1.47
N3650 G3 X61.879 Y168.777 Z-1.693 I1.454 J-1.223
N3655 X62.325 Y170. Z-1.743 I-1.454 J1.223
N3660 X57.675 I-2.325 J0. F200.
N3665 X62.325 I2.325 J0.
N3670 G2 X63.172 Y171.497 I1.747 J0.
N3675 G3 X63.408 Y173.2 I-0.569 J0.947
N3680 X56.592 Y166.8 I-3.408 J-3.2
N3685 X63.408 Y173.2 I3.408 J3.2
N3690 X60.569 Y173.123 Z-1.863 I-1.385 J-1.301 F333.33
N3695 G1 X58.971 Y171.223 Z-1.956
N3700 G3 X61.879 Y168.777 Z-2.179 I1.454 J-1.223
N3705 X62.325 Y170. Z-2.229 I-1.454 J1.223
N3710 X57.675 I-2.325 J0. F200.
N3715 X62.325 I2.325 J0.
N3720 G2 X63.172 Y171.497 I1.747 J0.
N3725 G3 X63.408 Y173.2 I-0.569 J0.947
N3730 X56.592 Y166.8 I-3.408 J-3.2
N3735 X63.408 Y173.2 I3.408 J3.2
N3740 X60.569 Y173.123 Z-2.349 I-1.385 J-1.301 F333.33
N3745 G1 X58.971 Y171.223 Z-2.441
N3750 G3 X61.879 Y168.777 Z-2.665 I1.454 J-1.223
N3755 X62.325 Y170. Z-2.714 I-1.454 J1.223
N3760 X57.675 I-2.325 J0. F200.
N3765 X62.325 I2.325 J0.
N3770 G2 X63.172 Y171.497 I1.747 J0.
N3775 G3 X63.408 Y173.2 I-0.569 J0.947
N3780 X56.592 Y166.8 I-3.408 J-3.2
N3785 X63.408 Y173.2 I3.408 J3.2
N3790 X60.569 Y173.123 Z-2.834 I-1.385 J-1.301 F333.33
N3795 G1 X58.971 Y171.223 Z-2.927
N3800 G3 X61.879 Y168.777 Z-3.15 I1.454 J-1.223
N3805 X62.325 Y170. Z-3.2 I-1.454 J1.223
N3810 X57.675 I-2.325 J0. F200.
N3815 X62.325 I2.325 J0.
N3820 G2 X63.172 Y171.497 I1.747 J0.
N3825 G3 X63.408 Y173.2 I-0.569 J0.947
N3830 X56.592 Y166.8 I-3.408 J-3.2
N3835 X63.408 Y173.2 I3.408 J3.2
N3840 G1 X63.35 Y173.251 Z-3.185
N3845 X63.284 Y173.289 Z-3.17
N3850 X63.224 Y173.312 Z-3.126
N3855 X63.16 Y173.324 Z-3.083
N3860 X63.117 Y173.327 Z-3.018
N3865 X63.074 Y173.324 Z-2.953
N3870 X63.043 Y173.32 Z-2.8
N3875 G0 Z17.
N3880 X71.024 Y178.987
N3885 Z5.2
N3890 G1 Z3.1 F333.33
N3895 Y179.003 Z2.987
N3900 X71.025 Y179.05 Z2.883
N3905 X71.023 Y179.135 Z2.789
N3910 X71.014 Y179.244 Z2.726
N3915 X70.996 Y179.367 Z2.7
N3920 G3 X67.504 Y178.733 Z2.45 I-1.746 J-0.317
N3925 X70.996 Y179.367 Z2.2 I1.746 J0.317
N3930 X67.504 Y178.733 Z1.95 I-1.746 J-0.317
N3935 X70.996 Y179.367 Z1.7 I1.746 J0.317
N3940 X67.504 Y178.733 Z1.45 I-1.746 J-0.317
N3945 X70.996 Y179.367 Z1.2 I1.746 J0.317
N3950 X67.504 Y178.733 Z0.95 I-1.746 J-0.317
N3955 X70.996 Y179.367 Z0.7 I1.746 J0.317
N3960 X67.504 Y178.733 Z0.45 I-1.746 J-0.317
N3965 X70.996 Y179.367 Z0.2 I1.746 J0.317
N3970 X67.504 Y178.733 Z-0.05 I-1.746 J-0.317
N3975 X71.025 Y179.05 Z-0.286 I1.746 J0.317
N3980 X67.475 I-1.775 J0. F200.
N3985 X71.025 I1.775 J0.
N3990 X67.475 Z-0.536 I-1.775 J0. F333.33
N3995 X70.996 Y178.733 Z-0.771 I1.775 J0.
N4000 X67.504 Y179.367 I-1.746 J0.317 F200.
N4005 X70.996 Y178.733 I1.746 J-0.317
N4010 X67.504 Y179.367 Z-1.021 I-1.746 J0.317 F333.33
N4015 X70.912 Y178.426 Z-1.257 I1.746 J-0.317
N4020 X67.588 Y179.674 I-1.662 J0.624 F200.
N4025 X70.912 Y178.426 I1.662 J-0.624
N4030 X67.588 Y179.674 Z-1.507 I-1.662 J0.624 F333.33
N4035 X70.774 Y178.14 Z-1.743 I1.662 J-0.624
N4040 X67.726 Y179.96 I-1.524 J0.91 F200.
N4045 X70.774 Y178.14 I1.524 J-0.91
N4050 X67.726 Y179.96 Z-1.993 I-1.524 J0.91 F333.33
N4055 X70.587 Y177.882 Z-2.229 I1.524 J-0.91
N4060 X67.913 Y180.218 I-1.337 J1.168 F200.
N4065 X70.587 Y177.882 I1.337 J-1.168
N4070 X67.913 Y180.218 Z-2.479 I-1.337 J1.168 F333.33
N4075 X70.357 Y177.662 Z-2.714 I1.337 J-1.168
N4080 X68.143 Y180.438 I-1.107 J1.388 F200.
N4085 X70.357 Y177.662 I1.107 J-1.388
N4090 X68.143 Y180.438 Z-2.964 I-1.107 J1.388 F333.33
N4095 X70.091 Y177.487 Z-3.2 I1.107 J-1.388
N4100 X68.409 Y180.613 I-0.841 J1.563 F200.
N4105 X70.091 Y177.487 I0.841 J-1.563
N4110 G1 X70.155 Y177.529 Z-3.185
N4115 X70.209 Y177.583 Z-3.17
N4120 X70.246 Y177.636 Z-3.126
N4125 X70.274 Y177.695 Z-3.083
N4130 X70.288 Y177.736 Z-3.018
N4135 X70.297 Y177.778 Z-2.953
N4140 X70.3 Y177.808 Z-2.8
N4145 G0 Z17.
N4150 X52.524 Y178.987
N4155 Z5.2
N4160 G1 Z3.1 F333.33
N4165 Y179.003 Z2.987
N4170 X52.525 Y179.05 Z2.883
N4175 X52.523 Y179.135 Z2.789
N4180 X52.514 Y179.244 Z2.726
N4185 X52.496 Y179.367 Z2.7
N4190 G3 X49.004 Y178.733 Z2.45 I-1.746 J-0.317
N4195 X52.496 Y179.367 Z2.2 I1.746 J0.317
N4200 X49.004 Y178.733 Z1.95 I-1.746 J-0.317
N4205 X52.496 Y179.367 Z1.7 I1.746 J0.317
N4210 X49.004 Y178.733 Z1.45 I-1.746 J-0.317
N4215 X52.496 Y179.367 Z1.2 I1.746 J0.317
N4220 X49.004 Y178.733 Z0.95 I-1.746 J-0.317
N4225 X52.496 Y179.367 Z0.7 I1.746 J0.317
N4230 X49.004 Y178.733 Z0.45 I-1.746 J-0.317
N4235 X52.496 Y179.367 Z0.2 I1.746 J0.317
N4240 X49.004 Y178.733 Z-0.05 I-1.746 J-0.317
N4245 X52.525 Y179.05 Z-0.286 I1.746 J0.317
N4250 X48.975 I-1.775 J0. F200.
N4255 X52.525 I1.775 J0.
N4260 X48.975 Z-0.536 I-1.775 J0. F333.33
N4265 X52.496 Y178.733 Z-0.771 I1.775 J0.
N4270 X49.004 Y179.367 I-1.746 J0.317 F200.
N4275 X52.496 Y178.733 I1.746 J-0.317
N4280 X49.004 Y179.367 Z-1.021 I-1.746 J0.317 F333.33
N4285 X52.412 Y178.426 Z-1.257 I1.746 J-0.317
N4290 X49.088 Y179.674 I-1.662 J0.624 F200.
N4295 X52.412 Y178.426 I1.662 J-0.624
N4300 X49.088 Y179.674 Z-1.507 I-1.662 J0.624 F333.33
N4305 X52.274 Y178.14 Z-1.743 I1.662 J-0.624
N4310 X49.226 Y179.96 I-1.524 J0.91 F200.
N4315 X52.274 Y178.14 I1.524 J-0.91
N4320 X49.226 Y179.96 Z-1.993 I-1.524 J0.91 F333.33
N4325 X52.087 Y177.882 Z-2.229 I1.524 J-0.91
N4330 X49.413 Y180.218 I-1.337 J1.168 F200.
N4335 X52.087 Y177.882 I1.337 J-1.168
N4340 X49.413 Y180.218 Z-2.479 I-1.337 J1.168 F333.33
N4345 X51.857 Y177.662 Z-2.714 I1.337 J-1.168
N4350 X49.643 Y180.438 I-1.107 J1.388 F200.
N4355 X51.857 Y177.662 I1.107 J-1.388
N4360 X49.643 Y180.438 Z-2.964 I-1.107 J1.388 F333.33
N4365 X51.591 Y177.487 Z-3.2 I1.107 J-1.388
N4370 X49.909 Y180.613 I-0.841 J1.563 F200.
N4375 X51.591 Y177.487 I0.841 J-1.563
N4380 G1 X51.655 Y177.529 Z-3.185
N4385 X51.709 Y177.583 Z-3.17
N4390 X51.746 Y177.636 Z-3.126
N4395 X51.774 Y177.695 Z-3.083
N4400 X51.788 Y177.736 Z-3.018
N4405 X51.797 Y177.778 Z-2.953
N4410 X51.8 Y177.808 Z-2.8
N4415 G0 Z17.
(BOHRFRSEN3)
N4420 G64
N4425 G0 X109.625 Y60.225
N4430 Z15.
N4435 Z2.25
N4440 G1 Z0.65 F200.
N4445 G19 G2 Y59.825 Z0.25 J-0.4 K0.
N4450 G1 Y59.625
N4455 G17 G3 X110. Y59.25 I0.375 J0.
N4460 Y60.75 Z-0.235 I0. J0.75
N4465 Y59.25 Z-0.72 I0. J-0.75
N4470 Y60.75 Z-1.205 I0. J0.75
N4475 Y59.25 Z-1.69 I0. J-0.75
N4480 Y60.75 Z-2.174 I0. J0.75
N4485 Y59.25 Z-2.659 I0. J-0.75
N4490 Y60.75 Z-3.144 I0. J0.75
N4495 Y59.25 Z-3.629 I0. J-0.75
N4500 Y60.75 Z-4.114 I0. J0.75
N4505 Y59.25 Z-4.599 I0. J-0.75
N4510 Y60.75 Z-5.084 I0. J0.75
N4515 Y59.25 Z-5.569 I0. J-0.75
N4520 Y60.75 Z-6.054 I0. J0.75
N4525 X109.814 Y59.273 Z-6.5 I0. J-0.75
N4530 X110.186 Y60.727 I0.186 J0.727
N4535 X109.814 Y59.273 I-0.186 J-0.727
N4540 X110.271 Y59.544 I0.093 J0.363
N4545 G1 X110.32 Y59.738
N4550 X110.339 Y59.813 Z-6.492
N4555 X110.358 Y59.886 Z-6.47
N4560 X110.375 Y59.953 Z-6.433
N4565 X110.39 Y60.012 Z-6.383
N4570 X110.402 Y60.06 Z-6.322
N4575 X110.411 Y60.096 Z-6.253
N4580 X110.417 Y60.118 Z-6.178
N4585 X110.419 Y60.125 Z-6.1
N4590 G0 Z5.
N4595 X109.625 Y140.225
N4600 Z2.25
N4605 G1 Z0.65 F200.
N4610 G19 G2 Y139.825 Z0.25 J-0.4 K0.
N4615 G1 Y139.625
N4620 G17 G3 X110. Y139.25 I0.375 J0.
N4625 Y140.75 Z-0.235 I0. J0.75
N4630 Y139.25 Z-0.72 I0. J-0.75
N4635 Y140.75 Z-1.205 I0. J0.75
N4640 Y139.25 Z-1.69 I0. J-0.75
N4645 Y140.75 Z-2.174 I0. J0.75
N4650 Y139.25 Z-2.659 I0. J-0.75
N4655 Y140.75 Z-3.144 I0. J0.75
N4660 Y139.25 Z-3.629 I0. J-0.75
N4665 Y140.75 Z-4.114 I0. J0.75
N4670 Y139.25 Z-4.599 I0. J-0.75
N4675 Y140.75 Z-5.084 I0. J0.75
N4680 Y139.25 Z-5.569 I0. J-0.75
N4685 Y140.75 Z-6.054 I0. J0.75
N4690 X109.814 Y139.273 Z-6.5 I0. J-0.75
N4695 X110.186 Y140.727 I0.186 J0.727
N4700 X109.814 Y139.273 I-0.186 J-0.727
N4705 X110.271 Y139.544 I0.093 J0.363
N4710 G1 X110.32 Y139.738
N4715 X110.339 Y139.813 Z-6.492
N4720 X110.358 Y139.886 Z-6.47
N4725 X110.375 Y139.953 Z-6.433
N4730 X110.39 Y140.012 Z-6.383
N4735 X110.402 Y140.06 Z-6.322
N4740 X110.411 Y140.096 Z-6.253
N4745 X110.417 Y140.118 Z-6.178
N4750 X110.419 Y140.125 Z-6.1
N4755 G0 Z5.
N4760 X59.625 Y210.225
N4765 Z2.25
N4770 G1 Z0.65 F200.
N4775 G19 G2 Y209.825 Z0.25 J-0.4 K0.
N4780 G1 Y209.625
N4785 G17 G3 X60. Y209.25 I0.375 J0.
N4790 Y210.75 Z-0.235 I0. J0.75
N4795 Y209.25 Z-0.72 I0. J-0.75
N4800 Y210.75 Z-1.205 I0. J0.75
N4805 Y209.25 Z-1.69 I0. J-0.75
N4810 Y210.75 Z-2.174 I0. J0.75
N4815 Y209.25 Z-2.659 I0. J-0.75
N4820 Y210.75 Z-3.144 I0. J0.75
N4825 Y209.25 Z-3.629 I0. J-0.75
N4830 Y210.75 Z-4.114 I0. J0.75
N4835 Y209.25 Z-4.599 I0. J-0.75
N4840 Y210.75 Z-5.084 I0. J0.75
N4845 Y209.25 Z-5.569 I0. J-0.75
N4850 Y210.75 Z-6.054 I0. J0.75
N4855 X59.814 Y209.273 Z-6.5 I0. J-0.75
N4860 X60.186 Y210.727 I0.186 J0.727
N4865 X59.814 Y209.273 I-0.186 J-0.727
N4870 X60.271 Y209.544 I0.093 J0.363
N4875 G1 X60.32 Y209.738
N4880 X60.339 Y209.813 Z-6.492
N4885 X60.358 Y209.886 Z-6.47
N4890 X60.375 Y209.953 Z-6.433
N4895 X60.39 Y210.012 Z-6.383
N4900 X60.402 Y210.06 Z-6.322
N4905 X60.411 Y210.096 Z-6.253
N4910 X60.417 Y210.118 Z-6.178
N4915 X60.419 Y210.125 Z-6.1
N4920 G0 Z5.
N4925 X60.4 Y170.1
N4930 Z2.25
N4935 G1 Z0.65 F200.
N4940 G19 G3 Y170.5 Z0.25 J0.4 K0.
N4945 G1 Y170.7
N4950 G17 G3 X60. Y171.1 I-0.4 J0.
N4955 Y168.9 Z-0.297 I0. J-1.1
N4960 Y171.1 Z-0.843 I0. J1.1
N4965 Y168.9 Z-1.39 I0. J-1.1
N4970 Y171.1 Z-1.936 I0. J1.1
N4975 Y168.9 Z-2.483 I0. J-1.1
N4980 Y171.1 Z-3.03 I0. J1.1
N4985 Y168.9 Z-3.576 I0. J-1.1
N4990 Y171.1 Z-4.123 I0. J1.1
N4995 Y168.9 Z-4.67 I0. J-1.1
N5000 Y171.1 Z-5.216 I0. J1.1
N5005 Y168.9 Z-5.763 I0. J-1.1
N5010 Y171.1 Z-6.309 I0. J1.1
N5015 X59.022 Y170.503 Z-6.5 I0. J-1.1
N5020 X60.978 Y169.497 I0.978 J-0.503
N5025 X59.022 Y170.503 I-0.978 J0.503
N5030 X59.195 Y169.965 I0.356 J-0.183
N5035 G1 X59.372 Y169.873
N5040 X59.442 Y169.837 Z-6.492
N5045 X59.509 Y169.803 Z-6.47
N5050 X59.57 Y169.771 Z-6.433
N5055 X59.624 Y169.744 Z-6.383
N5060 X59.668 Y169.721 Z-6.322
N5065 X59.701 Y169.704 Z-6.253
N5070 X59.721 Y169.694 Z-6.178
N5075 X59.728 Y169.69 Z-6.1
N5080 G0 Z5.
N5085 X9.625 Y140.225
N5090 Z2.25
N5095 G1 Z0.65 F200.
N5100 G19 G2 Y139.825 Z0.25 J-0.4 K0.
N5105 G1 Y139.625
N5110 G17 G3 X10. Y139.25 I0.375 J0.
N5115 Y140.75 Z-0.235 I0. J0.75
N5120 Y139.25 Z-0.72 I0. J-0.75
N5125 Y140.75 Z-1.205 I0. J0.75
N5130 Y139.25 Z-1.69 I0. J-0.75
N5135 Y140.75 Z-2.174 I0. J0.75
N5140 Y139.25 Z-2.659 I0. J-0.75
N5145 Y140.75 Z-3.144 I0. J0.75
N5150 Y139.25 Z-3.629 I0. J-0.75
N5155 Y140.75 Z-4.114 I0. J0.75
N5160 Y139.25 Z-4.599 I0. J-0.75
N5165 Y140.75 Z-5.084 I0. J0.75
N5170 Y139.25 Z-5.569 I0. J-0.75
N5175 Y140.75 Z-6.054 I0. J0.75
N5180 X9.814 Y139.273 Z-6.5 I0. J-0.75
N5185 X10.186 Y140.727 I0.186 J0.727
N5190 X9.814 Y139.273 I-0.186 J-0.727
N5195 X10.271 Y139.544 I0.093 J0.363
N5200 G1 X10.32 Y139.738
N5205 X10.339 Y139.813 Z-6.492
N5210 X10.358 Y139.886 Z-6.47
N5215 X10.375 Y139.953 Z-6.433
N5220 X10.39 Y140.012 Z-6.383
N5225 X10.402 Y140.06 Z-6.322
N5230 X10.411 Y140.096 Z-6.253
N5235 X10.417 Y140.118 Z-6.178
N5240 X10.419 Y140.125 Z-6.1
N5245 G0 Z5.
N5250 X9.625 Y60.225
N5255 Z2.25
N5260 G1 Z0.65 F200.
N5265 G19 G2 Y59.825 Z0.25 J-0.4 K0.
N5270 G1 Y59.625
N5275 G17 G3 X10. Y59.25 I0.375 J0.
N5280 Y60.75 Z-0.235 I0. J0.75
N5285 Y59.25 Z-0.72 I0. J-0.75
N5290 Y60.75 Z-1.205 I0. J0.75
N5295 Y59.25 Z-1.69 I0. J-0.75
N5300 Y60.75 Z-2.174 I0. J0.75
N5305 Y59.25 Z-2.659 I0. J-0.75
N5310 Y60.75 Z-3.144 I0. J0.75
N5315 Y59.25 Z-3.629 I0. J-0.75
N5320 Y60.75 Z-4.114 I0. J0.75
N5325 Y59.25 Z-4.599 I0. J-0.75
N5330 Y60.75 Z-5.084 I0. J0.75
N5335 Y59.25 Z-5.569 I0. J-0.75
N5340 Y60.75 Z-6.054 I0. J0.75
N5345 X9.814 Y59.273 Z-6.5 I0. J-0.75
N5350 X10.186 Y60.727 I0.186 J0.727
N5355 X9.814 Y59.273 I-0.186 J-0.727
N5360 X10.271 Y59.544 I0.093 J0.363
N5365 G1 X10.32 Y59.738
N5370 X10.339 Y59.813 Z-6.492
N5375 X10.358 Y59.886 Z-6.47
N5380 X10.375 Y59.953 Z-6.433
N5385 X10.39 Y60.012 Z-6.383
N5390 X10.402 Y60.06 Z-6.322
N5395 X10.411 Y60.096 Z-6.253
N5400 X10.417 Y60.118 Z-6.178
N5405 X10.419 Y60.125 Z-6.1
N5410 G0 Z15.
(2D-KONTUR1)
N5415 G0 Z17.
N5420 X79.042 Y97.71
N5425 Z5.2
N5430 G1 Z2.2 F333.33
N5435 Z-0.8
N5440 G2 X82.5 Y99.7 I3.458 J-2.01 F200.
N5445 G1 X92.5
N5450 Y101.8
N5455 X82.5
N5460 G2 X78.5 Y105.8 I0. J4.
N5465 G1 Y106.8
N5470 X36.5
N5475 Y105.8
N5480 G2 X32.5 Y101.8 I-4. J0.
N5485 G1 X22.5
N5490 Y99.7
N5495 X32.5
N5500 G2 X36.5 Y95.7 I0. J-4.
N5505 G1 Y49.7
N5510 X78.5
N5515 Y95.7
N5520 G2 X79.042 Y97.71 I4. J0.
N5525 G1 Z-1.8 F333.33
N5530 G2 X82.5 Y99.7 I3.458 J-2.01 F200.
N5535 G1 X92.5
N5540 Y101.8
N5545 X82.5
N5550 G2 X78.5 Y105.8 I0. J4.
N5555 G1 Y106.8
N5560 X36.5
N5565 Y105.8
N5570 G2 X32.5 Y101.8 I-4. J0.
N5575 G1 X22.5
N5580 Y99.7
N5585 X32.5
N5590 G2 X36.5 Y95.7 I0. J-4.
N5595 G1 Y49.7
N5600 X78.5
N5605 Y95.7
N5610 G2 X79.042 Y97.71 I4. J0.
N5615 G1 Z-2.8 F333.33
N5620 G2 X82.5 Y99.7 I3.458 J-2.01 F200.
N5625 G1 X92.5
N5630 Y101.8
N5635 X82.5
N5640 G2 X78.5 Y105.8 I0. J4.
N5645 G1 Y106.8
N5650 X36.5
N5655 Y105.8
N5660 G2 X32.5 Y101.8 I-4. J0.
N5665 G1 X22.5
N5670 Y99.7
N5675 X32.5
N5680 G2 X36.5 Y95.7 I0. J-4.
N5685 G1 Y49.7
N5690 X78.5
N5695 Y95.7
N5700 G2 X79.042 Y97.71 I4. J0.
N5705 G1 Z-3.8 F333.33
N5710 G2 X82.5 Y99.7 I3.458 J-2.01 F200.
N5715 G1 X92.5
N5720 Y101.8
N5725 X82.5
N5730 G2 X78.5 Y105.8 I0. J4.
N5735 G1 Y106.8
N5740 X36.5
N5745 Y105.8
N5750 G2 X32.5 Y101.8 I-4. J0.
N5755 G1 X22.5
N5760 Y99.7
N5765 X32.5
N5770 G2 X36.5 Y95.7 I0. J-4.
N5775 G1 Y49.7
N5780 X78.5
N5785 Y95.7
N5790 G2 X79.042 Y97.71 I4. J0.
N5795 G1 Z-4.8 F333.33
N5800 G2 X82.5 Y99.7 I3.458 J-2.01 F200.
N5805 G1 X92.5
N5810 Y101.8
N5815 X82.5
N5820 G2 X78.5 Y105.8 I0. J4.
N5825 G1 Y106.8
N5830 X36.5
N5835 Y105.8
N5840 G2 X32.5 Y101.8 I-4. J0.
N5845 G1 X22.5
N5850 Y99.7
N5855 X32.5
N5860 G2 X36.5 Y95.7 I0. J-4.
N5865 G1 Y49.7
N5870 X78.5
N5875 Y95.7
N5880 G2 X79.042 Y97.71 I4. J0.
N5885 G1 Z-5.732 F333.33
N5890 G2 X79.36 Y98.177 Z-5.428 I3.458 J-2.01 F200.
N5895 X79.74 Y98.595 Z-5.084 I3.14 J-2.477
N5900 G1 X79.836 Y98.684 Z-5.
N5905 G2 X82.5 Y99.7 I2.664 J-2.984
N5910 G1 X83.711
N5915 X84.8 Z-5.8 F333.33
N5920 X92.5 F200.
N5925 Y101.8
N5930 X84.364
N5935 X82.5 Z-5.
N5940 G2 X81.294 Y101.986 I0. J4.
N5945 G1 Z-5.8 F333.33
N5950 G2 X79.389 Y103.285 I1.206 J3.814 F200.
N5955 X79.066 Y103.749 Z-5.452 I3.111 J2.515
N5960 X78.811 Y104.254 Z-5.074 I3.434 J2.051
N5965 G1 X78.771 Y104.352 Z-5.
N5970 G2 X78.5 Y105.8 I3.729 J1.448
N5975 G1 Y106.8
N5980 X76.1
N5985 Z-5.8 F333.33
N5990 X52.669 F200.
N5995 X51.602 Z-5.
N6000 X47.602
N6005 X46.535 Z-5.8 F333.33
N6010 X36.5 F200.
N6015 Y105.8
N6020 G2 X32.5 Y101.8 I-4. J0.
N6025 G1 X25.267
N6030 Z-5.
N6035 X22.5
N6040 Y99.7
N6045 X24.063
N6050 Z-5.8 F333.33
N6055 X32.5 F200.
N6060 G2 X36.5 Y95.7 I0. J-4.
N6065 G1 Y85.702
N6070 Y84.635 Z-5.
N6075 Y80.635
N6080 Y79.569 Z-5.8 F333.33
N6085 Y53.215 F200.
N6090 Y52.148 Z-5.
N6095 Y49.7
N6100 X38.9
N6105 Z-5.8 F333.33
N6110 X62.331 F200.
N6115 X63.398 Z-5.
N6120 X67.398
N6125 X68.465 Z-5.8 F333.33
N6130 X78.5 F200.
N6135 Y62.877
N6140 Y63.944 Z-5.
N6145 Y67.944
N6150 Y69.01 Z-5.8 F333.33
N6155 Y95.7 F200.
N6160 G2 X78.974 Y97.59 I4. J0.
N6165 G1 X79.042 Y97.71 Z-5.732
N6170 G2 X79.36 Y98.177 Z-5.428 I3.458 J-2.01
N6175 X79.74 Y98.595 Z-5.084 I3.14 J-2.477
N6180 G1 X79.836 Y98.684 Z-5.
N6185 G2 X82.5 Y99.7 I2.664 J-2.984
N6190 G1 X83.711
N6195 X85.754 Z-6.5 F333.33
N6200 X92.5 F200.
N6205 Y101.8
N6210 X85.317
N6215 X82.5 Z-5.
N6220 G2 X81.294 Y101.986 I0. J4.
N6225 G1 Z-6.5 F333.33
N6230 G2 X80.472 Y102.352 I1.206 J3.814 F200.
N6235 X80.007 Y102.672 Z-6.26 I2.028 J3.448
N6240 X79.59 Y103.055 Z-5.973 I2.493 J3.128
N6245 X79.233 Y103.493 Z-5.645 I2.91 J2.745
N6250 X78.94 Y103.976 Z-5.282 I3.267 J2.307
N6255 X78.771 Y104.352 Z-5. I3.56 J1.824
N6260 X78.5 Y105.8 I3.729 J1.448
N6265 G1 Y106.8
N6270 X76.1
N6275 Z-6.5 F333.33
N6280 X53.602 F200.
N6285 X51.602 Z-5.
N6290 X47.602
N6295 X45.602 Z-6.5 F333.33
N6300 X36.5 F200.
N6305 Y105.8
N6310 G2 X32.5 Y101.8 I-4. J0.
N6315 G1 X25.267
N6320 Z-5.
N6325 X22.5
N6330 Y99.7
N6335 X24.063
N6340 Z-6.5 F333.33
N6345 X32.5 F200.
N6350 G2 X36.5 Y95.7 I0. J-4.
N6355 G1 Y86.635
N6360 Y84.635 Z-5.
N6365 Y80.635
N6370 Y78.635 Z-6.5 F333.33
N6375 Y54.148 F200.
N6380 Y52.148 Z-5.
N6385 Y49.7
N6390 X38.9
N6395 Z-6.5 F333.33
N6400 X61.398 F200.
N6405 X63.398 Z-5.
N6410 X67.398
N6415 X69.398 Z-6.5 F333.33
N6420 X78.5 F200.
N6425 Y61.944
N6430 Y63.944 Z-5.
N6435 Y67.944
N6440 Y69.944 Z-6.5 F333.33
N6445 Y95.285 F200.
N6450 Y95.7 Z-6.437
N6455 G2 X78.54 Y96.264 Z-6.321 I4. J0.
N6460 X78.659 Y96.817 Z-6.15 I3.96 J-0.564
N6465 X78.855 Y97.347 Z-5.925 I3.841 J-1.117
N6470 X79.042 Y97.71 Z-5.732 I3.645 J-1.647
N6475 G0 Z7.
N6480 X122. Y218.
N6485 Z5.2
N6490 G1 Z2.2 F333.33
N6495 Z-0.8
N6500 Y2. F200.
N6505 G2 X118. Y-2. I-4. J0.
N6510 G1 X2.
N6515 G2 X-2. Y2. I0. J4.
N6520 G1 Y218.
N6525 G2 X2. Y222. I4. J0.
N6530 G1 X118.
N6535 G2 X122. Y218. I0. J-4.
N6540 G1 Z-1.8 F333.33
N6545 Y2. F200.
N6550 G2 X118. Y-2. I-4. J0.
N6555 G1 X2.
N6560 G2 X-2. Y2. I0. J4.
N6565 G1 Y218.
N6570 G2 X2. Y222. I4. J0.
N6575 G1 X118.
N6580 G2 X122. Y218. I0. J-4.
N6585 G1 Z-2.8 F333.33
N6590 Y2. F200.
N6595 G2 X118. Y-2. I-4. J0.
N6600 G1 X2.
N6605 G2 X-2. Y2. I0. J4.
N6610 G1 Y218.
N6615 G2 X2. Y222. I4. J0.
N6620 G1 X118.
N6625 G2 X122. Y218. I0. J-4.
N6630 G1 Z-3.8 F333.33
N6635 Y2. F200.
N6640 G2 X118. Y-2. I-4. J0.
N6645 G1 X2.
N6650 G2 X-2. Y2. I0. J4.
N6655 G1 Y218.
N6660 G2 X2. Y222. I4. J0.
N6665 G1 X118.
N6670 G2 X122. Y218. I0. J-4.
N6675 G1 Z-4.8 F333.33
N6680 Y2. F200.
N6685 G2 X118. Y-2. I-4. J0.
N6690 G1 X2.
N6695 G2 X-2. Y2. I0. J4.
N6700 G1 Y218.
N6705 G2 X2. Y222. I4. J0.
N6710 G1 X118.
N6715 G2 X122. Y218. I0. J-4.
N6720 G1 Z-5.8 F333.33
N6725 Y211.339 F200.
N6730 Y210.272 Z-5.
N6735 Y206.272
N6740 Y205.205 Z-5.8 F333.33
N6745 Y179.121 F200.
N6750 Y178.054 Z-5.
N6755 Y174.054
N6760 Y172.987 Z-5.8 F333.33
N6765 Y146.904 F200.
N6770 Y145.837 Z-5.
N6775 Y141.837
N6780 Y140.77 Z-5.8 F333.33
N6785 Y114.686 F200.
N6790 Y113.619 Z-5.
N6795 Y109.619
N6800 Y108.552 Z-5.8 F333.33
N6805 Y82.469 F200.
N6810 Y81.402 Z-5.
N6815 Y77.402
N6820 Y76.335 Z-5.8 F333.33
N6825 Y50.251 F200.
N6830 Y49.185 Z-5.
N6835 Y45.185
N6840 Y44.118 Z-5.8 F333.33
N6845 Y18.034 F200.
N6850 Y16.967 Z-5.
N6855 Y12.967
N6860 Y11.9 Z-5.8 F333.33
N6865 Y2. F200.
N6870 G2 X118. Y-2. I-4. J0.
N6875 G1 X104.958
N6880 X103.891 Z-5.
N6885 X99.891
N6890 X98.824 Z-5.8 F333.33
N6895 X72.74 F200.
N6900 X71.674 Z-5.
N6905 X67.674
N6910 X66.607 Z-5.8 F333.33
N6915 X40.523 F200.
N6920 X39.456 Z-5.
N6925 X35.456
N6930 X34.39 Z-5.8 F333.33
N6935 X8.306 F200.
N6940 X7.239 Z-5.
N6945 X3.239
N6950 X2.172 Z-5.8 F333.33
N6955 X2. F200.
N6960 G2 X-2. Y2. I0. J4.
N6965 G1 Y24.77
N6970 Y25.837 Z-5.
N6975 Y29.837
N6980 Y30.904 Z-5.8 F333.33
N6985 Y56.988 F200.
N6990 Y58.054 Z-5.
N6995 Y62.054
N7000 Y63.121 Z-5.8 F333.33
N7005 Y89.205 F200.
N7010 Y90.272 Z-5.
N7015 Y94.272
N7020 Y95.338 Z-5.8 F333.33
N7025 Y121.422 F200.
N7030 Y122.489 Z-5.
N7035 Y126.489
N7040 Y127.556 Z-5.8 F333.33
N7045 Y153.64 F200.
N7050 Y154.707 Z-5.
N7055 Y158.707
N7060 Y159.774 Z-5.8 F333.33
N7065 Y185.857 F200.
N7070 Y186.924 Z-5.
N7075 Y190.924
N7080 Y191.991 Z-5.8 F333.33
N7085 Y218. F200.
N7090 G2 X-1.067 Y220.568 I4. J0.
N7095 X-0.674 Y220.975 Z-5.505 I3.067 J-2.568
N7100 X-0.228 Y221.322 Z-5.171 I2.674 J-2.975
N7105 X0. Y221.464 Z-5. I2.228 J-3.322
N7110 X2. Y222. I2. J-3.464
N7115 G1 X4.
N7120 X5.067 Z-5.8 F333.33
N7125 X31.151 F200.
N7130 X32.217 Z-5.
N7135 X36.217
N7140 X37.284 Z-5.8 F333.33
N7145 X63.368 F200.
N7150 X64.435 Z-5.
N7155 X68.435
N7160 X69.502 Z-5.8 F333.33
N7165 X95.586 F200.
N7170 X96.652 Z-5.
N7175 X100.652
N7180 X101.719 Z-5.8 F333.33
N7185 X118. F200.
N7190 G2 X122. Y218. I0. J-4.
N7195 G1 Z-6.5 F333.33
N7200 Y212.272 F200.
N7205 Y210.272 Z-5.
N7210 Y206.272
N7215 Y204.272 Z-6.5 F333.33
N7220 Y180.054 F200.
N7225 Y178.054 Z-5.
N7230 Y174.054
N7235 Y172.054 Z-6.5 F333.33
N7240 Y147.837 F200.
N7245 Y145.837 Z-5.
N7250 Y141.837
N7255 Y139.837 Z-6.5 F333.33
N7260 Y115.619 F200.
N7265 Y113.619 Z-5.
N7270 Y109.619
N7275 Y107.619 Z-6.5 F333.33
N7280 Y83.402 F200.
N7285 Y81.402 Z-5.
N7290 Y77.402
N7295 Y75.402 Z-6.5 F333.33
N7300 Y51.185 F200.
N7305 Y49.185 Z-5.
N7310 Y45.185
N7315 Y43.185 Z-6.5 F333.33
N7320 Y18.967 F200.
N7325 Y16.967 Z-5.
N7330 Y12.967
N7335 Y10.967 Z-6.5 F333.33
N7340 Y2. F200.
N7345 G2 X118. Y-2. I-4. J0.
N7350 G1 X105.891
N7355 X103.891 Z-5.
N7360 X99.891
N7365 X97.891 Z-6.5 F333.33
N7370 X73.674 F200.
N7375 X71.674 Z-5.
N7380 X67.674
N7385 X65.674 Z-6.5 F333.33
N7390 X41.456 F200.
N7395 X39.456 Z-5.
N7400 X35.456
N7405 X33.456 Z-6.5 F333.33
N7410 X9.239 F200.
N7415 X7.239 Z-5.
N7420 X3.239
N7425 X2. Z-5.929 F333.33
N7430 G2 X1.436 Y-1.96 Z-6.352 I0. J4.
N7435 G1 X1.239 Y-1.927 Z-6.5
N7440 G2 X-2. Y2. I0.761 J3.927 F200.
N7445 G1 Y23.837
N7450 Y25.837 Z-5.
N7455 Y29.837
N7460 Y31.837 Z-6.5 F333.33
N7465 Y56.054 F200.
N7470 Y58.054 Z-5.
N7475 Y62.054
N7480 Y64.054 Z-6.5 F333.33
N7485 Y88.272 F200.
N7490 Y90.272 Z-5.
N7495 Y94.272
N7500 Y96.272 Z-6.5 F333.33
N7505 Y120.489 F200.
N7510 Y122.489 Z-5.
N7515 Y126.489
N7520 Y128.489 Z-6.5 F333.33
N7525 Y152.707 F200.
N7530 Y154.707 Z-5.
N7535 Y158.707
N7540 Y160.707 Z-6.5 F333.33
N7545 Y184.924 F200.
N7550 Y186.924 Z-5.
N7555 Y190.924
N7560 Y192.924 Z-6.5 F333.33
N7565 Y218. F200.
N7570 G2 X-1.96 Y218.564 Z-6.47 I4. J0.
N7575 X-1.841 Y219.117 Z-6.381 I3.96 J-0.564
N7580 X-1.645 Y219.647 Z-6.234 I3.841 J-1.117
N7585 X-1.377 Y220.144 Z-6.032 I3.645 J-1.647
N7590 X-1.041 Y220.599 Z-5.78 I3.377 J-2.144
N7595 X-0.644 Y221.002 Z-5.483 I3.041 J-2.599
N7600 X-0.194 Y221.344 Z-5.146 I2.644 J-3.002
N7605 G1 X0. Y221.464 Z-5.
N7610 G2 X2. Y222. I2. J-3.464
N7615 G1 X4.
N7620 X6. Z-6.5 F333.33
N7625 X30.217 F200.
N7630 X32.217 Z-5.
N7635 X36.217
N7640 X38.217 Z-6.5 F333.33
N7645 X62.435 F200.
N7650 X64.435 Z-5.
N7655 X68.435
N7660 X70.435 Z-6.5 F333.33
N7665 X94.652 F200.
N7670 X96.652 Z-5.
N7675 X100.652
N7680 X102.652 Z-6.5 F333.33
N7685 X118. F200.
N7690 G2 X122. Y218. I0. J-4.
N7695 G0 Z17.
N7700 G53 Z0.
N7705 M30
%
