%
(GETRIEBE_PLATTE_1_3MM)
(T1  D=3. CR=0. - ZMIN=-5.75 - SCHAFTFRSER)
N10 G90 G94 G17 G91.1
N15 G21
N20 G53 G0 Z0.
(2D-TASCHE1)
N25 T1 M6
N30 S5000 M3
N35 G54
N40 G64
N45 G43 Z17. H1
N50 G0 X90.11 Y119.3
N55 G0 Z5.2
N60 G1 Z2.997 F150.
N65 G18 G3 X89.854 Z2.7 I-0.3 K0.
N70 G1 X88.4 Z2.483
N75 X88.362 Y119.292 Z2.477
N80 X88.329 Y119.271 Z2.471
N85 X88.308 Y119.238 Z2.466
N90 X88.3 Y119.2 Z2.46
N95 X88.308 Y119.162 Z2.454
N100 X88.329 Y119.129 Z2.448
N105 X88.362 Y119.108 Z2.442
N110 X88.4 Y119.1 Z2.436
N115 X90.6 Z2.108
N120 X90.638 Y119.108 Z2.102
N125 X90.671 Y119.129 Z2.096
N130 X90.692 Y119.162 Z2.091
N135 X90.7 Y119.2 Z2.085
N140 X90.692 Y119.238 Z2.079
N145 X90.671 Y119.271 Z2.073
N150 X90.638 Y119.292 Z2.067
N155 X90.6 Y119.3 Z2.061
N160 X88.4 Z1.733
N165 X88.362 Y119.292 Z1.727
N170 X88.329 Y119.271 Z1.721
N175 X88.308 Y119.238 Z1.716
N180 X88.3 Y119.2 Z1.71
N185 X88.308 Y119.162 Z1.704
N190 X88.329 Y119.129 Z1.698
N195 X88.362 Y119.108 Z1.692
N200 X88.4 Y119.1 Z1.686
N205 X90.6 Z1.358
N210 X90.638 Y119.108 Z1.352
N215 X90.671 Y119.129 Z1.346
N220 X90.692 Y119.162 Z1.341
N225 X90.7 Y119.2 Z1.335
N230 X90.692 Y119.238 Z1.329
N235 X90.671 Y119.271 Z1.323
N240 X90.638 Y119.292 Z1.317
N245 X90.6 Y119.3 Z1.311
N250 X88.4 Z0.983
N255 X88.362 Y119.292 Z0.977
N260 X88.329 Y119.271 Z0.971
N265 X88.308 Y119.238 Z0.966
N270 X88.3 Y119.2 Z0.96
N275 X88.308 Y119.162 Z0.954
N280 X88.329 Y119.129 Z0.948
N285 X88.362 Y119.108 Z0.942
N290 X88.4 Y119.1 Z0.936
N295 X90.6 Z0.608
N300 X90.638 Y119.108 Z0.602
N305 X90.671 Y119.129 Z0.596
N310 X90.692 Y119.162 Z0.591
N315 X90.7 Y119.2 Z0.585
N320 X90.692 Y119.238 Z0.579
N325 X90.671 Y119.271 Z0.573
N330 X90.638 Y119.292 Z0.567
N335 X90.6 Y119.3 Z0.561
N340 X88.4 Z0.233
N345 X88.362 Y119.292 Z0.227
N350 X88.329 Y119.271 Z0.221
N355 X88.308 Y119.238 Z0.216
N360 X88.3 Y119.2 Z0.21
N365 X88.308 Y119.162 Z0.204
N370 X88.329 Y119.129 Z0.198
N375 X88.362 Y119.108 Z0.192
N380 X88.4 Y119.1 Z0.186
N385 X90.6 Z-0.142
N390 X90.638 Y119.108 Z-0.148
N395 X90.671 Y119.129 Z-0.154
N400 X90.692 Y119.162 Z-0.159
N405 X90.7 Y119.2 Z-0.165
N410 X90.692 Y119.238 Z-0.171
N415 X90.671 Y119.271 Z-0.177
N420 X90.638 Y119.292 Z-0.183
N425 X90.6 Y119.3 Z-0.189
N430 X88.4 Z-0.517
N435 X88.365 Y119.294 Z-0.522
N440 X88.334 Y119.275 Z-0.528
N445 X88.312 Y119.247 Z-0.533
N450 X88.301 Y119.213 Z-0.538
N455 X88.303 Y119.177 Z-0.544
N460 X88.316 Y119.146 F100.
N465 X88.338 Y119.122
N470 X88.367 Y119.106
N475 X88.4 Y119.1
N480 X90.6
N485 X90.638 Y119.108
N490 X90.671 Y119.129
N495 X90.692 Y119.162
N500 X90.7 Y119.2
N505 X90.692 Y119.238
N510 X90.671 Y119.271
N515 X90.638 Y119.292
N520 X90.6 Y119.3
N525 X88.4
N530 X88.365 Y119.294
N535 X88.334 Y119.275
N540 X88.312 Y119.247
N545 X88.301 Y119.213
N550 X88.303 Y119.177
N555 X88.316 Y119.146 Z-0.549 F150.
N560 X88.338 Y119.122 Z-0.554
N565 X88.367 Y119.106 Z-0.559
N570 X88.4 Y119.1 Z-0.564
N575 X90.6 Z-0.892
N580 X90.638 Y119.108 Z-0.898
N585 X90.671 Y119.129 Z-0.904
N590 X90.692 Y119.162 Z-0.909
N595 X90.7 Y119.2 Z-0.915
N600 X90.692 Y119.238 Z-0.921
N605 X90.671 Y119.271 Z-0.927
N610 X90.638 Y119.292 Z-0.933
N615 X90.6 Y119.3 Z-0.939
N620 X88.4 Z-1.267
N625 X88.366 Y119.294 Z-1.272
N630 X88.336 Y119.277 Z-1.277
N635 X88.314 Y119.251 Z-1.282
N640 X88.302 Y119.219 Z-1.288
N645 X88.301 Y119.184 F100.
N650 X88.313 Y119.151
N655 X88.335 Y119.124
N660 X88.366 Y119.106
N665 X88.4 Y119.1
N670 X90.6
N675 X90.638 Y119.108
N680 X90.671 Y119.129
N685 X90.692 Y119.162
N690 X90.7 Y119.2
N695 X90.692 Y119.238
N700 X90.671 Y119.271
N705 X90.638 Y119.292
N710 X90.6 Y119.3
N715 X88.4
N720 X88.366 Y119.294
N725 X88.336 Y119.277
N730 X88.314 Y119.251
N735 X88.302 Y119.219
N740 X88.301 Y119.184 Z-1.293 F150.
N745 X88.313 Y119.151 Z-1.298
N750 X88.335 Y119.124 Z-1.303
N755 X88.366 Y119.106 Z-1.309
N760 X88.4 Y119.1 Z-1.314
N765 X90.6 Z-1.642
N770 X90.638 Y119.108 Z-1.648
N775 X90.671 Y119.129 Z-1.654
N780 X90.692 Y119.162 Z-1.659
N785 X90.7 Y119.2 Z-1.665
N790 X90.692 Y119.238 Z-1.671
N795 X90.671 Y119.271 Z-1.677
N800 X90.638 Y119.292 Z-1.683
N805 X90.6 Y119.3 Z-1.689
N810 X88.4 Z-2.017
N815 X88.368 Y119.295 Z-2.022
N820 X88.34 Y119.28 Z-2.026
N825 X88.318 Y119.257 Z-2.031
N830 X88.303 Y119.224 F100.
N835 X88.301 Y119.188
N840 X88.311 Y119.154
N845 X88.334 Y119.125
N850 X88.364 Y119.107
N855 X88.4 Y119.1
N860 X90.6
N865 X90.638 Y119.108
N870 X90.671 Y119.129
N875 X90.692 Y119.162
N880 X90.7 Y119.2
N885 X90.692 Y119.238
N890 X90.671 Y119.271
N895 X90.638 Y119.292
N900 X90.6 Y119.3
N905 X88.4
N910 X88.368 Y119.295
N915 X88.34 Y119.28
N920 X88.318 Y119.257
N925 X88.303 Y119.224 Z-2.037 F150.
N930 X88.301 Y119.188 Z-2.042
N935 X88.311 Y119.154 Z-2.048
N940 X88.334 Y119.125 Z-2.053
N945 X88.364 Y119.107 Z-2.058
N950 X88.4 Y119.1 Z-2.064
N955 X90.6 Z-2.392
N960 X90.638 Y119.108 Z-2.398
N965 X90.671 Y119.129 Z-2.404
N970 X90.692 Y119.162 Z-2.409
N975 X90.7 Y119.2 Z-2.415
N980 X90.692 Y119.238 Z-2.421
N985 X90.671 Y119.271 Z-2.427
N990 X90.638 Y119.292 Z-2.433
N995 X90.6 Y119.3 Z-2.439
N1000 X88.4 Z-2.767
N1005 X88.373 Y119.296 Z-2.771
N1010 X88.348 Y119.286 Z-2.775
N1015 X88.321 Y119.261 F100.
N1020 X88.304 Y119.228
N1025 X88.3 Y119.191
N1030 X88.31 Y119.156
N1035 X88.332 Y119.126
N1040 X88.364 Y119.107
N1045 X88.4 Y119.1
N1050 X90.6
N1055 X90.638 Y119.108
N1060 X90.671 Y119.129
N1065 X90.692 Y119.162
N1070 X90.7 Y119.2
N1075 X90.692 Y119.238
N1080 X90.671 Y119.271
N1085 X90.638 Y119.292
N1090 X90.6 Y119.3
N1095 X88.4
N1100 X88.373 Y119.296
N1105 X88.348 Y119.286
N1110 X88.321 Y119.261 Z-2.781 F150.
N1115 X88.304 Y119.228 Z-2.786
N1120 X88.3 Y119.191 Z-2.792
N1125 X88.31 Y119.156 Z-2.797
N1130 X88.332 Y119.126 Z-2.803
N1135 X88.364 Y119.107 Z-2.808
N1140 X88.4 Y119.1 Z-2.814
N1145 X90.6 Z-3.142
N1150 X90.638 Y119.108 Z-3.148
N1155 X90.671 Y119.129 Z-3.154
N1160 X90.692 Y119.162 Z-3.159
N1165 X90.7 Y119.2 Z-3.165
N1170 X90.692 Y119.238 Z-3.171
N1175 X90.671 Y119.271 Z-3.177
N1180 X90.638 Y119.292 Z-3.183
N1185 X90.6 Y119.3 Z-3.189
N1190 X88.4 Z-3.517
N1195 X88.388 Y119.299 Z-3.519
N1200 X88.352 Y119.288 F100.
N1205 X88.323 Y119.264
N1210 X88.305 Y119.231
N1215 X88.3 Y119.194
N1220 X88.309 Y119.157
N1225 X88.332 Y119.127
N1230 X88.363 Y119.107
N1235 X88.4 Y119.1
N1240 X90.6
N1245 X90.638 Y119.108
N1250 X90.671 Y119.129
N1255 X90.692 Y119.162
N1260 X90.7 Y119.2
N1265 X90.692 Y119.238
N1270 X90.671 Y119.271
N1275 X90.638 Y119.292
N1280 X90.6 Y119.3
N1285 X88.4
N1290 X88.388 Y119.299
N1295 X88.352 Y119.288 Z-3.524 F150.
N1300 X88.323 Y119.264 Z-3.53
N1305 X88.305 Y119.231 Z-3.536
N1310 X88.3 Y119.194 Z-3.541
N1315 X88.309 Y119.157 Z-3.547
N1320 X88.332 Y119.127 Z-3.553
N1325 X88.363 Y119.107 Z-3.558
N1330 X88.4 Y119.1 Z-3.564
N1335 X90.6 Z-3.892
N1340 X90.638 Y119.108 Z-3.898
N1345 X90.671 Y119.129 Z-3.904
N1350 X90.692 Y119.162 Z-3.909
N1355 X90.7 Y119.2 Z-3.915
N1360 X90.692 Y119.238 Z-3.921
N1365 X90.671 Y119.271 Z-3.927
N1370 X90.638 Y119.292 Z-3.933
N1375 X90.6 Y119.3 Z-3.939
N1380 X88.43 Z-4.262
N1385 X88.4 F100.
N1390 X88.362 Y119.292
N1395 X88.329 Y119.271
N1400 X88.308 Y119.238
N1405 X88.3 Y119.2
N1410 X88.308 Y119.162
N1415 X88.329 Y119.129
N1420 X88.362 Y119.108
N1425 X88.4 Y119.1
N1430 X90.6
N1435 X90.638 Y119.108
N1440 X90.671 Y119.129
N1445 X90.692 Y119.162
N1450 X90.7 Y119.2
N1455 X90.692 Y119.238
N1460 X90.671 Y119.271
N1465 X90.638 Y119.292
N1470 X90.6 Y119.3
N1475 X88.43
N1480 X88.4 Z-4.267 F150.
N1485 X88.362 Y119.292 Z-4.273
N1490 X88.329 Y119.271 Z-4.279
N1495 X88.308 Y119.238 Z-4.284
N1500 X88.3 Y119.2 Z-4.29
N1505 X88.308 Y119.162 Z-4.296
N1510 X88.329 Y119.129 Z-4.302
N1515 X88.362 Y119.108 Z-4.308
N1520 X88.4 Y119.1 Z-4.314
N1525 X90.6 Z-4.642
N1530 X90.638 Y119.108 Z-4.648
N1535 X90.671 Y119.129 Z-4.654
N1540 X90.692 Y119.162 Z-4.659
N1545 X90.7 Y119.2 Z-4.665
N1550 X90.692 Y119.238 Z-4.671
N1555 X90.671 Y119.271 Z-4.677
N1560 X90.638 Y119.292 Z-4.683
N1565 X90.6 Y119.3 Z-4.689
N1570 X88.471 Z-5.006
N1575 X88.43 F100.
N1580 X88.4
N1585 X88.362 Y119.292
N1590 X88.329 Y119.271
N1595 X88.308 Y119.238
N1600 X88.3 Y119.2
N1605 X88.308 Y119.162
N1610 X88.329 Y119.129
N1615 X88.362 Y119.108
N1620 X88.4 Y119.1
N1625 X90.6
N1630 X90.638 Y119.108
N1635 X90.671 Y119.129
N1640 X90.692 Y119.162
N1645 X90.7 Y119.2
N1650 X90.692 Y119.238
N1655 X90.671 Y119.271
N1660 X90.638 Y119.292
N1665 X90.6 Y119.3
N1670 X88.471
N1675 X88.4 Z-5.017 F150.
N1680 X88.362 Y119.292 Z-5.023
N1685 X88.329 Y119.271 Z-5.029
N1690 X88.308 Y119.238 Z-5.034
N1695 X88.3 Y119.2 Z-5.04
N1700 X88.308 Y119.162 Z-5.046
N1705 X88.329 Y119.129 Z-5.052
N1710 X88.362 Y119.108 Z-5.058
N1715 X88.4 Y119.1 Z-5.064
N1720 X90.6 Z-5.392
N1725 X90.638 Y119.108 Z-5.398
N1730 X90.671 Y119.129 Z-5.404
N1735 X90.692 Y119.162 Z-5.409
N1740 X90.7 Y119.2 Z-5.415
N1745 X90.692 Y119.238 Z-5.421
N1750 X90.671 Y119.271 Z-5.427
N1755 X90.638 Y119.292 Z-5.433
N1760 X90.6 Y119.3 Z-5.439
N1765 X88.513 Z-5.75
N1770 X88.4 F100.
N1775 X88.362 Y119.292
N1780 X88.329 Y119.271
N1785 X88.308 Y119.238
N1790 X88.3 Y119.2
N1795 X88.308 Y119.162
N1800 X88.329 Y119.129
N1805 X88.362 Y119.108
N1810 X88.4 Y119.1
N1815 X90.6
N1820 X90.638 Y119.108
N1825 X90.671 Y119.129
N1830 X90.692 Y119.162
N1835 X90.7 Y119.2
N1840 X90.692 Y119.238
N1845 X90.671 Y119.271
N1850 X90.638 Y119.292
N1855 X90.6 Y119.3
N1860 X88.513
N1865 X88.456 Z-5.744
N1870 X88.4 Z-5.728
N1875 X88.37 Y119.295 Z-5.708
N1880 X88.342 Y119.282 Z-5.688
N1885 X88.32 Y119.26 Z-5.668
N1890 X88.305 Y119.232 Z-5.624
N1895 X88.3 Y119.2 Z-5.58
N1900 X88.304 Y119.171 Z-5.45
N1905 G0 Z7.
N1910 X36.076 Y119.3
N1915 Z5.2
N1920 G1 Z2.996 F150.
N1925 G3 X35.824 Z2.7 I-0.3 K0.
N1930 G1 X34.5 Z2.485
N1935 X34.462 Y119.292 Z2.479
N1940 X34.429 Y119.271 Z2.473
N1945 X34.408 Y119.238 Z2.466
N1950 X34.4 Y119.2 Z2.46
N1955 X34.408 Y119.162 Z2.454
N1960 X34.429 Y119.129 Z2.447
N1965 X34.462 Y119.108 Z2.441
N1970 X34.5 Y119.1 Z2.435
N1975 X36.5 Z2.11
N1980 X36.538 Y119.108 Z2.104
N1985 X36.571 Y119.129 Z2.098
N1990 X36.592 Y119.162 Z2.091
N1995 X36.6 Y119.2 Z2.085
N2000 X36.592 Y119.238 Z2.079
N2005 X36.571 Y119.271 Z2.072
N2010 X36.538 Y119.292 Z2.066
N2015 X36.5 Y119.3 Z2.06
N2020 X34.5 Z1.735
N2025 X34.462 Y119.292 Z1.729
N2030 X34.429 Y119.271 Z1.723
N2035 X34.408 Y119.238 Z1.716
N2040 X34.4 Y119.2 Z1.71
N2045 X34.408 Y119.162 Z1.704
N2050 X34.429 Y119.129 Z1.697
N2055 X34.462 Y119.108 Z1.691
N2060 X34.5 Y119.1 Z1.685
N2065 X36.5 Z1.36
N2070 X36.538 Y119.108 Z1.354
N2075 X36.571 Y119.129 Z1.348
N2080 X36.592 Y119.162 Z1.341
N2085 X36.6 Y119.2 Z1.335
N2090 X36.592 Y119.238 Z1.329
N2095 X36.571 Y119.271 Z1.322
N2100 X36.538 Y119.292 Z1.316
N2105 X36.5 Y119.3 Z1.31
N2110 X34.5 Z0.985
N2115 X34.462 Y119.292 Z0.979
N2120 X34.429 Y119.271 Z0.973
N2125 X34.408 Y119.238 Z0.966
N2130 X34.4 Y119.2 Z0.96
N2135 X34.408 Y119.162 Z0.954
N2140 X34.429 Y119.129 Z0.947
N2145 X34.462 Y119.108 Z0.941
N2150 X34.5 Y119.1 Z0.935
N2155 X36.5 Z0.61
N2160 X36.538 Y119.108 Z0.604
N2165 X36.571 Y119.129 Z0.598
N2170 X36.592 Y119.162 Z0.591
N2175 X36.6 Y119.2 Z0.585
N2180 X36.592 Y119.238 Z0.579
N2185 X36.571 Y119.271 Z0.572
N2190 X36.538 Y119.292 Z0.566
N2195 X36.5 Y119.3 Z0.56
N2200 X34.5 Z0.235
N2205 X34.462 Y119.292 Z0.229
N2210 X34.429 Y119.271 Z0.223
N2215 X34.408 Y119.238 Z0.216
N2220 X34.4 Y119.2 Z0.21
N2225 X34.408 Y119.162 Z0.204
N2230 X34.429 Y119.129 Z0.197
N2235 X34.462 Y119.108 Z0.191
N2240 X34.5 Y119.1 Z0.185
N2245 X36.5 Z-0.14
N2250 X36.538 Y119.108 Z-0.146
N2255 X36.571 Y119.129 Z-0.152
N2260 X36.592 Y119.162 Z-0.159
N2265 X36.6 Y119.2 Z-0.165
N2270 X36.592 Y119.238 Z-0.171
N2275 X36.571 Y119.271 Z-0.178
N2280 X36.538 Y119.292 Z-0.184
N2285 X36.5 Y119.3 Z-0.19
N2290 X34.5 Z-0.515
N2295 X34.465 Y119.294 Z-0.52
N2300 X34.434 Y119.275 Z-0.526
N2305 X34.412 Y119.247 Z-0.532
N2310 X34.401 Y119.213 Z-0.538
N2315 X34.403 Y119.177 Z-0.544
N2320 X34.416 Y119.146 F100.
N2325 X34.438 Y119.122
N2330 X34.467 Y119.106
N2335 X34.5 Y119.1
N2340 X36.5
N2345 X36.538 Y119.108
N2350 X36.571 Y119.129
N2355 X36.592 Y119.162
N2360 X36.6 Y119.2
N2365 X36.592 Y119.238
N2370 X36.571 Y119.271
N2375 X36.538 Y119.292
N2380 X36.5 Y119.3
N2385 X34.5
N2390 X34.465 Y119.294
N2395 X34.434 Y119.275
N2400 X34.412 Y119.247
N2405 X34.401 Y119.213
N2410 X34.403 Y119.177
N2415 X34.416 Y119.146 Z-0.549 F150.
N2420 X34.438 Y119.122 Z-0.555
N2425 X34.467 Y119.106 Z-0.56
N2430 X34.5 Y119.1 Z-0.565
N2435 X36.5 Z-0.89
N2440 X36.538 Y119.108 Z-0.896
N2445 X36.571 Y119.129 Z-0.902
N2450 X36.592 Y119.162 Z-0.909
N2455 X36.6 Y119.2 Z-0.915
N2460 X36.592 Y119.238 Z-0.921
N2465 X36.571 Y119.271 Z-0.928
N2470 X36.538 Y119.292 Z-0.934
N2475 X36.5 Y119.3 Z-0.94
N2480 X34.5 Z-1.265
N2485 X34.465 Y119.294 Z-1.27
N2490 X34.435 Y119.276 Z-1.276
N2495 X34.413 Y119.249 Z-1.282
N2500 X34.401 Y119.216 Z-1.288
N2505 X34.402 Y119.181 F100.
N2510 X34.414 Y119.149
N2515 X34.436 Y119.123
N2520 X34.466 Y119.106
N2525 X34.5 Y119.1
N2530 X36.5
N2535 X36.538 Y119.108
N2540 X36.571 Y119.129
N2545 X36.592 Y119.162
N2550 X36.6 Y119.2
N2555 X36.592 Y119.238
N2560 X36.571 Y119.271
N2565 X36.538 Y119.292
N2570 X36.5 Y119.3
N2575 X34.5
N2580 X34.465 Y119.294
N2585 X34.435 Y119.276
N2590 X34.413 Y119.249
N2595 X34.401 Y119.216
N2600 X34.402 Y119.181 Z-1.293 F150.
N2605 X34.414 Y119.149 Z-1.299
N2610 X34.436 Y119.123 Z-1.304
N2615 X34.466 Y119.106 Z-1.31
N2620 X34.5 Y119.1 Z-1.315
N2625 X36.5 Z-1.64
N2630 X36.538 Y119.108 Z-1.646
N2635 X36.571 Y119.129 Z-1.652
N2640 X36.592 Y119.162 Z-1.659
N2645 X36.6 Y119.2 Z-1.665
N2650 X36.592 Y119.238 Z-1.671
N2655 X36.571 Y119.271 Z-1.678
N2660 X36.538 Y119.292 Z-1.684
N2665 X36.5 Y119.3 Z-1.69
N2670 X34.5 Z-2.015
N2675 X34.466 Y119.294 Z-2.02
N2680 X34.437 Y119.277 Z-2.026
N2685 X34.414 Y119.252 Z-2.031
N2690 X34.402 Y119.219 F100.
N2695 X34.401 Y119.184
N2700 X34.413 Y119.151
N2705 X34.435 Y119.124
N2710 X34.466 Y119.106
N2715 X34.5 Y119.1
N2720 X36.5
N2725 X36.538 Y119.108
N2730 X36.571 Y119.129
N2735 X36.592 Y119.162
N2740 X36.6 Y119.2
N2745 X36.592 Y119.238
N2750 X36.571 Y119.271
N2755 X36.538 Y119.292
N2760 X36.5 Y119.3
N2765 X34.5
N2770 X34.466 Y119.294
N2775 X34.437 Y119.277
N2780 X34.414 Y119.252
N2785 X34.402 Y119.219 Z-2.037 F150.
N2790 X34.401 Y119.184 Z-2.043
N2795 X34.413 Y119.151 Z-2.048
N2800 X34.435 Y119.124 Z-2.054
N2805 X34.466 Y119.106 Z-2.06
N2810 X34.5 Y119.1 Z-2.065
N2815 X36.5 Z-2.39
N2820 X36.538 Y119.108 Z-2.396
N2825 X36.571 Y119.129 Z-2.402
N2830 X36.592 Y119.162 Z-2.409
N2835 X36.6 Y119.2 Z-2.415
N2840 X36.592 Y119.238 Z-2.421
N2845 X36.571 Y119.271 Z-2.428
N2850 X36.538 Y119.292 Z-2.434
N2855 X36.5 Y119.3 Z-2.44
N2860 X34.5 Z-2.765
N2865 X34.468 Y119.295 Z-2.77
N2870 X34.44 Y119.28 Z-2.775
N2875 X34.416 Y119.254 F100.
N2880 X34.402 Y119.221
N2885 X34.401 Y119.186
N2890 X34.412 Y119.152
N2895 X34.435 Y119.124
N2900 X34.465 Y119.106
N2905 X34.5 Y119.1
N2910 X36.5
N2915 X36.538 Y119.108
N2920 X36.571 Y119.129
N2925 X36.592 Y119.162
N2930 X36.6 Y119.2
N2935 X36.592 Y119.238
N2940 X36.571 Y119.271
N2945 X36.538 Y119.292
N2950 X36.5 Y119.3
N2955 X34.5
N2960 X34.468 Y119.295
N2965 X34.44 Y119.28
N2970 X34.416 Y119.254 Z-2.781 F150.
N2975 X34.402 Y119.221 Z-2.787
N2980 X34.401 Y119.186 Z-2.792
N2985 X34.412 Y119.152 Z-2.798
N2990 X34.435 Y119.124 Z-2.804
N2995 X34.465 Y119.106 Z-2.81
N3000 X34.5 Y119.1 Z-2.815
N3005 X36.5 Z-3.14
N3010 X36.538 Y119.108 Z-3.146
N3015 X36.571 Y119.129 Z-3.152
N3020 X36.592 Y119.162 Z-3.159
N3025 X36.6 Y119.2 Z-3.165
N3030 X36.592 Y119.238 Z-3.171
N3035 X36.571 Y119.271 Z-3.178
N3040 X36.538 Y119.292 Z-3.184
N3045 X36.5 Y119.3 Z-3.19
N3050 X34.5 Z-3.515
N3055 X34.475 Y119.297 Z-3.519
N3060 X34.442 Y119.282 F100.
N3065 X34.417 Y119.256
N3070 X34.403 Y119.223
N3075 X34.401 Y119.187
N3080 X34.412 Y119.153
N3085 X34.434 Y119.125
N3090 X34.465 Y119.106
N3095 X34.5 Y119.1
N3100 X36.5
N3105 X36.538 Y119.108
N3110 X36.571 Y119.129
N3115 X36.592 Y119.162
N3120 X36.6 Y119.2
N3125 X36.592 Y119.238
N3130 X36.571 Y119.271
N3135 X36.538 Y119.292
N3140 X36.5 Y119.3
N3145 X34.5
N3150 X34.475 Y119.297
N3155 X34.442 Y119.282 Z-3.525 F150.
N3160 X34.417 Y119.256 Z-3.53
N3165 X34.403 Y119.223 Z-3.536
N3170 X34.401 Y119.187 Z-3.542
N3175 X34.412 Y119.153 Z-3.548
N3180 X34.434 Y119.125 Z-3.554
N3185 X34.465 Y119.106 Z-3.56
N3190 X34.5 Y119.1 Z-3.565
N3195 X36.5 Z-3.89
N3200 X36.538 Y119.108 Z-3.896
N3205 X36.571 Y119.129 Z-3.902
N3210 X36.592 Y119.162 Z-3.909
N3215 X36.6 Y119.2 Z-3.915
N3220 X36.592 Y119.238 Z-3.921
N3225 X36.571 Y119.271 Z-3.928
N3230 X36.538 Y119.292 Z-3.934
N3235 X36.5 Y119.3 Z-3.94
N3240 X34.513 Z-4.262
N3245 X34.5 F100.
N3250 X34.462 Y119.292
N3255 X34.429 Y119.271
N3260 X34.408 Y119.238
N3265 X34.4 Y119.2
N3270 X34.408 Y119.162
N3275 X34.429 Y119.129
N3280 X34.462 Y119.108
N3285 X34.5 Y119.1
N3290 X36.5
N3295 X36.538 Y119.108
N3300 X36.571 Y119.129
N3305 X36.592 Y119.162
N3310 X36.6 Y119.2
N3315 X36.592 Y119.238
N3320 X36.571 Y119.271
N3325 X36.538 Y119.292
N3330 X36.5 Y119.3
N3335 X34.513
N3340 X34.5 Z-4.265 F150.
N3345 X34.462 Y119.292 Z-4.271
N3350 X34.429 Y119.271 Z-4.277
N3355 X34.408 Y119.238 Z-4.284
N3360 X34.4 Y119.2 Z-4.29
N3365 X34.408 Y119.162 Z-4.296
N3370 X34.429 Y119.129 Z-4.303
N3375 X34.462 Y119.108 Z-4.309
N3380 X34.5 Y119.1 Z-4.315
N3385 X36.5 Z-4.64
N3390 X36.538 Y119.108 Z-4.646
N3395 X36.571 Y119.129 Z-4.652
N3400 X36.592 Y119.162 Z-4.659
N3405 X36.6 Y119.2 Z-4.665
N3410 X36.592 Y119.238 Z-4.671
N3415 X36.571 Y119.271 Z-4.678
N3420 X36.538 Y119.292 Z-4.684
N3425 X36.5 Y119.3 Z-4.69
N3430 X34.551 Z-5.006
N3435 X34.513 F100.
N3440 X34.5
N3445 X34.462 Y119.292
N3450 X34.429 Y119.271
N3455 X34.408 Y119.238
N3460 X34.4 Y119.2
N3465 X34.408 Y119.162
N3470 X34.429 Y119.129
N3475 X34.462 Y119.108
N3480 X34.5 Y119.1
N3485 X36.5
N3490 X36.538 Y119.108
N3495 X36.571 Y119.129
N3500 X36.592 Y119.162
N3505 X36.6 Y119.2
N3510 X36.592 Y119.238
N3515 X36.571 Y119.271
N3520 X36.538 Y119.292
N3525 X36.5 Y119.3
N3530 X34.551
N3535 X34.5 Z-5.015 F150.
N3540 X34.462 Y119.292 Z-5.021
N3545 X34.429 Y119.271 Z-5.027
N3550 X34.408 Y119.238 Z-5.034
N3555 X34.4 Y119.2 Z-5.04
N3560 X34.408 Y119.162 Z-5.046
N3565 X34.429 Y119.129 Z-5.053
N3570 X34.462 Y119.108 Z-5.059
N3575 X34.5 Y119.1 Z-5.065
N3580 X36.5 Z-5.39
N3585 X36.538 Y119.108 Z-5.396
N3590 X36.571 Y119.129 Z-5.402
N3595 X36.592 Y119.162 Z-5.409
N3600 X36.6 Y119.2 Z-5.415
N3605 X36.592 Y119.238 Z-5.421
N3610 X36.571 Y119.271 Z-5.428
N3615 X36.538 Y119.292 Z-5.434
N3620 X36.5 Y119.3 Z-5.44
N3625 X34.59 Z-5.75
N3630 X34.5 F100.
N3635 X34.462 Y119.292
N3640 X34.429 Y119.271
N3645 X34.408 Y119.238
N3650 X34.4 Y119.2
N3655 X34.408 Y119.162
N3660 X34.429 Y119.129
N3665 X34.462 Y119.108
N3670 X34.5 Y119.1
N3675 X36.5
N3680 X36.538 Y119.108
N3685 X36.571 Y119.129
N3690 X36.592 Y119.162
N3695 X36.6 Y119.2
N3700 X36.592 Y119.238
N3705 X36.571 Y119.271
N3710 X36.538 Y119.292
N3715 X36.5 Y119.3
N3720 X34.59
N3725 X34.544 Z-5.747
N3730 X34.5 Z-5.736
N3735 X34.471 Y119.296 Z-5.721
N3740 X34.445 Y119.283 Z-5.706
N3745 X34.423 Y119.264 Z-5.691
N3750 X34.406 Y119.234 Z-5.656
N3755 X34.4 Y119.2 Z-5.62
N3760 X34.408 Y119.162 Z-5.539
N3765 X34.414 Y119.15 Z-5.45
N3770 G0 Z17.
N3775 G17
N3780 G53 G0 Z0.
N3785 M30
%
