%
(GETRIEBE_PLATTE_1_4MM)
(T1  D=4. CR=0. - ZMIN=-5.75 - SCHAFTFRSER)
N10 G90 G94 G17 G91.1
N15 G21
N20 G53 G0 Z0.
(2D-TASCHE2)
N25 T1 M6
N30 S5000 M3
N35 G54
N40 G64
N45 G43 Z17. H1
N50 G0 X89.991 Y119.367
N55 G0 Z5.2
N60 G1 Z2.7 F333.33
N65 G3 X86.809 Y119.033 Z2.325 I-1.591 J-0.167
N70 X89.991 Y119.367 Z1.95 I1.591 J0.167
N75 X86.809 Y119.033 Z1.575 I-1.591 J-0.167
N80 X89.991 Y119.367 Z1.2 I1.591 J0.167
N85 X86.809 Y119.033 Z0.825 I-1.591 J-0.167
N90 X89.991 Y119.367 Z0.45 I1.591 J0.167
N95 X86.809 Y119.033 Z0.075 I-1.591 J-0.167
N100 X89.991 Y119.367 Z-0.3 I1.591 J0.167
N105 X88.4 Y120.8 Z-0.475 I-1.591 J-0.167
N110 Y117.6 I0. J-1.6 F200.
N115 G1 X90.6
N120 G3 Y120.8 I0. J1.6
N125 G1 X88.4
N130 G3 Y117.6 Z-0.736 I0. J-1.6 F333.33
N135 G1 X90.6 Z-0.85
N140 G3 Y120.8 Z-1.111 I0. J1.6
N145 G1 X89.845 Z-1.15
N150 X88.4 F200.
N155 G3 Y117.6 I0. J-1.6
N160 G1 X90.6
N165 G3 Y120.8 I0. J1.6
N170 G1 X89.845
N175 X88.4 Z-1.225 F333.33
N180 G3 Y117.6 Z-1.486 I0. J-1.6
N185 G1 X90.6 Z-1.6
N190 G3 X91.269 Y120.653 Z-1.825 I0. J1.6
N195 X90.6 Y120.8 I-0.669 J-1.453 F200.
N200 G1 X88.4
N205 G3 Y117.6 I0. J-1.6
N210 G1 X90.6
N215 G3 X91.269 Y120.653 I0. J1.6
N220 X90.6 Y120.8 Z-1.861 I-0.669 J-1.453 F333.33
N225 G1 X88.4 Z-1.975
N230 G3 Y117.6 Z-2.236 I0. J-1.6
N235 G1 X90.6 Z-2.35
N240 G3 X92.156 Y119.574 Z-2.5 I0. J1.6
N245 X90.6 Y120.8 I-1.556 J-0.374 F200.
N250 G1 X88.4
N255 G3 Y117.6 I0. J-1.6
N260 G1 X90.6
N265 G3 X92.156 Y119.574 I0. J1.6
N270 G0 Z7.
N275 X36.091 Y119.367
N280 Z5.2
N285 G1 Z2.7 F333.33
N290 G3 X32.909 Y119.033 Z2.325 I-1.591 J-0.167
N295 X36.091 Y119.367 Z1.95 I1.591 J0.167
N300 X32.909 Y119.033 Z1.575 I-1.591 J-0.167
N305 X36.091 Y119.367 Z1.2 I1.591 J0.167
N310 X32.909 Y119.033 Z0.825 I-1.591 J-0.167
N315 X36.091 Y119.367 Z0.45 I1.591 J0.167
N320 X32.909 Y119.033 Z0.075 I-1.591 J-0.167
N325 X36.091 Y119.367 Z-0.3 I1.591 J0.167
N330 X34.5 Y120.8 Z-0.475 I-1.591 J-0.167
N335 Y117.6 I0. J-1.6 F200.
N340 G1 X36.5
N345 G3 Y120.8 I0. J1.6
N350 G1 X34.5
N355 G3 Y117.6 Z-0.743 I0. J-1.6 F333.33
N360 G1 X36.5 Z-0.85
N365 G3 Y120.8 Z-1.118 I0. J1.6
N370 G1 X35.905 Z-1.15
N375 X34.5 F200.
N380 G3 Y117.6 I0. J-1.6
N385 G1 X36.5
N390 G3 Y120.8 I0. J1.6
N395 G1 X35.905
N400 X34.5 Z-1.225 F333.33
N405 G3 Y117.6 Z-1.493 I0. J-1.6
N410 G1 X36.5 Z-1.6
N415 G3 X37.276 Y120.599 Z-1.825 I0. J1.6
N420 X36.5 Y120.8 I-0.776 J-1.399 F200.
N425 G1 X34.5
N430 G3 Y117.6 I0. J-1.6
N435 G1 X36.5
N440 G3 X37.276 Y120.599 I0. J1.6
N445 X36.5 Y120.8 Z-1.868 I-0.776 J-1.399 F333.33
N450 G1 X34.5 Z-1.975
N455 G3 Y117.6 Z-2.243 I0. J-1.6
N460 G1 X36.5 Z-2.35
N465 G3 X38.072 Y119.496 Z-2.5 I0. J1.6
N470 X36.5 Y120.8 I-1.572 J-0.296 F200.
N475 G1 X34.5
N480 G3 Y117.6 I0. J-1.6
N485 G1 X36.5
N490 G3 X38.072 Y119.496 I0. J1.6
N495 G0 Z17.
N500 X10.211 Y81.719
N505 Z5.2
N510 G1 Z2.7 F333.33
N515 G3 X8.593 Y78.281 Z2.325 I-0.809 J-1.719
N520 X10.211 Y81.719 Z1.95 I0.809 J1.719
N525 X8.593 Y78.281 Z1.575 I-0.809 J-1.719
N530 X10.211 Y81.719 Z1.2 I0.809 J1.719
N535 X8.593 Y78.281 Z0.825 I-0.809 J-1.719
N540 X10.211 Y81.719 Z0.45 I0.809 J1.719
N545 X8.593 Y78.281 Z0.075 I-0.809 J-1.719
N550 X10.211 Y81.719 Z-0.3 I0.809 J1.719
N555 X7.502 Y80. Z-0.54 I-0.809 J-1.719
N560 X10.1 I1.299 J0.
N565 G1 X10.092 Y80.038 F200.
N570 X10.071 Y80.071
N575 X10.038 Y80.092
N580 X10. Y80.1
N585 X9.962 Y80.092
N590 X9.929 Y80.071
N595 X9.908 Y80.038
N600 X9.9 Y80.
N605 G3 X12.5 I1.3 J0.
N610 X7.5 I-2.5 J0.
N615 X12.5 I2.5 J0.
N620 X11.2 Y81.3 Z-0.683 I-1.3 J0. F333.33
N625 G1 X8.8 Z-0.851
N630 G3 Y78.7 Z-1.137 I0. J-1.3
N635 X10.1 Y80. Z-1.28 I0. J1.3
N640 G1 X10.092 Y80.038 F200.
N645 X10.071 Y80.071
N650 X10.038 Y80.092
N655 X10. Y80.1
N660 X9.962 Y80.092
N665 X9.929 Y80.071
N670 X9.908 Y80.038
N675 X9.9 Y80.
N680 G3 X12.5 I1.3 J0.
N685 X7.5 I-2.5 J0.
N690 X12.5 I2.5 J0.
N695 X11.2 Y81.3 Z-1.423 I-1.3 J0. F333.33
N700 G1 X8.8 Z-1.591
N705 G3 Y78.7 Z-1.877 I0. J-1.3
N710 X10.1 Y80. Z-2.02 I0. J1.3
N715 G1 X10.092 Y80.038 F200.
N720 X10.071 Y80.071
N725 X10.038 Y80.092
N730 X10. Y80.1
N735 X9.962 Y80.092
N740 X9.929 Y80.071
N745 X9.908 Y80.038
N750 X9.9 Y80.
N755 G3 X12.5 I1.3 J0.
N760 X7.5 I-2.5 J0.
N765 X12.5 I2.5 J0.
N770 X11.2 Y81.3 Z-2.163 I-1.3 J0. F333.33
N775 G1 X8.8 Z-2.331
N780 G3 Y78.7 Z-2.617 I0. J-1.3
N785 X10.1 Y80. Z-2.76 I0. J1.3
N790 G1 X10.092 Y80.038 F200.
N795 X10.071 Y80.071
N800 X10.038 Y80.092
N805 X10. Y80.1
N810 X9.962 Y80.092
N815 X9.929 Y80.071
N820 X9.908 Y80.038
N825 X9.9 Y80.
N830 G3 X12.5 I1.3 J0.
N835 X7.5 I-2.5 J0.
N840 X12.5 I2.5 J0.
N845 X11.2 Y81.3 Z-2.903 I-1.3 J0. F333.33
N850 G1 X8.8 Z-3.071
N855 G3 Y78.7 Z-3.357 I0. J-1.3
N860 X10.1 Y80. Z-3.5 I0. J1.3
N865 G1 X10.092 Y80.038 F200.
N870 X10.071 Y80.071
N875 X10.038 Y80.092
N880 X10. Y80.1
N885 X9.962 Y80.092
N890 X9.929 Y80.071
N895 X9.908 Y80.038
N900 X9.9 Y80.
N905 G3 X12.5 I1.3 J0.
N910 X7.5 I-2.5 J0.
N915 X12.5 I2.5 J0.
N920 G0 Z7.
N925 X10.211 Y161.719
N930 Z5.2
N935 G1 Z2.7 F333.33
N940 G3 X8.593 Y158.281 Z2.325 I-0.809 J-1.719
N945 X10.211 Y161.719 Z1.95 I0.809 J1.719
N950 X8.593 Y158.281 Z1.575 I-0.809 J-1.719
N955 X10.211 Y161.719 Z1.2 I0.809 J1.719
N960 X8.593 Y158.281 Z0.825 I-0.809 J-1.719
N965 X10.211 Y161.719 Z0.45 I0.809 J1.719
N970 X8.593 Y158.281 Z0.075 I-0.809 J-1.719
N975 X10.211 Y161.719 Z-0.3 I0.809 J1.719
N980 X7.502 Y160. Z-0.54 I-0.809 J-1.719
N985 X10.1 I1.299 J0.
N990 G1 X10.092 Y160.038 F200.
N995 X10.071 Y160.071
N1000 X10.038 Y160.092
N1005 X10. Y160.1
N1010 X9.962 Y160.092
N1015 X9.929 Y160.071
N1020 X9.908 Y160.038
N1025 X9.9 Y160.
N1030 G3 X12.5 I1.3 J0.
N1035 X7.5 I-2.5 J0.
N1040 X12.5 I2.5 J0.
N1045 X11.2 Y161.3 Z-0.683 I-1.3 J0. F333.33
N1050 G1 X8.8 Z-0.851
N1055 G3 Y158.7 Z-1.137 I0. J-1.3
N1060 X10.1 Y160. Z-1.28 I0. J1.3
N1065 G1 X10.092 Y160.038 F200.
N1070 X10.071 Y160.071
N1075 X10.038 Y160.092
N1080 X10. Y160.1
N1085 X9.962 Y160.092
N1090 X9.929 Y160.071
N1095 X9.908 Y160.038
N1100 X9.9 Y160.
N1105 G3 X12.5 I1.3 J0.
N1110 X7.5 I-2.5 J0.
N1115 X12.5 I2.5 J0.
N1120 X11.2 Y161.3 Z-1.423 I-1.3 J0. F333.33
N1125 G1 X8.8 Z-1.591
N1130 G3 Y158.7 Z-1.877 I0. J-1.3
N1135 X10.1 Y160. Z-2.02 I0. J1.3
N1140 G1 X10.092 Y160.038 F200.
N1145 X10.071 Y160.071
N1150 X10.038 Y160.092
N1155 X10. Y160.1
N1160 X9.962 Y160.092
N1165 X9.929 Y160.071
N1170 X9.908 Y160.038
N1175 X9.9 Y160.
N1180 G3 X12.5 I1.3 J0.
N1185 X7.5 I-2.5 J0.
N1190 X12.5 I2.5 J0.
N1195 X11.2 Y161.3 Z-2.163 I-1.3 J0. F333.33
N1200 G1 X8.8 Z-2.331
N1205 G3 Y158.7 Z-2.617 I0. J-1.3
N1210 X10.1 Y160. Z-2.76 I0. J1.3
N1215 G1 X10.092 Y160.038 F200.
N1220 X10.071 Y160.071
N1225 X10.038 Y160.092
N1230 X10. Y160.1
N1235 X9.962 Y160.092
N1240 X9.929 Y160.071
N1245 X9.908 Y160.038
N1250 X9.9 Y160.
N1255 G3 X12.5 I1.3 J0.
N1260 X7.5 I-2.5 J0.
N1265 X12.5 I2.5 J0.
N1270 X11.2 Y161.3 Z-2.903 I-1.3 J0. F333.33
N1275 G1 X8.8 Z-3.071
N1280 G3 Y158.7 Z-3.357 I0. J-1.3
N1285 X10.1 Y160. Z-3.5 I0. J1.3
N1290 G1 X10.092 Y160.038 F200.
N1295 X10.071 Y160.071
N1300 X10.038 Y160.092
N1305 X10. Y160.1
N1310 X9.962 Y160.092
N1315 X9.929 Y160.071
N1320 X9.908 Y160.038
N1325 X9.9 Y160.
N1330 G3 X12.5 I1.3 J0.
N1335 X7.5 I-2.5 J0.
N1340 X12.5 I2.5 J0.
N1345 G0 Z7.
N1350 X110.211 Y161.719
N1355 Z5.2
N1360 G1 Z2.7 F333.33
N1365 G3 X108.593 Y158.281 Z2.325 I-0.809 J-1.719
N1370 X110.211 Y161.719 Z1.95 I0.809 J1.719
N1375 X108.593 Y158.281 Z1.575 I-0.809 J-1.719
N1380 X110.211 Y161.719 Z1.2 I0.809 J1.719
N1385 X108.593 Y158.281 Z0.825 I-0.809 J-1.719
N1390 X110.211 Y161.719 Z0.45 I0.809 J1.719
N1395 X108.593 Y158.281 Z0.075 I-0.809 J-1.719
N1400 X110.211 Y161.719 Z-0.3 I0.809 J1.719
N1405 X107.502 Y160. Z-0.54 I-0.809 J-1.719
N1410 X110.1 I1.299 J0.
N1415 G1 X110.092 Y160.038 F200.
N1420 X110.071 Y160.071
N1425 X110.038 Y160.092
N1430 X110. Y160.1
N1435 X109.962 Y160.092
N1440 X109.929 Y160.071
N1445 X109.908 Y160.038
N1450 X109.9 Y160.
N1455 G3 X112.5 I1.3 J0.
N1460 X107.5 I-2.5 J0.
N1465 X112.5 I2.5 J0.
N1470 X111.2 Y161.3 Z-0.683 I-1.3 J0. F333.33
N1475 G1 X108.8 Z-0.851
N1480 G3 Y158.7 Z-1.137 I0. J-1.3
N1485 X110.1 Y160. Z-1.28 I0. J1.3
N1490 G1 X110.092 Y160.038 F200.
N1495 X110.071 Y160.071
N1500 X110.038 Y160.092
N1505 X110. Y160.1
N1510 X109.962 Y160.092
N1515 X109.929 Y160.071
N1520 X109.908 Y160.038
N1525 X109.9 Y160.
N1530 G3 X112.5 I1.3 J0.
N1535 X107.5 I-2.5 J0.
N1540 X112.5 I2.5 J0.
N1545 X111.2 Y161.3 Z-1.423 I-1.3 J0. F333.33
N1550 G1 X108.8 Z-1.591
N1555 G3 Y158.7 Z-1.877 I0. J-1.3
N1560 X110.1 Y160. Z-2.02 I0. J1.3
N1565 G1 X110.092 Y160.038 F200.
N1570 X110.071 Y160.071
N1575 X110.038 Y160.092
N1580 X110. Y160.1
N1585 X109.962 Y160.092
N1590 X109.929 Y160.071
N1595 X109.908 Y160.038
N1600 X109.9 Y160.
N1605 G3 X112.5 I1.3 J0.
N1610 X107.5 I-2.5 J0.
N1615 X112.5 I2.5 J0.
N1620 X111.2 Y161.3 Z-2.163 I-1.3 J0. F333.33
N1625 G1 X108.8 Z-2.331
N1630 G3 Y158.7 Z-2.617 I0. J-1.3
N1635 X110.1 Y160. Z-2.76 I0. J1.3
N1640 G1 X110.092 Y160.038 F200.
N1645 X110.071 Y160.071
N1650 X110.038 Y160.092
N1655 X110. Y160.1
N1660 X109.962 Y160.092
N1665 X109.929 Y160.071
N1670 X109.908 Y160.038
N1675 X109.9 Y160.
N1680 G3 X112.5 I1.3 J0.
N1685 X107.5 I-2.5 J0.
N1690 X112.5 I2.5 J0.
N1695 X111.2 Y161.3 Z-2.903 I-1.3 J0. F333.33
N1700 G1 X108.8 Z-3.071
N1705 G3 Y158.7 Z-3.357 I0. J-1.3
N1710 X110.1 Y160. Z-3.5 I0. J1.3
N1715 G1 X110.092 Y160.038 F200.
N1720 X110.071 Y160.071
N1725 X110.038 Y160.092
N1730 X110. Y160.1
N1735 X109.962 Y160.092
N1740 X109.929 Y160.071
N1745 X109.908 Y160.038
N1750 X109.9 Y160.
N1755 G3 X112.5 I1.3 J0.
N1760 X107.5 I-2.5 J0.
N1765 X112.5 I2.5 J0.
N1770 G0 Z7.
N1775 X110.211 Y81.719
N1780 Z5.2
N1785 G1 Z2.7 F333.33
N1790 G3 X108.593 Y78.281 Z2.325 I-0.809 J-1.719
N1795 X110.211 Y81.719 Z1.95 I0.809 J1.719
N1800 X108.593 Y78.281 Z1.575 I-0.809 J-1.719
N1805 X110.211 Y81.719 Z1.2 I0.809 J1.719
N1810 X108.593 Y78.281 Z0.825 I-0.809 J-1.719
N1815 X110.211 Y81.719 Z0.45 I0.809 J1.719
N1820 X108.593 Y78.281 Z0.075 I-0.809 J-1.719
N1825 X110.211 Y81.719 Z-0.3 I0.809 J1.719
N1830 X107.502 Y80. Z-0.54 I-0.809 J-1.719
N1835 X110.1 I1.299 J0.
N1840 G1 X110.092 Y80.038 F200.
N1845 X110.071 Y80.071
N1850 X110.038 Y80.092
N1855 X110. Y80.1
N1860 X109.962 Y80.092
N1865 X109.929 Y80.071
N1870 X109.908 Y80.038
N1875 X109.9 Y80.
N1880 G3 X112.5 I1.3 J0.
N1885 X107.5 I-2.5 J0.
N1890 X112.5 I2.5 J0.
N1895 X111.2 Y81.3 Z-0.683 I-1.3 J0. F333.33
N1900 G1 X108.8 Z-0.851
N1905 G3 Y78.7 Z-1.137 I0. J-1.3
N1910 X110.1 Y80. Z-1.28 I0. J1.3
N1915 G1 X110.092 Y80.038 F200.
N1920 X110.071 Y80.071
N1925 X110.038 Y80.092
N1930 X110. Y80.1
N1935 X109.962 Y80.092
N1940 X109.929 Y80.071
N1945 X109.908 Y80.038
N1950 X109.9 Y80.
N1955 G3 X112.5 I1.3 J0.
N1960 X107.5 I-2.5 J0.
N1965 X112.5 I2.5 J0.
N1970 X111.2 Y81.3 Z-1.423 I-1.3 J0. F333.33
N1975 G1 X108.8 Z-1.591
N1980 G3 Y78.7 Z-1.877 I0. J-1.3
N1985 X110.1 Y80. Z-2.02 I0. J1.3
N1990 G1 X110.092 Y80.038 F200.
N1995 X110.071 Y80.071
N2000 X110.038 Y80.092
N2005 X110. Y80.1
N2010 X109.962 Y80.092
N2015 X109.929 Y80.071
N2020 X109.908 Y80.038
N2025 X109.9 Y80.
N2030 G3 X112.5 I1.3 J0.
N2035 X107.5 I-2.5 J0.
N2040 X112.5 I2.5 J0.
N2045 X111.2 Y81.3 Z-2.163 I-1.3 J0. F333.33
N2050 G1 X108.8 Z-2.331
N2055 G3 Y78.7 Z-2.617 I0. J-1.3
N2060 X110.1 Y80. Z-2.76 I0. J1.3
N2065 G1 X110.092 Y80.038 F200.
N2070 X110.071 Y80.071
N2075 X110.038 Y80.092
N2080 X110. Y80.1
N2085 X109.962 Y80.092
N2090 X109.929 Y80.071
N2095 X109.908 Y80.038
N2100 X109.9 Y80.
N2105 G3 X112.5 I1.3 J0.
N2110 X107.5 I-2.5 J0.
N2115 X112.5 I2.5 J0.
N2120 X111.2 Y81.3 Z-2.903 I-1.3 J0. F333.33
N2125 G1 X108.8 Z-3.071
N2130 G3 Y78.7 Z-3.357 I0. J-1.3
N2135 X110.1 Y80. Z-3.5 I0. J1.3
N2140 G1 X110.092 Y80.038 F200.
N2145 X110.071 Y80.071
N2150 X110.038 Y80.092
N2155 X110. Y80.1
N2160 X109.962 Y80.092
N2165 X109.929 Y80.071
N2170 X109.908 Y80.038
N2175 X109.9 Y80.
N2180 G3 X112.5 I1.3 J0.
N2185 X107.5 I-2.5 J0.
N2190 X112.5 I2.5 J0.
N2195 G0 Z7.
N2200 X60.211 Y11.719
N2205 Z5.2
N2210 G1 Z2.7 F333.33
N2215 G3 X58.593 Y8.281 Z2.325 I-0.809 J-1.719
N2220 X60.211 Y11.719 Z1.95 I0.809 J1.719
N2225 X58.593 Y8.281 Z1.575 I-0.809 J-1.719
N2230 X60.211 Y11.719 Z1.2 I0.809 J1.719
N2235 X58.593 Y8.281 Z0.825 I-0.809 J-1.719
N2240 X60.211 Y11.719 Z0.45 I0.809 J1.719
N2245 X58.593 Y8.281 Z0.075 I-0.809 J-1.719
N2250 X60.211 Y11.719 Z-0.3 I0.809 J1.719
N2255 X57.502 Y10. Z-0.54 I-0.809 J-1.719
N2260 X60.1 I1.299 J0.
N2265 G1 X60.092 Y10.038 F200.
N2270 X60.071 Y10.071
N2275 X60.038 Y10.092
N2280 X60. Y10.1
N2285 X59.962 Y10.092
N2290 X59.929 Y10.071
N2295 X59.908 Y10.038
N2300 X59.9 Y10.
N2305 G3 X62.5 I1.3 J0.
N2310 X57.5 I-2.5 J0.
N2315 X62.5 I2.5 J0.
N2320 X61.2 Y11.3 Z-0.683 I-1.3 J0. F333.33
N2325 G1 X58.8 Z-0.851
N2330 G3 Y8.7 Z-1.137 I0. J-1.3
N2335 X60.1 Y10. Z-1.28 I0. J1.3
N2340 G1 X60.092 Y10.038 F200.
N2345 X60.071 Y10.071
N2350 X60.038 Y10.092
N2355 X60. Y10.1
N2360 X59.962 Y10.092
N2365 X59.929 Y10.071
N2370 X59.908 Y10.038
N2375 X59.9 Y10.
N2380 G3 X62.5 I1.3 J0.
N2385 X57.5 I-2.5 J0.
N2390 X62.5 I2.5 J0.
N2395 X61.2 Y11.3 Z-1.423 I-1.3 J0. F333.33
N2400 G1 X58.8 Z-1.591
N2405 G3 Y8.7 Z-1.877 I0. J-1.3
N2410 X60.1 Y10. Z-2.02 I0. J1.3
N2415 G1 X60.092 Y10.038 F200.
N2420 X60.071 Y10.071
N2425 X60.038 Y10.092
N2430 X60. Y10.1
N2435 X59.962 Y10.092
N2440 X59.929 Y10.071
N2445 X59.908 Y10.038
N2450 X59.9 Y10.
N2455 G3 X62.5 I1.3 J0.
N2460 X57.5 I-2.5 J0.
N2465 X62.5 I2.5 J0.
N2470 X61.2 Y11.3 Z-2.163 I-1.3 J0. F333.33
N2475 G1 X58.8 Z-2.331
N2480 G3 Y8.7 Z-2.617 I0. J-1.3
N2485 X60.1 Y10. Z-2.76 I0. J1.3
N2490 G1 X60.092 Y10.038 F200.
N2495 X60.071 Y10.071
N2500 X60.038 Y10.092
N2505 X60. Y10.1
N2510 X59.962 Y10.092
N2515 X59.929 Y10.071
N2520 X59.908 Y10.038
N2525 X59.9 Y10.
N2530 G3 X62.5 I1.3 J0.
N2535 X57.5 I-2.5 J0.
N2540 X62.5 I2.5 J0.
N2545 X61.2 Y11.3 Z-2.903 I-1.3 J0. F333.33
N2550 G1 X58.8 Z-3.071
N2555 G3 Y8.7 Z-3.357 I0. J-1.3
N2560 X60.1 Y10. Z-3.5 I0. J1.3
N2565 G1 X60.092 Y10.038 F200.
N2570 X60.071 Y10.071
N2575 X60.038 Y10.092
N2580 X60. Y10.1
N2585 X59.962 Y10.092
N2590 X59.929 Y10.071
N2595 X59.908 Y10.038
N2600 X59.9 Y10.
N2605 G3 X62.5 I1.3 J0.
N2610 X57.5 I-2.5 J0.
N2615 X62.5 I2.5 J0.
N2620 G0 Z17.
(BOHRFRSEN1)
N2625 G0 X10.375 Y159.775
N2630 Z15.
N2635 Z-1.8
N2640 G1 Z-3.4 F200.
N2645 G19 G3 Y160.175 Z-3.8 J0.4 K0.
N2650 G1 Y160.375
N2655 G17 G3 X10. Y160.75 I-0.375 J0.
N2660 Y159.25 Z-4.285 I0. J-0.75
N2665 Y160.75 Z-4.77 I0. J0.75
N2670 Y159.25 Z-5.255 I0. J-0.75
N2675 X10.75 Y160.025 Z-5.502 I0. J0.75
N2680 X9.949 Y160.748 Z-5.75 I-0.75 J-0.025
N2685 X10.051 Y159.252 I0.051 J-0.748
N2690 X9.949 Y160.748 I-0.051 J0.748
N2695 X9.601 Y160.349 I0.025 J-0.374
N2700 G1 X9.614 Y160.149
N2705 X9.619 Y160.071 Z-5.742
N2710 X9.624 Y159.997 Z-5.72
N2715 X9.629 Y159.928 Z-5.683
N2720 X9.633 Y159.867 Z-5.633
N2725 X9.636 Y159.818 Z-5.572
N2730 X9.639 Y159.781 Z-5.503
N2735 X9.64 Y159.758 Z-5.428
N2740 X9.641 Y159.75 Z-5.35
N2745 G0 Z5.
N2750 X10.375 Y79.775
N2755 Z-1.8
N2760 G1 Z-3.4 F200.
N2765 G19 G3 Y80.175 Z-3.8 J0.4 K0.
N2770 G1 Y80.375
N2775 G17 G3 X10. Y80.75 I-0.375 J0.
N2780 Y79.25 Z-4.285 I0. J-0.75
N2785 Y80.75 Z-4.77 I0. J0.75
N2790 Y79.25 Z-5.255 I0. J-0.75
N2795 X10.75 Y80.025 Z-5.502 I0. J0.75
N2800 X9.949 Y80.748 Z-5.75 I-0.75 J-0.025
N2805 X10.051 Y79.252 I0.051 J-0.748
N2810 X9.949 Y80.748 I-0.051 J0.748
N2815 X9.601 Y80.349 I0.025 J-0.374
N2820 G1 X9.614 Y80.149
N2825 X9.619 Y80.071 Z-5.742
N2830 X9.624 Y79.997 Z-5.72
N2835 X9.629 Y79.928 Z-5.683
N2840 X9.633 Y79.867 Z-5.633
N2845 X9.636 Y79.818 Z-5.572
N2850 X9.639 Y79.781 Z-5.503
N2855 X9.64 Y79.758 Z-5.428
N2860 X9.641 Y79.75 Z-5.35
N2865 G0 Z5.
N2870 X10.4 Y10.75
N2875 Z2.2
N2880 G1 Z0.6 F200.
N2885 G19 G3 Y11.15 Z0.2 J0.4 K0.
N2890 G1 Y11.35
N2895 G17 G3 X10. Y11.75 I-0.4 J0.
N2900 Y8.25 Z-0.461 I0. J-1.75
N2905 Y11.75 Z-1.122 I0. J1.75
N2910 Y8.25 Z-1.784 I0. J-1.75
N2915 Y11.75 Z-2.445 I0. J1.75
N2920 Y8.25 Z-3.106 I0. J-1.75
N2925 Y11.75 Z-3.767 I0. J1.75
N2930 Y8.25 Z-4.429 I0. J-1.75
N2935 Y11.75 Z-5.09 I0. J1.75
N2940 X9.991 Y8.25 Z-5.75 I0. J-1.75
N2945 X10.009 Y11.75 I0.009 J1.75
N2950 X9.991 Y8.25 I-0.009 J-1.75
N2955 X10.393 Y8.648 I0.002 J0.4
N2960 G1 X10.394 Y8.848
N2965 X10.395 Y8.926 Z-5.742
N2970 Y9.001 Z-5.72
N2975 Y9.07 Z-5.683
N2980 X10.396 Y9.131 Z-5.633
N2985 Y9.181 Z-5.572
N2990 Y9.218 Z-5.503
N2995 Y9.24 Z-5.428
N3000 Y9.248 Z-5.35
N3005 G0 Z5.
N3010 X60.375 Y9.775
N3015 Z-1.8
N3020 G1 Z-3.4 F200.
N3025 G19 G3 Y10.175 Z-3.8 J0.4 K0.
N3030 G1 Y10.375
N3035 G17 G3 X60. Y10.75 I-0.375 J0.
N3040 Y9.25 Z-4.285 I0. J-0.75
N3045 Y10.75 Z-4.77 I0. J0.75
N3050 Y9.25 Z-5.255 I0. J-0.75
N3055 X60.75 Y10.025 Z-5.502 I0. J0.75
N3060 X59.949 Y10.748 Z-5.75 I-0.75 J-0.025
N3065 X60.051 Y9.252 I0.051 J-0.748
N3070 X59.949 Y10.748 I-0.051 J0.748
N3075 X59.601 Y10.349 I0.025 J-0.374
N3080 G1 X59.614 Y10.149
N3085 X59.619 Y10.071 Z-5.742
N3090 X59.624 Y9.997 Z-5.72
N3095 X59.629 Y9.928 Z-5.683
N3100 X59.633 Y9.867 Z-5.633
N3105 X59.636 Y9.818 Z-5.572
N3110 X59.639 Y9.781 Z-5.503
N3115 X59.64 Y9.758 Z-5.428
N3120 X59.641 Y9.75 Z-5.35
N3125 G0 Z5.
N3130 X110.4 Y10.75
N3135 Z2.2
N3140 G1 Z0.6 F200.
N3145 G19 G3 Y11.15 Z0.2 J0.4 K0.
N3150 G1 Y11.35
N3155 G17 G3 X110. Y11.75 I-0.4 J0.
N3160 Y8.25 Z-0.461 I0. J-1.75
N3165 Y11.75 Z-1.122 I0. J1.75
N3170 Y8.25 Z-1.784 I0. J-1.75
N3175 Y11.75 Z-2.445 I0. J1.75
N3180 Y8.25 Z-3.106 I0. J-1.75
N3185 Y11.75 Z-3.767 I0. J1.75
N3190 Y8.25 Z-4.429 I0. J-1.75
N3195 Y11.75 Z-5.09 I0. J1.75
N3200 X109.991 Y8.25 Z-5.75 I0. J-1.75
N3205 X110.009 Y11.75 I0.009 J1.75
N3210 X109.991 Y8.25 I-0.009 J-1.75
N3215 X110.393 Y8.648 I0.002 J0.4
N3220 G1 X110.394 Y8.848
N3225 X110.395 Y8.926 Z-5.742
N3230 Y9.001 Z-5.72
N3235 Y9.07 Z-5.683
N3240 X110.396 Y9.131 Z-5.633
N3245 Y9.181 Z-5.572
N3250 Y9.218 Z-5.503
N3255 Y9.24 Z-5.428
N3260 Y9.248 Z-5.35
N3265 G0 Z5.
N3270 X110.375 Y79.775
N3275 Z-1.8
N3280 G1 Z-3.4 F200.
N3285 G19 G3 Y80.175 Z-3.8 J0.4 K0.
N3290 G1 Y80.375
N3295 G17 G3 X110. Y80.75 I-0.375 J0.
N3300 Y79.25 Z-4.285 I0. J-0.75
N3305 Y80.75 Z-4.77 I0. J0.75
N3310 Y79.25 Z-5.255 I0. J-0.75
N3315 X110.75 Y80.025 Z-5.502 I0. J0.75
N3320 X109.949 Y80.748 Z-5.75 I-0.75 J-0.025
N3325 X110.051 Y79.252 I0.051 J-0.748
N3330 X109.949 Y80.748 I-0.051 J0.748
N3335 X109.601 Y80.349 I0.025 J-0.374
N3340 G1 X109.614 Y80.149
N3345 X109.619 Y80.071 Z-5.742
N3350 X109.624 Y79.997 Z-5.72
N3355 X109.629 Y79.928 Z-5.683
N3360 X109.633 Y79.867 Z-5.633
N3365 X109.636 Y79.818 Z-5.572
N3370 X109.639 Y79.781 Z-5.503
N3375 X109.64 Y79.758 Z-5.428
N3380 X109.641 Y79.75 Z-5.35
N3385 G0 Z5.
N3390 X110.375 Y159.775
N3395 Z-1.8
N3400 G1 Z-3.4 F200.
N3405 G19 G3 Y160.175 Z-3.8 J0.4 K0.
N3410 G1 Y160.375
N3415 G17 G3 X110. Y160.75 I-0.375 J0.
N3420 Y159.25 Z-4.285 I0. J-0.75
N3425 Y160.75 Z-4.77 I0. J0.75
N3430 Y159.25 Z-5.255 I0. J-0.75
N3435 X110.75 Y160.025 Z-5.502 I0. J0.75
N3440 X109.949 Y160.748 Z-5.75 I-0.75 J-0.025
N3445 X110.051 Y159.252 I0.051 J-0.748
N3450 X109.949 Y160.748 I-0.051 J0.748
N3455 X109.601 Y160.349 I0.025 J-0.374
N3460 G1 X109.614 Y160.149
N3465 X109.619 Y160.071 Z-5.742
N3470 X109.624 Y159.997 Z-5.72
N3475 X109.629 Y159.928 Z-5.683
N3480 X109.633 Y159.867 Z-5.633
N3485 X109.636 Y159.818 Z-5.572
N3490 X109.639 Y159.781 Z-5.503
N3495 X109.64 Y159.758 Z-5.428
N3500 X109.641 Y159.75 Z-5.35
N3505 G0 Z15.
N3510 G53 Z0.
N3515 M30
%
