%
(GETRIEBE_PLATTE_0_3MM)
(T1  D=3. CR=0. - ZMIN=-6.5 - SCHAFTFRSER)
N10 G90 G94 G17 G91.1
N15 G21
N20 G53 G0 Z0.
(2D-TASCHE1)
N25 T1 M6
N30 S5000 M3
N35 G54
N40 G64
N45 G43 Z17. H1
N50 G0 X84.486 Y119.7
N55 G0 Z5.25
N60 G1 Z2.75 F333.33
N65 X85.5 Z2.608
N70 X85.538 Y119.708 Z2.602
N75 X85.571 Y119.729 Z2.596
N80 X85.592 Y119.762 Z2.591
N85 X85.6 Y119.8 Z2.585
N90 X85.592 Y119.838 Z2.58
N95 X85.571 Y119.871 Z2.574
N100 X85.538 Y119.892 Z2.569
N105 X85.5 Y119.9 Z2.563
N110 X83.5 Z2.282
N115 X83.462 Y119.892 Z2.277
N120 X83.429 Y119.871 Z2.271
N125 X83.408 Y119.838 Z2.266
N130 X83.4 Y119.8 Z2.26
N135 X83.408 Y119.762 Z2.255
N140 X83.429 Y119.729 Z2.249
N145 X83.462 Y119.708 Z2.244
N150 X83.5 Y119.7 Z2.238
N155 X85.5 Z1.957
N160 X85.538 Y119.708 Z1.952
N165 X85.571 Y119.729 Z1.946
N170 X85.592 Y119.762 Z1.94
N175 X85.6 Y119.8 Z1.935
N180 X85.592 Y119.838 Z1.929
N185 X85.571 Y119.871 Z1.924
N190 X85.538 Y119.892 Z1.918
N195 X85.5 Y119.9 Z1.913
N200 X83.5 Z1.632
N205 X83.462 Y119.892 Z1.626
N210 X83.429 Y119.871 Z1.621
N215 X83.408 Y119.838 Z1.615
N220 X83.4 Y119.8 Z1.61
N225 X83.408 Y119.762 Z1.604
N230 X83.429 Y119.729 Z1.599
N235 X83.462 Y119.708 Z1.593
N240 X83.5 Y119.7 Z1.588
N245 X85.5 Z1.307
N250 X85.538 Y119.708 Z1.301
N255 X85.571 Y119.729 Z1.296
N260 X85.592 Y119.762 Z1.29
N265 X85.6 Y119.8 Z1.284
N270 X85.592 Y119.838 Z1.279
N275 X85.571 Y119.871 Z1.273
N280 X85.538 Y119.892 Z1.268
N285 X85.5 Y119.9 Z1.262
N290 X83.5 Z0.981
N295 X83.462 Y119.892 Z0.976
N300 X83.429 Y119.871 Z0.97
N305 X83.408 Y119.838 Z0.965
N310 X83.4 Y119.8 Z0.959
N315 X83.408 Y119.762 Z0.954
N320 X83.429 Y119.729 Z0.948
N325 X83.462 Y119.708 Z0.943
N330 X83.5 Y119.7 Z0.937
N335 X85.5 Z0.656
N340 X85.538 Y119.708 Z0.651
N345 X85.571 Y119.729 Z0.645
N350 X85.592 Y119.762 Z0.64
N355 X85.6 Y119.8 Z0.634
N360 X85.592 Y119.838 Z0.629
N365 X85.571 Y119.871 Z0.623
N370 X85.538 Y119.892 Z0.617
N375 X85.5 Y119.9 Z0.612
N380 X83.5 Z0.331
N385 X83.462 Y119.892 Z0.325
N390 X83.429 Y119.871 Z0.32
N395 X83.408 Y119.838 Z0.314
N400 X83.4 Y119.8 Z0.309
N405 X83.408 Y119.762 Z0.303
N410 X83.429 Y119.729 Z0.298
N415 X83.462 Y119.708 Z0.292
N420 X83.5 Y119.7 Z0.287
N425 X85.5 Z0.006
N430 X85.538 Y119.708 Z0.
N435 X85.571 Y119.729 Z-0.005
N440 X85.592 Y119.762 Z-0.011
N445 X85.6 Y119.8 Z-0.016
N450 X85.592 Y119.838 Z-0.022
N455 X85.571 Y119.871 Z-0.027
N460 X85.538 Y119.892 Z-0.033
N465 X85.5 Y119.9 Z-0.039
N470 X83.5 Z-0.32
N475 X83.462 Y119.892 Z-0.325
N480 X83.429 Y119.871 Z-0.331
N485 X83.408 Y119.838 Z-0.336
N490 X83.4 Y119.8 Z-0.342
N495 X83.408 Y119.762 Z-0.347
N500 X83.429 Y119.729 Z-0.353
N505 X83.462 Y119.708 Z-0.358
N510 X83.5 Y119.7 Z-0.364
N515 X85.5 Z-0.645
N520 X85.538 Y119.708 Z-0.65
N525 X85.571 Y119.729 Z-0.656
N530 X85.592 Y119.762 Z-0.661
N535 X85.6 Y119.8 Z-0.667
N540 X85.592 Y119.838 Z-0.672
N545 X85.571 Y119.871 Z-0.678
N550 X85.538 Y119.892 Z-0.683
N555 X85.5 Y119.9 Z-0.689
N560 X85.32 Z-0.714
N565 X83.5 F200.
N570 X83.462 Y119.892
N575 X83.429 Y119.871
N580 X83.408 Y119.838
N585 X83.4 Y119.8
N590 X83.408 Y119.762
N595 X83.429 Y119.729
N600 X83.462 Y119.708
N605 X83.5 Y119.7
N610 X85.5
N615 X85.538 Y119.708
N620 X85.571 Y119.729
N625 X85.592 Y119.762
N630 X85.6 Y119.8
N635 X85.592 Y119.838
N640 X85.571 Y119.871
N645 X85.538 Y119.892
N650 X85.5 Y119.9
N655 X85.32
N660 X83.5 Z-0.97 F333.33
N665 X83.462 Y119.892 Z-0.976
N670 X83.429 Y119.871 Z-0.981
N675 X83.408 Y119.838 Z-0.987
N680 X83.4 Y119.8 Z-0.992
N685 X83.408 Y119.762 Z-0.998
N690 X83.429 Y119.729 Z-1.003
N695 X83.462 Y119.708 Z-1.009
N700 X83.5 Y119.7 Z-1.014
N705 X85.5 Z-1.295
N710 X85.538 Y119.708 Z-1.301
N715 X85.571 Y119.729 Z-1.306
N720 X85.592 Y119.762 Z-1.312
N725 X85.6 Y119.8 Z-1.317
N730 X85.592 Y119.838 Z-1.323
N735 X85.571 Y119.871 Z-1.328
N740 X85.538 Y119.892 Z-1.334
N745 X85.5 Y119.9 Z-1.339
N750 X83.5 Z-1.621
N755 X83.462 Y119.892 Z-1.626
N760 X83.429 Y119.871 Z-1.632
N765 X83.408 Y119.838 Z-1.637
N770 X83.4 Y119.8 Z-1.643
N775 X83.408 Y119.762 Z-1.648
N780 X83.429 Y119.729 Z-1.654
N785 X83.462 Y119.708 Z-1.659
N790 X83.5 Y119.7 Z-1.665
N795 X83.599 Z-1.679
N800 X85.5 F200.
N805 X85.538 Y119.708
N810 X85.571 Y119.729
N815 X85.592 Y119.762
N820 X85.6 Y119.8
N825 X85.592 Y119.838
N830 X85.571 Y119.871
N835 X85.538 Y119.892
N840 X85.5 Y119.9
N845 X83.5
N850 X83.462 Y119.892
N855 X83.429 Y119.871
N860 X83.408 Y119.838
N865 X83.4 Y119.8
N870 X83.408 Y119.762
N875 X83.429 Y119.729
N880 X83.462 Y119.708
N885 X83.5 Y119.7
N890 X83.599
N895 X85.5 Z-1.946 F333.33
N900 X85.538 Y119.708 Z-1.951
N905 X85.571 Y119.729 Z-1.957
N910 X85.592 Y119.762 Z-1.962
N915 X85.6 Y119.8 Z-1.968
N920 X85.592 Y119.838 Z-1.973
N925 X85.571 Y119.871 Z-1.979
N930 X85.538 Y119.892 Z-1.984
N935 X85.5 Y119.9 Z-1.99
N940 X83.5 Z-2.271
N945 X83.462 Y119.892 Z-2.277
N950 X83.429 Y119.871 Z-2.282
N955 X83.408 Y119.838 Z-2.288
N960 X83.4 Y119.8 Z-2.293
N965 X83.408 Y119.762 Z-2.299
N970 X83.429 Y119.729 Z-2.304
N975 X83.462 Y119.708 Z-2.31
N980 X83.5 Y119.7 Z-2.315
N985 X85.5 Z-2.596
N990 X85.538 Y119.708 Z-2.602
N995 X85.571 Y119.729 Z-2.607
N1000 X85.592 Y119.762 Z-2.613
N1005 X85.6 Y119.8 Z-2.618
N1010 X85.592 Y119.838 Z-2.624
N1015 X85.571 Y119.871 Z-2.629
N1020 X85.538 Y119.892 Z-2.635
N1025 X85.5 Y119.9 Z-2.64
N1030 X85.482 Z-2.643
N1035 X83.5 F200.
N1040 X83.462 Y119.892
N1045 X83.429 Y119.871
N1050 X83.408 Y119.838
N1055 X83.4 Y119.8
N1060 X83.408 Y119.762
N1065 X83.429 Y119.729
N1070 X83.462 Y119.708
N1075 X83.5 Y119.7
N1080 X85.5
N1085 X85.538 Y119.708
N1090 X85.571 Y119.729
N1095 X85.592 Y119.762
N1100 X85.6 Y119.8
N1105 X85.592 Y119.838
N1110 X85.571 Y119.871
N1115 X85.538 Y119.892
N1120 X85.5 Y119.9
N1125 X85.482
N1130 X83.5 Z-2.921 F333.33
N1135 X83.462 Y119.892 Z-2.927
N1140 X83.429 Y119.871 Z-2.933
N1145 X83.408 Y119.838 Z-2.938
N1150 X83.4 Y119.8 Z-2.944
N1155 X83.408 Y119.762 Z-2.949
N1160 X83.429 Y119.729 Z-2.955
N1165 X83.462 Y119.708 Z-2.96
N1170 X83.5 Y119.7 Z-2.966
N1175 X85.5 Z-3.247
N1180 X85.538 Y119.708 Z-3.252
N1185 X85.571 Y119.729 Z-3.258
N1190 X85.592 Y119.762 Z-3.263
N1195 X85.6 Y119.8 Z-3.269
N1200 X85.592 Y119.838 Z-3.274
N1205 X85.571 Y119.871 Z-3.28
N1210 X85.538 Y119.892 Z-3.285
N1215 X85.5 Y119.9 Z-3.291
N1220 X83.5 Z-3.572
N1225 X83.465 Y119.894 Z-3.577
N1230 X83.434 Y119.875 Z-3.582
N1235 X83.412 Y119.848 Z-3.587
N1240 X83.401 Y119.814 Z-3.592
N1245 X83.402 Y119.778 Z-3.597
N1250 X83.416 Y119.746 Z-3.602
N1255 X83.441 Y119.72 Z-3.607
N1260 X83.469 Y119.705 F200.
N1265 X83.5 Y119.7
N1270 X85.5
N1275 X85.538 Y119.708
N1280 X85.571 Y119.729
N1285 X85.592 Y119.762
N1290 X85.6 Y119.8
N1295 X85.592 Y119.838
N1300 X85.571 Y119.871
N1305 X85.538 Y119.892
N1310 X85.5 Y119.9
N1315 X83.5
N1320 X83.465 Y119.894
N1325 X83.434 Y119.875
N1330 X83.412 Y119.848
N1335 X83.401 Y119.814
N1340 X83.402 Y119.778
N1345 X83.416 Y119.746
N1350 X83.441 Y119.72
N1355 X83.469 Y119.705 Z-3.612 F333.33
N1360 X83.5 Y119.7 Z-3.616
N1365 X85.5 Z-3.897
N1370 X85.538 Y119.708 Z-3.903
N1375 X85.571 Y119.729 Z-3.908
N1380 X85.592 Y119.762 Z-3.914
N1385 X85.6 Y119.8 Z-3.919
N1390 X85.592 Y119.838 Z-3.925
N1395 X85.571 Y119.871 Z-3.93
N1400 X85.538 Y119.892 Z-3.936
N1405 X85.5 Y119.9 Z-3.941
N1410 X83.5 Z-4.222
N1415 X83.462 Y119.892 Z-4.228
N1420 X83.429 Y119.871 Z-4.233
N1425 X83.408 Y119.838 Z-4.239
N1430 X83.4 Y119.8 Z-4.244
N1435 X83.408 Y119.762 Z-4.25
N1440 X83.429 Y119.729 Z-4.256
N1445 X83.462 Y119.708 Z-4.261
N1450 X83.5 Y119.7 Z-4.267
N1455 X85.5 Z-4.548
N1460 X85.533 Y119.706 Z-4.552
N1465 X85.563 Y119.722 Z-4.557
N1470 X85.585 Y119.747 Z-4.562
N1475 X85.598 Y119.778 Z-4.567
N1480 X85.599 Y119.812 Z-4.571
N1485 X85.589 Y119.847 F200.
N1490 X85.566 Y119.875
N1495 X85.535 Y119.894
N1500 X85.5 Y119.9
N1505 X83.5
N1510 X83.462 Y119.892
N1515 X83.429 Y119.871
N1520 X83.408 Y119.838
N1525 X83.4 Y119.8
N1530 X83.408 Y119.762
N1535 X83.429 Y119.729
N1540 X83.462 Y119.708
N1545 X83.5 Y119.7
N1550 X85.5
N1555 X85.533 Y119.706
N1560 X85.563 Y119.722
N1565 X85.585 Y119.747
N1570 X85.598 Y119.778
N1575 X85.599 Y119.812
N1580 X85.589 Y119.847 Z-4.577 F333.33
N1585 X85.566 Y119.875 Z-4.582
N1590 X85.535 Y119.894 Z-4.587
N1595 X85.5 Y119.9 Z-4.592
N1600 X83.5 Z-4.873
N1605 X83.462 Y119.892 Z-4.878
N1610 X83.429 Y119.871 Z-4.884
N1615 X83.408 Y119.838 Z-4.889
N1620 X83.4 Y119.8 Z-4.895
N1625 X83.408 Y119.762 Z-4.9
N1630 X83.429 Y119.729 Z-4.906
N1635 X83.462 Y119.708 Z-4.912
N1640 X83.5 Y119.7 Z-4.917
N1645 X85.5 Z-5.198
N1650 X85.538 Y119.708 Z-5.204
N1655 X85.571 Y119.729 Z-5.209
N1660 X85.592 Y119.762 Z-5.215
N1665 X85.6 Y119.8 Z-5.22
N1670 X85.592 Y119.838 Z-5.226
N1675 X85.571 Y119.871 Z-5.231
N1680 X85.538 Y119.892 Z-5.237
N1685 X85.5 Y119.9 Z-5.242
N1690 X83.5 Z-5.523
N1695 X83.471 Y119.896 Z-5.527
N1700 X83.445 Y119.883 Z-5.532
N1705 X83.423 Y119.864 Z-5.536
N1710 X83.405 Y119.831 F200.
N1715 X83.4 Y119.794
N1720 X83.41 Y119.757
N1725 X83.432 Y119.727
N1730 X83.463 Y119.707
N1735 X83.5 Y119.7
N1740 X85.5
N1745 X85.538 Y119.708
N1750 X85.571 Y119.729
N1755 X85.592 Y119.762
N1760 X85.6 Y119.8
N1765 X85.592 Y119.838
N1770 X85.571 Y119.871
N1775 X85.538 Y119.892
N1780 X85.5 Y119.9
N1785 X83.5
N1790 X83.471 Y119.896
N1795 X83.445 Y119.883
N1800 X83.423 Y119.864
N1805 X83.405 Y119.831 Z-5.541 F333.33
N1810 X83.4 Y119.794 Z-5.546
N1815 X83.41 Y119.757 Z-5.552
N1820 X83.432 Y119.727 Z-5.557
N1825 X83.463 Y119.707 Z-5.562
N1830 X83.5 Y119.7 Z-5.567
N1835 X85.5 Z-5.849
N1840 X85.538 Y119.708 Z-5.854
N1845 X85.571 Y119.729 Z-5.86
N1850 X85.592 Y119.762 Z-5.865
N1855 X85.6 Y119.8 Z-5.871
N1860 X85.592 Y119.838 Z-5.876
N1865 X85.571 Y119.871 Z-5.882
N1870 X85.538 Y119.892 Z-5.887
N1875 X85.5 Y119.9 Z-5.893
N1880 X83.5 Z-6.174
N1885 X83.462 Y119.892 Z-6.179
N1890 X83.429 Y119.871 Z-6.185
N1895 X83.408 Y119.838 Z-6.19
N1900 X83.4 Y119.8 Z-6.196
N1905 X83.408 Y119.762 Z-6.201
N1910 X83.429 Y119.729 Z-6.207
N1915 X83.462 Y119.708 Z-6.212
N1920 X83.5 Y119.7 Z-6.218
N1925 X85.5 Z-6.499
N1930 X85.507 Z-6.5
N1935 X85.544 Y119.71 F200.
N1940 X85.574 Y119.733
N1945 X85.594 Y119.766
N1950 X85.6 Y119.803
N1955 X85.591 Y119.841
N1960 X85.569 Y119.872
N1965 X85.537 Y119.893
N1970 X85.5 Y119.9
N1975 X83.5
N1980 X83.462 Y119.892
N1985 X83.429 Y119.871
N1990 X83.408 Y119.838
N1995 X83.4 Y119.8
N2000 X83.408 Y119.762
N2005 X83.429 Y119.729
N2010 X83.462 Y119.708
N2015 X83.5 Y119.7
N2020 X85.5
N2025 X85.507
N2030 G0 Z7.
N2035 X30.828 Y119.9
N2040 Z5.25
N2045 G1 Z2.75 F333.33
N2050 X29.5 Z2.563
N2055 X29.462 Y119.892 Z2.558
N2060 X29.429 Y119.871 Z2.552
N2065 X29.408 Y119.838 Z2.547
N2070 X29.4 Y119.8 Z2.541
N2075 X29.408 Y119.762 Z2.536
N2080 X29.429 Y119.729 Z2.53
N2085 X29.462 Y119.708 Z2.525
N2090 X29.5 Y119.7 Z2.519
N2095 X31.5 Z2.238
N2100 X31.538 Y119.708 Z2.233
N2105 X31.571 Y119.729 Z2.227
N2110 X31.592 Y119.762 Z2.222
N2115 X31.6 Y119.8 Z2.216
N2120 X31.592 Y119.838 Z2.211
N2125 X31.571 Y119.871 Z2.205
N2130 X31.538 Y119.892 Z2.199
N2135 X31.5 Y119.9 Z2.194
N2140 X29.5 Z1.913
N2145 X29.462 Y119.892 Z1.907
N2150 X29.429 Y119.871 Z1.902
N2155 X29.408 Y119.838 Z1.896
N2160 X29.4 Y119.8 Z1.891
N2165 X29.408 Y119.762 Z1.885
N2170 X29.429 Y119.729 Z1.88
N2175 X29.462 Y119.708 Z1.874
N2180 X29.5 Y119.7 Z1.869
N2185 X31.5 Z1.588
N2190 X31.538 Y119.708 Z1.582
N2195 X31.571 Y119.729 Z1.577
N2200 X31.592 Y119.762 Z1.571
N2205 X31.6 Y119.8 Z1.566
N2210 X31.592 Y119.838 Z1.56
N2215 X31.571 Y119.871 Z1.555
N2220 X31.538 Y119.892 Z1.549
N2225 X31.5 Y119.9 Z1.543
N2230 X29.5 Z1.262
N2235 X29.462 Y119.892 Z1.257
N2240 X29.429 Y119.871 Z1.251
N2245 X29.408 Y119.838 Z1.246
N2250 X29.4 Y119.8 Z1.24
N2255 X29.408 Y119.762 Z1.235
N2260 X29.429 Y119.729 Z1.229
N2265 X29.462 Y119.708 Z1.224
N2270 X29.5 Y119.7 Z1.218
N2275 X31.5 Z0.937
N2280 X31.538 Y119.708 Z0.932
N2285 X31.571 Y119.729 Z0.926
N2290 X31.592 Y119.762 Z0.921
N2295 X31.6 Y119.8 Z0.915
N2300 X31.592 Y119.838 Z0.91
N2305 X31.571 Y119.871 Z0.904
N2310 X31.538 Y119.892 Z0.899
N2315 X31.5 Y119.9 Z0.893
N2320 X29.5 Z0.612
N2325 X29.462 Y119.892 Z0.606
N2330 X29.429 Y119.871 Z0.601
N2335 X29.408 Y119.838 Z0.595
N2340 X29.4 Y119.8 Z0.59
N2345 X29.408 Y119.762 Z0.584
N2350 X29.429 Y119.729 Z0.579
N2355 X29.462 Y119.708 Z0.573
N2360 X29.5 Y119.7 Z0.568
N2365 X31.5 Z0.287
N2370 X31.538 Y119.708 Z0.281
N2375 X31.571 Y119.729 Z0.276
N2380 X31.592 Y119.762 Z0.27
N2385 X31.6 Y119.8 Z0.265
N2390 X31.592 Y119.838 Z0.259
N2395 X31.571 Y119.871 Z0.254
N2400 X31.538 Y119.892 Z0.248
N2405 X31.5 Y119.9 Z0.243
N2410 X29.5 Z-0.039
N2415 X29.462 Y119.892 Z-0.044
N2420 X29.429 Y119.871 Z-0.05
N2425 X29.408 Y119.838 Z-0.055
N2430 X29.4 Y119.8 Z-0.061
N2435 X29.408 Y119.762 Z-0.066
N2440 X29.429 Y119.729 Z-0.072
N2445 X29.462 Y119.708 Z-0.077
N2450 X29.5 Y119.7 Z-0.083
N2455 X31.5 Z-0.364
N2460 X31.538 Y119.708 Z-0.369
N2465 X31.571 Y119.729 Z-0.375
N2470 X31.592 Y119.762 Z-0.38
N2475 X31.6 Y119.8 Z-0.386
N2480 X31.592 Y119.838 Z-0.391
N2485 X31.571 Y119.871 Z-0.397
N2490 X31.538 Y119.892 Z-0.402
N2495 X31.5 Y119.9 Z-0.408
N2500 X29.5 Z-0.689
N2505 X29.465 Y119.894 Z-0.694
N2510 X29.434 Y119.875 Z-0.699
N2515 X29.412 Y119.847 Z-0.704
N2520 X29.401 Y119.813 Z-0.709
N2525 X29.403 Y119.777 Z-0.714
N2530 X29.416 Y119.746 F200.
N2535 X29.438 Y119.722
N2540 X29.467 Y119.706
N2545 X29.5 Y119.7
N2550 X31.5
N2555 X31.538 Y119.708
N2560 X31.571 Y119.729
N2565 X31.592 Y119.762
N2570 X31.6 Y119.8
N2575 X31.592 Y119.838
N2580 X31.571 Y119.871
N2585 X31.538 Y119.892
N2590 X31.5 Y119.9
N2595 X29.5
N2600 X29.465 Y119.894
N2605 X29.434 Y119.875
N2610 X29.412 Y119.847
N2615 X29.401 Y119.813
N2620 X29.403 Y119.777
N2625 X29.416 Y119.746 Z-0.719 F333.33
N2630 X29.438 Y119.722 Z-0.724
N2635 X29.467 Y119.706 Z-0.728
N2640 X29.5 Y119.7 Z-0.733
N2645 X31.5 Z-1.014
N2650 X31.538 Y119.708 Z-1.02
N2655 X31.571 Y119.729 Z-1.025
N2660 X31.592 Y119.762 Z-1.031
N2665 X31.6 Y119.8 Z-1.036
N2670 X31.592 Y119.838 Z-1.042
N2675 X31.571 Y119.871 Z-1.047
N2680 X31.538 Y119.892 Z-1.053
N2685 X31.5 Y119.9 Z-1.058
N2690 X29.5 Z-1.339
N2695 X29.462 Y119.892 Z-1.345
N2700 X29.429 Y119.871 Z-1.35
N2705 X29.408 Y119.838 Z-1.356
N2710 X29.4 Y119.8 Z-1.362
N2715 X29.408 Y119.762 Z-1.367
N2720 X29.429 Y119.729 Z-1.373
N2725 X29.462 Y119.708 Z-1.378
N2730 X29.5 Y119.7 Z-1.384
N2735 X31.5 Z-1.665
N2740 X31.532 Y119.705 Z-1.669
N2745 X31.561 Y119.721 Z-1.674
N2750 X31.583 Y119.745 Z-1.679
N2755 X31.597 Y119.778 F200.
N2760 X31.599 Y119.813
N2765 X31.588 Y119.847
N2770 X31.566 Y119.875
N2775 X31.535 Y119.894
N2780 X31.5 Y119.9
N2785 X29.5
N2790 X29.462 Y119.892
N2795 X29.429 Y119.871
N2800 X29.408 Y119.838
N2805 X29.4 Y119.8
N2810 X29.408 Y119.762
N2815 X29.429 Y119.729
N2820 X29.462 Y119.708
N2825 X29.5 Y119.7
N2830 X31.5
N2835 X31.532 Y119.705
N2840 X31.561 Y119.721
N2845 X31.583 Y119.745
N2850 X31.597 Y119.778 Z-1.684 F333.33
N2855 X31.599 Y119.813 Z-1.689
N2860 X31.588 Y119.847 Z-1.694
N2865 X31.566 Y119.875 Z-1.699
N2870 X31.535 Y119.894 Z-1.704
N2875 X31.5 Y119.9 Z-1.709
N2880 X29.5 Z-1.99
N2885 X29.462 Y119.892 Z-1.995
N2890 X29.429 Y119.871 Z-2.001
N2895 X29.408 Y119.838 Z-2.006
N2900 X29.4 Y119.8 Z-2.012
N2905 X29.408 Y119.762 Z-2.018
N2910 X29.429 Y119.729 Z-2.023
N2915 X29.462 Y119.708 Z-2.029
N2920 X29.5 Y119.7 Z-2.034
N2925 X31.5 Z-2.315
N2930 X31.538 Y119.708 Z-2.321
N2935 X31.571 Y119.729 Z-2.326
N2940 X31.592 Y119.762 Z-2.332
N2945 X31.6 Y119.8 Z-2.337
N2950 X31.592 Y119.838 Z-2.343
N2955 X31.571 Y119.871 Z-2.348
N2960 X31.538 Y119.892 Z-2.354
N2965 X31.5 Y119.9 Z-2.359
N2970 X29.5 Z-2.64
N2975 X29.483 Y119.898 Z-2.643
N2980 X29.448 Y119.885 F200.
N2985 X29.421 Y119.861
N2990 X29.404 Y119.828
N2995 X29.4 Y119.791
N3000 X29.41 Y119.756
N3005 X29.432 Y119.726
N3010 X29.464 Y119.707
N3015 X29.5 Y119.7
N3020 X31.5
N3025 X31.538 Y119.708
N3030 X31.571 Y119.729
N3035 X31.592 Y119.762
N3040 X31.6 Y119.8
N3045 X31.592 Y119.838
N3050 X31.571 Y119.871
N3055 X31.538 Y119.892
N3060 X31.5 Y119.9
N3065 X29.5
N3070 X29.483 Y119.898
N3075 X29.448 Y119.885 Z-2.648 F333.33
N3080 X29.421 Y119.861 Z-2.653
N3085 X29.404 Y119.828 Z-2.658
N3090 X29.4 Y119.791 Z-2.664
N3095 X29.41 Y119.756 Z-2.669
N3100 X29.432 Y119.726 Z-2.674
N3105 X29.464 Y119.707 Z-2.679
N3110 X29.5 Y119.7 Z-2.685
N3115 X31.5 Z-2.966
N3120 X31.538 Y119.708 Z-2.971
N3125 X31.571 Y119.729 Z-2.977
N3130 X31.592 Y119.762 Z-2.982
N3135 X31.6 Y119.8 Z-2.988
N3140 X31.592 Y119.838 Z-2.993
N3145 X31.571 Y119.871 Z-2.999
N3150 X31.538 Y119.892 Z-3.004
N3155 X31.5 Y119.9 Z-3.01
N3160 X29.5 Z-3.291
N3165 X29.462 Y119.892 Z-3.296
N3170 X29.429 Y119.871 Z-3.302
N3175 X29.408 Y119.838 Z-3.307
N3180 X29.4 Y119.8 Z-3.313
N3185 X29.408 Y119.762 Z-3.318
N3190 X29.429 Y119.729 Z-3.324
N3195 X29.462 Y119.708 Z-3.329
N3200 X29.5 Y119.7 Z-3.335
N3205 X31.436 Z-3.607
N3210 X31.5 F200.
N3215 X31.538 Y119.708
N3220 X31.571 Y119.729
N3225 X31.592 Y119.762
N3230 X31.6 Y119.8
N3235 X31.592 Y119.838
N3240 X31.571 Y119.871
N3245 X31.538 Y119.892
N3250 X31.5 Y119.9
N3255 X29.5
N3260 X29.462 Y119.892
N3265 X29.429 Y119.871
N3270 X29.408 Y119.838
N3275 X29.4 Y119.8
N3280 X29.408 Y119.762
N3285 X29.429 Y119.729
N3290 X29.462 Y119.708
N3295 X29.5 Y119.7
N3300 X31.436
N3305 X31.5 Z-3.616 F333.33
N3310 X31.538 Y119.708 Z-3.622
N3315 X31.571 Y119.729 Z-3.627
N3320 X31.592 Y119.762 Z-3.633
N3325 X31.6 Y119.8 Z-3.638
N3330 X31.592 Y119.838 Z-3.644
N3335 X31.571 Y119.871 Z-3.649
N3340 X31.538 Y119.892 Z-3.655
N3345 X31.5 Y119.9 Z-3.66
N3350 X29.5 Z-3.941
N3355 X29.462 Y119.892 Z-3.947
N3360 X29.429 Y119.871 Z-3.952
N3365 X29.408 Y119.838 Z-3.958
N3370 X29.4 Y119.8 Z-3.963
N3375 X29.408 Y119.762 Z-3.969
N3380 X29.429 Y119.729 Z-3.974
N3385 X29.462 Y119.708 Z-3.98
N3390 X29.5 Y119.7 Z-3.985
N3395 X31.5 Z-4.267
N3400 X31.538 Y119.708 Z-4.272
N3405 X31.571 Y119.729 Z-4.278
N3410 X31.592 Y119.762 Z-4.283
N3415 X31.6 Y119.8 Z-4.289
N3420 X31.592 Y119.838 Z-4.294
N3425 X31.571 Y119.871 Z-4.3
N3430 X31.538 Y119.892 Z-4.305
N3435 X31.5 Y119.9 Z-4.311
N3440 X29.645 Z-4.571
N3445 X29.5 F200.
N3450 X29.462 Y119.892
N3455 X29.429 Y119.871
N3460 X29.408 Y119.838
N3465 X29.4 Y119.8
N3470 X29.408 Y119.762
N3475 X29.429 Y119.729
N3480 X29.462 Y119.708
N3485 X29.5 Y119.7
N3490 X31.436
N3495 X31.5
N3500 X31.538 Y119.708
N3505 X31.571 Y119.729
N3510 X31.592 Y119.762
N3515 X31.6 Y119.8
N3520 X31.592 Y119.838
N3525 X31.571 Y119.871
N3530 X31.538 Y119.892
N3535 X31.5 Y119.9
N3540 X29.645
N3545 X29.5 Z-4.592 F333.33
N3550 X29.462 Y119.892 Z-4.597
N3555 X29.429 Y119.871 Z-4.603
N3560 X29.408 Y119.838 Z-4.608
N3565 X29.4 Y119.8 Z-4.614
N3570 X29.408 Y119.762 Z-4.619
N3575 X29.429 Y119.729 Z-4.625
N3580 X29.462 Y119.708 Z-4.63
N3585 X29.5 Y119.7 Z-4.636
N3590 X31.5 Z-4.917
N3595 X31.538 Y119.708 Z-4.923
N3600 X31.571 Y119.729 Z-4.928
N3605 X31.592 Y119.762 Z-4.934
N3610 X31.6 Y119.8 Z-4.939
N3615 X31.592 Y119.838 Z-4.945
N3620 X31.571 Y119.871 Z-4.95
N3625 X31.538 Y119.892 Z-4.956
N3630 X31.5 Y119.9 Z-4.961
N3635 X29.5 Z-5.242
N3640 X29.462 Y119.892 Z-5.248
N3645 X29.429 Y119.871 Z-5.253
N3650 X29.408 Y119.838 Z-5.259
N3655 X29.4 Y119.8 Z-5.264
N3660 X29.408 Y119.762 Z-5.27
N3665 X29.429 Y119.729 Z-5.275
N3670 X29.462 Y119.708 Z-5.281
N3675 X29.5 Y119.7 Z-5.286
N3680 X31.274 Z-5.536
N3685 X31.5 F200.
N3690 X31.538 Y119.708
N3695 X31.571 Y119.729
N3700 X31.592 Y119.762
N3705 X31.6 Y119.8
N3710 X31.592 Y119.838
N3715 X31.571 Y119.871
N3720 X31.538 Y119.892
N3725 X31.5 Y119.9
N3730 X29.645
N3735 X29.5
N3740 X29.462 Y119.892
N3745 X29.429 Y119.871
N3750 X29.408 Y119.838
N3755 X29.4 Y119.8
N3760 X29.408 Y119.762
N3765 X29.429 Y119.729
N3770 X29.462 Y119.708
N3775 X29.5 Y119.7
N3780 X31.274
N3785 X31.5 Z-5.567 F333.33
N3790 X31.538 Y119.708 Z-5.573
N3795 X31.571 Y119.729 Z-5.579
N3800 X31.592 Y119.762 Z-5.584
N3805 X31.6 Y119.8 Z-5.59
N3810 X31.592 Y119.838 Z-5.595
N3815 X31.571 Y119.871 Z-5.601
N3820 X31.538 Y119.892 Z-5.606
N3825 X31.5 Y119.9 Z-5.612
N3830 X29.5 Z-5.893
N3835 X29.462 Y119.892 Z-5.898
N3840 X29.429 Y119.871 Z-5.904
N3845 X29.408 Y119.838 Z-5.909
N3850 X29.4 Y119.8 Z-5.915
N3855 X29.408 Y119.762 Z-5.92
N3860 X29.429 Y119.729 Z-5.926
N3865 X29.462 Y119.708 Z-5.931
N3870 X29.5 Y119.7 Z-5.937
N3875 X31.5 Z-6.218
N3880 X31.538 Y119.708 Z-6.223
N3885 X31.571 Y119.729 Z-6.229
N3890 X31.592 Y119.762 Z-6.235
N3895 X31.6 Y119.8 Z-6.24
N3900 X31.592 Y119.838 Z-6.246
N3905 X31.571 Y119.871 Z-6.251
N3910 X31.538 Y119.892 Z-6.257
N3915 X31.5 Y119.9 Z-6.262
N3920 X29.807 Z-6.5
N3925 X29.5 F200.
N3930 X29.462 Y119.892
N3935 X29.429 Y119.871
N3940 X29.408 Y119.838
N3945 X29.4 Y119.8
N3950 X29.408 Y119.762
N3955 X29.429 Y119.729
N3960 X29.462 Y119.708
N3965 X29.5 Y119.7
N3970 X31.274
N3975 X31.5
N3980 X31.538 Y119.708
N3985 X31.571 Y119.729
N3990 X31.592 Y119.762
N3995 X31.6 Y119.8
N4000 X31.592 Y119.838
N4005 X31.571 Y119.871
N4010 X31.538 Y119.892
N4015 X31.5 Y119.9
N4020 X29.807
N4025 G0 Z17.
(BOHRFRSEN1)
N4030 G64
N4035 G0 X50.75 Y145.55
N4040 Z15.
N4045 Z1.95
N4050 G1 Z0.25 F200.
N4055 X50.775 Y145.575
N4060 X50.768 Y145.593
N4065 X50.75 Y145.6
N4070 X50.723 Y145.592 Z0.201
N4075 X50.705 Y145.572 Z0.152
N4080 X50.7 Y145.544 Z0.103
N4085 X50.711 Y145.519 Z0.054
N4090 X50.734 Y145.503 Z0.005
N4095 X50.762 Y145.501 Z-0.044
N4100 X50.786 Y145.515 Z-0.093
N4105 X50.799 Y145.54 Z-0.142
N4110 X50.797 Y145.567 Z-0.191
N4115 X50.781 Y145.59 Z-0.24
N4120 X50.755 Y145.6 Z-0.288
N4125 X50.727 Y145.595 Z-0.337
N4130 X50.707 Y145.576 Z-0.386
N4135 X50.7 Y145.549 Z-0.435
N4140 X50.708 Y145.522 Z-0.484
N4145 X50.73 Y145.504 Z-0.533
N4150 X50.757 Y145.5 Z-0.582
N4155 X50.782 Y145.512 Z-0.631
N4160 X50.798 Y145.535 Z-0.68
N4165 Y145.563 Z-0.729
N4170 X50.784 Y145.587 Z-0.778
N4175 X50.759 Y145.599 Z-0.827
N4180 X50.732 Y145.597 Z-0.876
N4185 X50.71 Y145.58 Z-0.925
N4190 X50.7 Y145.553 Z-0.974
N4195 X50.706 Y145.526 Z-1.023
N4200 X50.725 Y145.506 Z-1.072
N4205 X50.752 Y145.5 Z-1.121
N4210 X50.779 Y145.509 Z-1.17
N4215 X50.796 Y145.531 Z-1.219
N4220 X50.799 Y145.558 Z-1.268
N4225 X50.787 Y145.583 Z-1.316
N4230 X50.764 Y145.598 Z-1.365
N4235 X50.736 Z-1.414
N4240 X50.713 Y145.583 Z-1.463
N4245 X50.701 Y145.558 Z-1.512
N4250 X50.704 Y145.531 Z-1.561
N4255 X50.721 Y145.509 Z-1.61
N4260 X50.748 Y145.5 Z-1.659
N4265 X50.775 Y145.507 Z-1.708
N4270 X50.794 Y145.526 Z-1.757
N4275 X50.8 Y145.554 Z-1.806
N4280 X50.79 Y145.58 Z-1.855
N4285 X50.768 Y145.597 Z-1.904
N4290 X50.741 Y145.599 Z-1.953
N4295 X50.716 Y145.587 Z-2.002
N4300 X50.702 Y145.563 Z-2.051
N4305 Y145.535 Z-2.1
N4310 X50.718 Y145.512 Z-2.149
N4315 X50.743 Y145.5 Z-2.198
N4320 X50.771 Y145.504 Z-2.247
N4325 X50.792 Y145.522 Z-2.296
N4330 X50.8 Y145.549 Z-2.344
N4335 X50.793 Y145.576 Z-2.393
N4340 X50.773 Y145.595 Z-2.442
N4345 X50.745 Y145.6 Z-2.491
N4350 X50.719 Y145.59 Z-2.54
N4355 X50.703 Y145.567 Z-2.589
N4360 X50.701 Y145.539 Z-2.638
N4365 X50.714 Y145.515 Z-2.687
N4370 X50.738 Y145.501 Z-2.736
N4375 X50.766 Y145.503 Z-2.785
N4380 X50.789 Y145.519 Z-2.834
N4385 X50.8 Y145.544 Z-2.883
N4390 X50.795 Y145.572 Z-2.932
N4395 X50.777 Y145.592 Z-2.981
N4400 X50.75 Y145.6 Z-3.03
N4405 X50.723 Y145.592 Z-3.079
N4410 X50.705 Y145.571 Z-3.128
N4415 X50.7 Y145.544 Z-3.177
N4420 X50.711 Y145.519 Z-3.226
N4425 X50.734 Y145.503 Z-3.275
N4430 X50.762 Y145.501 Z-3.324
N4435 X50.784 Y145.513 Z-3.368
N4440 X50.797 Y145.534 Z-3.412
N4445 X50.799 Y145.559 Z-3.456
N4450 X50.788 Y145.582 Z-3.5
N4455 X50.768 Y145.597 Z-3.544
N4460 X50.743 Y145.6 Z-3.588
N4465 X50.72 Y145.59 Z-3.632
N4470 X50.704 Y145.57 Z-3.676
N4475 X50.7 Y145.546 Z-3.721
N4480 X50.709 Y145.522 Z-3.765
N4485 X50.727 Y145.505 Z-3.809
N4490 X50.752 Y145.5 Z-3.853
N4495 X50.776 Y145.507 Z-3.897
N4500 X50.793 Y145.525 Z-3.941
N4505 X50.8 Y145.549 Z-3.985
N4510 X50.794 Y145.574 Z-4.029
N4515 X50.777 Y145.592 Z-4.074
N4520 X50.753 Y145.6 Z-4.118
N4525 X50.728 Y145.595 Z-4.162
N4530 X50.709 Y145.579 Z-4.206
N4535 X50.7 Y145.555 Z-4.25
N4540 X50.704 Y145.531 Z-4.294
N4545 X50.719 Y145.511 Z-4.338
N4550 X50.742 Y145.501 Z-4.382
N4555 X50.767 Y145.503 Z-4.426
N4560 X50.788 Y145.517 Z-4.471
N4565 X50.799 Y145.54 Z-4.515
N4570 X50.798 Y145.565 Z-4.559
N4575 X50.785 Y145.586 Z-4.603
N4580 X50.763 Y145.598 Z-4.647
N4585 X50.738 Z-4.691
N4590 X50.716 Y145.586 Z-4.735
N4595 X50.702 Y145.565 Z-4.779
N4600 X50.701 Y145.54 Z-4.824
N4605 X50.712 Y145.518 Z-4.868
N4610 X50.733 Y145.503 Z-4.912
N4615 X50.757 Y145.501 Z-4.956
N4620 X50.781 Y145.51 Z-5.
N4625 X50.796 Y145.53 Z-5.044
N4630 X50.8 Y145.555 Z-5.088
N4635 X50.791 Y145.579 Z-5.132
N4640 X50.772 Y145.595 Z-5.176
N4645 X50.747 Y145.6 Z-5.221
N4650 X50.724 Y145.592 Z-5.265
N4655 X50.706 Y145.574 Z-5.309
N4660 X50.7 Y145.55 Z-5.353
N4665 X50.706 Y145.526 Z-5.397
N4670 X50.724 Y145.508 Z-5.441
N4675 X50.748 Y145.5 Z-5.485
N4680 X50.772 Y145.505 Z-5.529
N4685 X50.791 Y145.522 Z-5.574
N4690 X50.8 Y145.545 Z-5.618
N4695 X50.796 Y145.57 Z-5.662
N4700 X50.78 Y145.59 Z-5.706
N4705 X50.756 Y145.6 Z-5.753
N4710 X50.73 Y145.596 Z-5.799
N4715 X50.709 Y145.579 Z-5.846
N4720 X50.7 Y145.554 Z-5.893
N4725 X50.705 Y145.528 Z-5.939
N4730 X50.723 Y145.508 Z-5.986
N4735 X50.748 Y145.5 Z-6.033
N4740 X50.774 Y145.506 Z-6.08
N4745 X50.793 Y145.525 Z-6.126
N4750 X50.8 Y145.55 Z-6.173
N4755 X50.793 Y145.576 Z-6.22
N4760 X50.774 Y145.594 Z-6.266
N4765 X50.748 Y145.6 Z-6.313
N4770 X50.723 Y145.592 Z-6.36
N4775 X50.705 Y145.572 Z-6.407
N4780 X50.7 Y145.546 Z-6.453
N4785 X50.709 Y145.521 Z-6.5
N4790 G3 X50.791 Y145.579 I0.041 J0.029
N4795 X50.709 Y145.521 I-0.041 J-0.029
N4800 G1 X50.726 Y145.511
N4805 X50.744 Y145.515
N4810 X50.75 Y145.55
N4815 G0 Z5.
N4820 X69.25
N4825 Z1.95
N4830 G1 Z0.25 F200.
N4835 X69.275 Y145.575
N4840 X69.268 Y145.593
N4845 X69.25 Y145.6
N4850 X69.224 Y145.593 Z0.202
N4855 X69.206 Y145.573 Z0.155
N4860 X69.2 Y145.546 Z0.107
N4865 X69.209 Y145.521 Z0.059
N4870 X69.23 Y145.504 Z0.012
N4875 X69.257 Y145.501 Z-0.036
N4880 X69.282 Y145.512 Z-0.084
N4885 X69.297 Y145.534 Z-0.131
N4890 X69.299 Y145.561 Z-0.179
N4895 X69.286 Y145.585 Z-0.226
N4900 X69.263 Y145.598 Z-0.274
N4905 X69.236 Z-0.322
N4910 X69.213 Y145.583 Z-0.369
N4915 X69.201 Y145.559 Z-0.417
N4920 X69.203 Y145.532 Z-0.465
N4925 X69.219 Y145.511 Z-0.512
N4930 X69.244 Y145.5 Z-0.56
N4935 X69.271 Y145.505 Z-0.608
N4940 X69.292 Y145.522 Z-0.655
N4945 X69.3 Y145.548 Z-0.703
N4950 X69.294 Y145.574 Z-0.751
N4955 X69.275 Y145.593 Z-0.798
N4960 X69.248 Y145.6 Z-0.846
N4965 X69.223 Y145.592 Z-0.894
N4970 X69.205 Y145.572 Z-0.941
N4975 X69.2 Y145.547 Z-0.985
N4980 X69.208 Y145.523 Z-1.029
N4985 X69.226 Y145.506 Z-1.074
N4990 X69.251 Y145.5 Z-1.118
N4995 X69.275 Y145.507 Z-1.162
N5000 X69.293 Y145.524 Z-1.206
N5005 X69.3 Y145.548 Z-1.25
N5010 X69.295 Y145.573 Z-1.294
N5015 X69.278 Y145.591 Z-1.338
N5020 X69.254 Y145.6 Z-1.382
N5025 X69.23 Y145.596 Z-1.426
N5030 X69.21 Y145.58 Z-1.471
N5035 X69.2 Y145.557 Z-1.515
N5040 X69.203 Y145.532 Z-1.559
N5045 X69.218 Y145.512 Z-1.603
N5050 X69.241 Y145.501 Z-1.647
N5055 X69.266 Y145.503 Z-1.691
N5060 X69.287 Y145.516 Z-1.735
N5065 X69.299 Y145.54 Z-1.782
N5070 X69.297 Y145.566 Z-1.829
N5075 X69.282 Y145.588 Z-1.875
N5080 X69.258 Y145.599 Z-1.922
N5085 X69.232 Y145.597 Z-1.969
N5090 X69.211 Y145.581 Z-2.016
N5095 X69.2 Y145.556 Z-2.062
N5100 X69.204 Y145.53 Z-2.109
N5105 X69.221 Y145.509 Z-2.156
N5110 X69.246 Y145.5 Z-2.202
N5115 X69.272 Y145.505 Z-2.249
N5120 X69.292 Y145.523 Z-2.296
N5125 X69.3 Y145.548 Z-2.343
N5130 X69.294 Y145.574 Z-2.389
N5135 X69.276 Y145.593 Z-2.436
N5140 X69.25 Y145.6 Z-2.483
N5145 X69.225 Y145.593 Z-2.529
N5150 X69.207 Y145.575 Z-2.574
N5155 X69.2 Y145.551 Z-2.618
N5160 X69.206 Y145.527 Z-2.662
N5165 X69.223 Y145.508 Z-2.706
N5170 X69.246 Y145.5 Z-2.75
N5175 X69.271 Y145.505 Z-2.794
N5180 X69.29 Y145.521 Z-2.838
N5185 X69.3 Y145.544 Z-2.882
N5190 X69.296 Y145.569 Z-2.926
N5195 X69.281 Y145.589 Z-2.971
N5200 X69.259 Y145.599 Z-3.015
N5205 X69.234 Y145.597 Z-3.059
N5210 X69.213 Y145.583 Z-3.103
N5215 X69.201 Y145.561 Z-3.147
N5220 X69.202 Y145.536 Z-3.191
N5225 X69.215 Y145.514 Z-3.235
N5230 X69.237 Y145.502 Z-3.279
N5235 X69.262 Y145.501 Z-3.324
N5240 X69.284 Y145.513 Z-3.368
N5245 X69.297 Y145.534 Z-3.412
N5250 X69.299 Y145.559 Z-3.456
N5255 X69.288 Y145.582 Z-3.5
N5260 X69.268 Y145.597 Z-3.544
N5265 X69.243 Y145.6 Z-3.588
N5270 X69.22 Y145.59 Z-3.632
N5275 X69.204 Y145.57 Z-3.676
N5280 X69.2 Y145.546 Z-3.721
N5285 X69.209 Y145.522 Z-3.765
N5290 X69.227 Y145.505 Z-3.809
N5295 X69.252 Y145.5 Z-3.853
N5300 X69.276 Y145.507 Z-3.897
N5305 X69.293 Y145.525 Z-3.941
N5310 X69.3 Y145.549 Z-3.985
N5315 X69.294 Y145.574 Z-4.029
N5320 X69.277 Y145.592 Z-4.074
N5325 X69.253 Y145.6 Z-4.118
N5330 X69.228 Y145.595 Z-4.162
N5335 X69.209 Y145.579 Z-4.206
N5340 X69.2 Y145.555 Z-4.25
N5345 X69.204 Y145.531 Z-4.294
N5350 X69.219 Y145.511 Z-4.338
N5355 X69.242 Y145.501 Z-4.382
N5360 X69.267 Y145.503 Z-4.426
N5365 X69.288 Y145.517 Z-4.471
N5370 X69.299 Y145.54 Z-4.515
N5375 X69.298 Y145.565 Z-4.559
N5380 X69.285 Y145.586 Z-4.603
N5385 X69.263 Y145.598 Z-4.647
N5390 X69.238 Z-4.691
N5395 X69.216 Y145.586 Z-4.735
N5400 X69.202 Y145.565 Z-4.779
N5405 X69.201 Y145.54 Z-4.824
N5410 X69.212 Y145.518 Z-4.868
N5415 X69.233 Y145.503 Z-4.912
N5420 X69.257 Y145.501 Z-4.956
N5425 X69.281 Y145.51 Z-5.
N5430 X69.296 Y145.53 Z-5.044
N5435 X69.3 Y145.555 Z-5.088
N5440 X69.291 Y145.579 Z-5.132
N5445 X69.272 Y145.595 Z-5.176
N5450 X69.247 Y145.6 Z-5.221
N5455 X69.224 Y145.592 Z-5.265
N5460 X69.206 Y145.574 Z-5.309
N5465 X69.2 Y145.55 Z-5.353
N5470 X69.206 Y145.526 Z-5.397
N5475 X69.224 Y145.508 Z-5.441
N5480 X69.248 Y145.5 Z-5.485
N5485 X69.272 Y145.505 Z-5.529
N5490 X69.291 Y145.522 Z-5.574
N5495 X69.3 Y145.545 Z-5.618
N5500 X69.296 Y145.57 Z-5.662
N5505 X69.28 Y145.59 Z-5.706
N5510 X69.256 Y145.6 Z-5.753
N5515 X69.23 Y145.596 Z-5.799
N5520 X69.209 Y145.579 Z-5.846
N5525 X69.2 Y145.554 Z-5.893
N5530 X69.205 Y145.528 Z-5.939
N5535 X69.223 Y145.508 Z-5.986
N5540 X69.248 Y145.5 Z-6.033
N5545 X69.274 Y145.506 Z-6.08
N5550 X69.293 Y145.525 Z-6.126
N5555 X69.3 Y145.55 Z-6.173
N5560 X69.293 Y145.576 Z-6.22
N5565 X69.274 Y145.594 Z-6.266
N5570 X69.248 Y145.6 Z-6.313
N5575 X69.223 Y145.592 Z-6.36
N5580 X69.205 Y145.572 Z-6.407
N5585 X69.2 Y145.546 Z-6.453
N5590 X69.209 Y145.521 Z-6.5
N5595 G3 X69.291 Y145.579 I0.041 J0.029
N5600 X69.209 Y145.521 I-0.041 J-0.029
N5605 G1 X69.226 Y145.511
N5610 X69.244 Y145.515
N5615 X69.25 Y145.55
N5620 G0 Z5.
N5625 Y179.05
N5630 Z1.95
N5635 G1 Z0.25 F200.
N5640 X69.275 Y179.075
N5645 X69.268 Y179.093
N5650 X69.25 Y179.1
N5655 X69.224 Y179.093 Z0.202
N5660 X69.206 Y179.073 Z0.155
N5665 X69.2 Y179.046 Z0.107
N5670 X69.209 Y179.021 Z0.059
N5675 X69.23 Y179.004 Z0.012
N5680 X69.257 Y179.001 Z-0.036
N5685 X69.282 Y179.012 Z-0.084
N5690 X69.297 Y179.034 Z-0.131
N5695 X69.299 Y179.061 Z-0.179
N5700 X69.286 Y179.085 Z-0.226
N5705 X69.263 Y179.098 Z-0.274
N5710 X69.236 Z-0.322
N5715 X69.213 Y179.083 Z-0.369
N5720 X69.201 Y179.059 Z-0.417
N5725 X69.203 Y179.032 Z-0.465
N5730 X69.219 Y179.011 Z-0.512
N5735 X69.244 Y179. Z-0.56
N5740 X69.271 Y179.005 Z-0.608
N5745 X69.292 Y179.022 Z-0.655
N5750 X69.3 Y179.048 Z-0.703
N5755 X69.294 Y179.074 Z-0.751
N5760 X69.275 Y179.093 Z-0.798
N5765 X69.248 Y179.1 Z-0.846
N5770 X69.223 Y179.092 Z-0.894
N5775 X69.205 Y179.072 Z-0.941
N5780 X69.2 Y179.047 Z-0.985
N5785 X69.208 Y179.023 Z-1.029
N5790 X69.226 Y179.006 Z-1.074
N5795 X69.251 Y179. Z-1.118
N5800 X69.275 Y179.007 Z-1.162
N5805 X69.293 Y179.024 Z-1.206
N5810 X69.3 Y179.048 Z-1.25
N5815 X69.295 Y179.073 Z-1.294
N5820 X69.278 Y179.091 Z-1.338
N5825 X69.254 Y179.1 Z-1.382
N5830 X69.23 Y179.096 Z-1.426
N5835 X69.21 Y179.08 Z-1.471
N5840 X69.2 Y179.057 Z-1.515
N5845 X69.203 Y179.032 Z-1.559
N5850 X69.218 Y179.012 Z-1.603
N5855 X69.241 Y179.001 Z-1.647
N5860 X69.266 Y179.003 Z-1.691
N5865 X69.287 Y179.016 Z-1.735
N5870 X69.299 Y179.04 Z-1.782
N5875 X69.297 Y179.066 Z-1.829
N5880 X69.282 Y179.088 Z-1.875
N5885 X69.258 Y179.099 Z-1.922
N5890 X69.232 Y179.097 Z-1.969
N5895 X69.211 Y179.081 Z-2.016
N5900 X69.2 Y179.056 Z-2.062
N5905 X69.204 Y179.03 Z-2.109
N5910 X69.221 Y179.009 Z-2.156
N5915 X69.246 Y179. Z-2.202
N5920 X69.272 Y179.005 Z-2.249
N5925 X69.292 Y179.023 Z-2.296
N5930 X69.3 Y179.048 Z-2.343
N5935 X69.294 Y179.074 Z-2.389
N5940 X69.276 Y179.093 Z-2.436
N5945 X69.25 Y179.1 Z-2.483
N5950 X69.225 Y179.093 Z-2.529
N5955 X69.207 Y179.075 Z-2.574
N5960 X69.2 Y179.051 Z-2.618
N5965 X69.206 Y179.027 Z-2.662
N5970 X69.223 Y179.008 Z-2.706
N5975 X69.246 Y179. Z-2.75
N5980 X69.271 Y179.005 Z-2.794
N5985 X69.29 Y179.021 Z-2.838
N5990 X69.3 Y179.044 Z-2.882
N5995 X69.296 Y179.069 Z-2.926
N6000 X69.281 Y179.089 Z-2.971
N6005 X69.259 Y179.099 Z-3.015
N6010 X69.234 Y179.097 Z-3.059
N6015 X69.213 Y179.083 Z-3.103
N6020 X69.201 Y179.061 Z-3.147
N6025 X69.202 Y179.036 Z-3.191
N6030 X69.215 Y179.014 Z-3.235
N6035 X69.237 Y179.002 Z-3.279
N6040 X69.262 Y179.001 Z-3.324
N6045 X69.284 Y179.013 Z-3.368
N6050 X69.297 Y179.034 Z-3.412
N6055 X69.299 Y179.059 Z-3.456
N6060 X69.288 Y179.082 Z-3.5
N6065 X69.268 Y179.097 Z-3.544
N6070 X69.243 Y179.1 Z-3.588
N6075 X69.22 Y179.09 Z-3.632
N6080 X69.204 Y179.07 Z-3.676
N6085 X69.2 Y179.046 Z-3.721
N6090 X69.209 Y179.022 Z-3.765
N6095 X69.227 Y179.005 Z-3.809
N6100 X69.252 Y179. Z-3.853
N6105 X69.276 Y179.007 Z-3.897
N6110 X69.293 Y179.025 Z-3.941
N6115 X69.3 Y179.049 Z-3.985
N6120 X69.294 Y179.074 Z-4.029
N6125 X69.277 Y179.092 Z-4.074
N6130 X69.253 Y179.1 Z-4.118
N6135 X69.228 Y179.095 Z-4.162
N6140 X69.209 Y179.079 Z-4.206
N6145 X69.2 Y179.055 Z-4.25
N6150 X69.204 Y179.031 Z-4.294
N6155 X69.219 Y179.011 Z-4.338
N6160 X69.242 Y179.001 Z-4.382
N6165 X69.267 Y179.003 Z-4.426
N6170 X69.288 Y179.017 Z-4.471
N6175 X69.299 Y179.04 Z-4.515
N6180 X69.298 Y179.065 Z-4.559
N6185 X69.285 Y179.086 Z-4.603
N6190 X69.263 Y179.098 Z-4.647
N6195 X69.238 Z-4.691
N6200 X69.216 Y179.086 Z-4.735
N6205 X69.202 Y179.065 Z-4.779
N6210 X69.201 Y179.04 Z-4.824
N6215 X69.212 Y179.018 Z-4.868
N6220 X69.233 Y179.003 Z-4.912
N6225 X69.257 Y179.001 Z-4.956
N6230 X69.281 Y179.01 Z-5.
N6235 X69.296 Y179.03 Z-5.044
N6240 X69.3 Y179.055 Z-5.088
N6245 X69.291 Y179.079 Z-5.132
N6250 X69.272 Y179.095 Z-5.176
N6255 X69.247 Y179.1 Z-5.221
N6260 X69.224 Y179.092 Z-5.265
N6265 X69.206 Y179.074 Z-5.309
N6270 X69.2 Y179.05 Z-5.353
N6275 X69.206 Y179.026 Z-5.397
N6280 X69.224 Y179.008 Z-5.441
N6285 X69.248 Y179. Z-5.485
N6290 X69.272 Y179.005 Z-5.529
N6295 X69.291 Y179.022 Z-5.574
N6300 X69.3 Y179.045 Z-5.618
N6305 X69.296 Y179.07 Z-5.662
N6310 X69.28 Y179.09 Z-5.706
N6315 X69.256 Y179.1 Z-5.753
N6320 X69.23 Y179.096 Z-5.799
N6325 X69.209 Y179.079 Z-5.846
N6330 X69.2 Y179.054 Z-5.893
N6335 X69.205 Y179.028 Z-5.939
N6340 X69.223 Y179.008 Z-5.986
N6345 X69.248 Y179. Z-6.033
N6350 X69.274 Y179.006 Z-6.08
N6355 X69.293 Y179.025 Z-6.126
N6360 X69.3 Y179.05 Z-6.173
N6365 X69.293 Y179.076 Z-6.22
N6370 X69.274 Y179.094 Z-6.266
N6375 X69.248 Y179.1 Z-6.313
N6380 X69.223 Y179.092 Z-6.36
N6385 X69.205 Y179.072 Z-6.407
N6390 X69.2 Y179.046 Z-6.453
N6395 X69.209 Y179.021 Z-6.5
N6400 G3 X69.291 Y179.079 I0.041 J0.029
N6405 X69.209 Y179.021 I-0.041 J-0.029
N6410 G1 X69.226 Y179.011
N6415 X69.244 Y179.015
N6420 X69.25 Y179.05
N6425 G0 Z5.
N6430 X50.75
N6435 Z1.95
N6440 G1 Z0.25 F200.
N6445 X50.775 Y179.075
N6450 X50.768 Y179.093
N6455 X50.75 Y179.1
N6460 X50.723 Y179.092 Z0.201
N6465 X50.705 Y179.072 Z0.152
N6470 X50.7 Y179.044 Z0.103
N6475 X50.711 Y179.019 Z0.054
N6480 X50.734 Y179.003 Z0.005
N6485 X50.762 Y179.001 Z-0.044
N6490 X50.786 Y179.015 Z-0.093
N6495 X50.799 Y179.04 Z-0.142
N6500 X50.797 Y179.067 Z-0.191
N6505 X50.781 Y179.09 Z-0.24
N6510 X50.755 Y179.1 Z-0.288
N6515 X50.727 Y179.095 Z-0.337
N6520 X50.707 Y179.076 Z-0.386
N6525 X50.7 Y179.049 Z-0.435
N6530 X50.708 Y179.022 Z-0.484
N6535 X50.73 Y179.004 Z-0.533
N6540 X50.757 Y179. Z-0.582
N6545 X50.782 Y179.012 Z-0.631
N6550 X50.798 Y179.035 Z-0.68
N6555 Y179.063 Z-0.729
N6560 X50.784 Y179.087 Z-0.778
N6565 X50.759 Y179.099 Z-0.827
N6570 X50.732 Y179.097 Z-0.876
N6575 X50.71 Y179.08 Z-0.925
N6580 X50.7 Y179.053 Z-0.974
N6585 X50.706 Y179.026 Z-1.023
N6590 X50.725 Y179.006 Z-1.072
N6595 X50.752 Y179. Z-1.121
N6600 X50.779 Y179.009 Z-1.17
N6605 X50.796 Y179.031 Z-1.219
N6610 X50.799 Y179.058 Z-1.268
N6615 X50.787 Y179.083 Z-1.316
N6620 X50.764 Y179.098 Z-1.365
N6625 X50.736 Z-1.414
N6630 X50.713 Y179.083 Z-1.463
N6635 X50.701 Y179.058 Z-1.512
N6640 X50.704 Y179.031 Z-1.561
N6645 X50.721 Y179.009 Z-1.61
N6650 X50.748 Y179. Z-1.659
N6655 X50.775 Y179.007 Z-1.708
N6660 X50.794 Y179.026 Z-1.757
N6665 X50.8 Y179.054 Z-1.806
N6670 X50.79 Y179.08 Z-1.855
N6675 X50.768 Y179.097 Z-1.904
N6680 X50.741 Y179.099 Z-1.953
N6685 X50.716 Y179.087 Z-2.002
N6690 X50.702 Y179.063 Z-2.051
N6695 Y179.035 Z-2.1
N6700 X50.718 Y179.012 Z-2.149
N6705 X50.743 Y179. Z-2.198
N6710 X50.771 Y179.004 Z-2.247
N6715 X50.792 Y179.022 Z-2.296
N6720 X50.8 Y179.049 Z-2.344
N6725 X50.793 Y179.076 Z-2.393
N6730 X50.773 Y179.095 Z-2.442
N6735 X50.745 Y179.1 Z-2.491
N6740 X50.719 Y179.09 Z-2.54
N6745 X50.703 Y179.067 Z-2.589
N6750 X50.701 Y179.039 Z-2.638
N6755 X50.714 Y179.015 Z-2.687
N6760 X50.738 Y179.001 Z-2.736
N6765 X50.766 Y179.003 Z-2.785
N6770 X50.789 Y179.019 Z-2.834
N6775 X50.8 Y179.044 Z-2.883
N6780 X50.795 Y179.072 Z-2.932
N6785 X50.777 Y179.092 Z-2.981
N6790 X50.75 Y179.1 Z-3.03
N6795 X50.723 Y179.092 Z-3.079
N6800 X50.705 Y179.071 Z-3.128
N6805 X50.7 Y179.044 Z-3.177
N6810 X50.711 Y179.019 Z-3.226
N6815 X50.734 Y179.003 Z-3.275
N6820 X50.762 Y179.001 Z-3.324
N6825 X50.784 Y179.013 Z-3.368
N6830 X50.797 Y179.034 Z-3.412
N6835 X50.799 Y179.059 Z-3.456
N6840 X50.788 Y179.082 Z-3.5
N6845 X50.768 Y179.097 Z-3.544
N6850 X50.743 Y179.1 Z-3.588
N6855 X50.72 Y179.09 Z-3.632
N6860 X50.704 Y179.07 Z-3.676
N6865 X50.7 Y179.046 Z-3.721
N6870 X50.709 Y179.022 Z-3.765
N6875 X50.727 Y179.005 Z-3.809
N6880 X50.752 Y179. Z-3.853
N6885 X50.776 Y179.007 Z-3.897
N6890 X50.793 Y179.025 Z-3.941
N6895 X50.8 Y179.049 Z-3.985
N6900 X50.794 Y179.074 Z-4.029
N6905 X50.777 Y179.092 Z-4.074
N6910 X50.753 Y179.1 Z-4.118
N6915 X50.728 Y179.095 Z-4.162
N6920 X50.709 Y179.079 Z-4.206
N6925 X50.7 Y179.055 Z-4.25
N6930 X50.704 Y179.031 Z-4.294
N6935 X50.719 Y179.011 Z-4.338
N6940 X50.742 Y179.001 Z-4.382
N6945 X50.767 Y179.003 Z-4.426
N6950 X50.788 Y179.017 Z-4.471
N6955 X50.799 Y179.04 Z-4.515
N6960 X50.798 Y179.065 Z-4.559
N6965 X50.785 Y179.086 Z-4.603
N6970 X50.763 Y179.098 Z-4.647
N6975 X50.738 Z-4.691
N6980 X50.716 Y179.086 Z-4.735
N6985 X50.702 Y179.065 Z-4.779
N6990 X50.701 Y179.04 Z-4.824
N6995 X50.712 Y179.018 Z-4.868
N7000 X50.733 Y179.003 Z-4.912
N7005 X50.757 Y179.001 Z-4.956
N7010 X50.781 Y179.01 Z-5.
N7015 X50.796 Y179.03 Z-5.044
N7020 X50.8 Y179.055 Z-5.088
N7025 X50.791 Y179.079 Z-5.132
N7030 X50.772 Y179.095 Z-5.176
N7035 X50.747 Y179.1 Z-5.221
N7040 X50.724 Y179.092 Z-5.265
N7045 X50.706 Y179.074 Z-5.309
N7050 X50.7 Y179.05 Z-5.353
N7055 X50.706 Y179.026 Z-5.397
N7060 X50.724 Y179.008 Z-5.441
N7065 X50.748 Y179. Z-5.485
N7070 X50.772 Y179.005 Z-5.529
N7075 X50.791 Y179.022 Z-5.574
N7080 X50.8 Y179.045 Z-5.618
N7085 X50.796 Y179.07 Z-5.662
N7090 X50.78 Y179.09 Z-5.706
N7095 X50.756 Y179.1 Z-5.753
N7100 X50.73 Y179.096 Z-5.799
N7105 X50.709 Y179.079 Z-5.846
N7110 X50.7 Y179.054 Z-5.893
N7115 X50.705 Y179.028 Z-5.939
N7120 X50.723 Y179.008 Z-5.986
N7125 X50.748 Y179. Z-6.033
N7130 X50.774 Y179.006 Z-6.08
N7135 X50.793 Y179.025 Z-6.126
N7140 X50.8 Y179.05 Z-6.173
N7145 X50.793 Y179.076 Z-6.22
N7150 X50.774 Y179.094 Z-6.266
N7155 X50.748 Y179.1 Z-6.313
N7160 X50.723 Y179.092 Z-6.36
N7165 X50.705 Y179.072 Z-6.407
N7170 X50.7 Y179.046 Z-6.453
N7175 X50.709 Y179.021 Z-6.5
N7180 G3 X50.791 Y179.079 I0.041 J0.029
N7185 X50.709 Y179.021 I-0.041 J-0.029
N7190 G1 X50.726 Y179.011
N7195 X50.744 Y179.015
N7200 X50.75 Y179.05
N7205 G0 Z15.
N7210 G53 Z0.
N7215 M30
%
